<?xml version="1.0" encoding="UTF-8"?>
<map version="1.10" tiledversion="1.10.2" orientation="orthogonal" renderorder="right-down" width="50" height="50" tilewidth="32" tileheight="32" infinite="0" nextlayerid="11" nextobjectid="55">
 <tileset firstgid="1" source="Tuiles map.tsx"/>
 <layer id="10" name="Dirt" width="50" height="50">
  <data encoding="csv">
57,57,57,57,57,57,57,57,57,57,57,57,57,57,57,57,57,57,57,57,57,57,57,57,57,57,57,57,57,57,57,57,57,57,57,57,57,57,57,57,57,57,57,57,57,57,57,57,57,57,
57,57,57,57,57,57,57,57,57,57,57,57,57,57,57,57,57,57,57,57,57,57,57,57,57,57,57,57,57,57,57,57,57,57,57,57,57,57,57,57,57,57,57,57,57,57,0,0,0,57,
57,57,57,57,57,57,57,57,57,57,57,57,57,57,57,57,57,57,57,57,57,57,57,57,57,57,57,57,57,57,57,57,57,57,57,57,57,57,57,57,57,57,57,57,57,57,57,57,57,57,
57,57,57,57,57,57,57,57,57,57,57,57,57,57,57,57,57,57,57,57,57,57,57,57,57,57,57,57,57,57,57,57,57,57,57,57,57,57,57,57,57,57,57,57,57,57,57,57,57,57,
57,57,57,57,57,57,57,57,57,57,57,57,57,57,57,57,57,57,57,57,57,57,57,57,57,57,57,57,57,57,57,57,57,57,57,57,57,57,57,57,57,57,57,57,57,57,57,57,57,57,
57,57,57,57,57,57,57,57,57,57,57,57,57,57,57,57,57,57,57,57,57,57,57,57,57,57,57,57,57,57,57,57,57,57,57,57,57,57,57,57,57,57,57,57,57,57,57,57,57,57,
57,57,57,57,57,57,57,57,57,57,57,57,57,57,57,57,57,57,57,57,57,57,57,57,57,57,57,57,57,57,57,57,57,57,57,57,57,57,57,57,57,57,57,57,57,57,57,57,57,57,
57,57,57,57,57,57,57,57,57,57,57,57,57,57,57,57,57,57,57,57,57,57,57,57,57,57,57,57,57,57,57,57,57,57,57,57,57,57,57,57,57,57,57,57,57,57,57,57,57,57,
57,57,57,57,57,57,57,57,57,57,57,57,57,57,57,57,57,57,57,57,57,57,57,57,57,57,57,57,57,57,57,57,57,57,57,57,57,57,57,57,57,57,57,57,57,57,57,57,57,57,
57,57,57,57,57,57,57,57,57,57,57,57,57,57,57,57,57,57,57,57,57,57,57,57,57,57,57,57,57,57,57,57,57,57,57,57,57,57,57,57,57,57,57,57,57,57,57,57,57,57,
57,57,57,57,57,57,57,57,57,57,57,57,57,57,57,57,57,57,57,57,57,57,57,57,57,57,57,57,57,57,57,57,57,57,57,57,57,57,57,57,57,57,57,57,57,57,57,57,57,57,
57,57,57,57,57,57,57,57,57,57,57,57,57,57,57,57,57,57,57,57,57,57,57,57,57,57,57,57,57,57,57,57,57,57,57,57,57,57,57,57,57,57,57,57,57,57,57,57,57,57,
57,57,57,57,57,57,57,57,57,57,57,57,57,57,57,57,57,57,57,57,57,57,57,57,57,57,57,57,57,57,57,57,57,57,57,57,57,57,57,57,57,57,57,57,57,57,57,57,57,57,
57,57,57,57,57,57,57,57,57,57,57,57,57,57,57,57,57,57,57,57,57,57,57,57,57,57,57,57,57,57,57,57,57,57,57,57,57,57,57,57,57,57,57,57,57,57,57,57,57,57,
57,57,57,57,57,57,57,57,57,57,57,57,57,57,57,57,57,57,57,57,57,57,57,57,57,57,57,57,57,57,57,57,57,57,57,57,57,57,57,57,57,57,57,57,57,57,57,57,57,57,
57,57,57,57,57,57,57,57,57,57,57,57,57,57,57,57,57,57,57,57,57,57,57,57,57,57,57,57,57,57,57,57,57,57,57,57,57,57,57,57,57,57,57,57,57,57,57,57,57,57,
57,57,57,57,57,57,57,57,57,57,57,57,57,57,57,57,57,57,57,57,57,57,57,57,57,57,57,57,57,57,57,57,57,57,57,57,57,57,57,57,57,57,57,57,57,57,57,57,57,57,
57,57,57,57,57,57,57,57,57,57,57,57,57,57,57,57,57,57,57,57,57,57,57,57,57,57,57,57,57,57,57,57,57,57,57,57,57,57,57,57,57,57,57,57,57,57,57,57,57,57,
57,57,57,57,57,57,57,57,57,57,57,57,57,57,57,57,57,57,57,57,57,57,57,57,57,57,57,57,57,57,57,57,57,57,57,57,57,57,57,57,57,57,57,57,57,57,57,57,57,57,
57,57,57,57,57,57,57,57,57,57,57,57,57,57,57,57,57,57,57,57,57,57,57,57,57,57,57,57,57,57,57,57,57,57,57,57,57,57,57,57,57,57,57,57,57,57,57,57,57,57,
57,57,57,57,57,57,57,57,57,57,57,57,57,57,57,57,57,57,57,57,57,57,57,57,57,57,57,57,57,57,57,57,57,57,57,57,57,57,57,57,57,57,57,57,57,57,57,57,57,57,
57,57,57,57,57,57,57,57,57,57,57,57,57,57,57,57,57,57,57,57,57,57,57,57,57,57,57,57,57,57,57,57,57,57,57,57,57,57,57,57,57,57,57,57,57,57,57,57,57,57,
57,57,57,57,57,57,57,57,57,57,57,57,57,57,57,57,57,57,57,57,57,57,57,57,57,57,57,57,57,57,57,57,57,57,57,57,57,57,57,57,57,57,57,57,57,57,57,57,57,57,
57,57,57,57,57,57,57,57,57,57,57,57,57,57,57,57,57,57,57,57,57,57,57,57,57,57,57,57,57,57,57,57,57,57,57,57,57,57,57,57,57,57,57,57,57,57,57,57,57,57,
57,57,57,57,57,57,57,57,57,57,57,57,57,57,57,57,57,57,57,57,57,57,57,57,57,57,57,57,57,57,57,57,57,57,57,57,57,57,57,57,57,57,57,57,57,57,57,57,57,57,
57,57,57,57,57,57,57,57,57,57,57,57,57,57,57,57,57,57,57,57,57,57,57,57,57,57,57,57,57,57,57,57,57,57,57,57,57,57,57,57,57,57,57,57,57,57,57,57,57,57,
57,57,57,57,57,57,57,57,57,57,57,57,57,57,57,57,57,57,57,57,57,57,57,57,57,57,57,57,57,57,57,57,57,57,57,57,57,57,57,57,57,57,57,57,57,57,57,57,57,57,
57,57,57,57,57,57,57,57,57,57,57,57,57,57,57,57,57,57,57,57,57,57,57,57,57,57,57,57,57,57,57,57,57,57,57,57,57,57,57,57,57,57,57,57,57,57,57,57,57,57,
57,57,57,57,57,57,57,57,57,57,57,57,57,57,57,57,57,57,57,57,57,57,57,57,57,57,57,57,57,57,57,57,57,57,57,57,57,57,57,57,57,57,57,57,57,57,57,57,57,57,
57,57,57,57,57,57,57,57,57,57,57,57,57,57,57,57,57,57,57,57,57,57,57,57,57,57,57,57,57,57,57,57,57,57,57,57,57,57,57,57,57,57,57,57,57,57,57,57,57,57,
57,57,57,57,57,57,57,57,57,57,57,57,57,57,57,57,57,57,57,57,57,57,57,57,57,57,57,57,57,57,57,57,57,57,57,57,57,57,57,57,57,57,57,57,57,57,57,57,57,57,
57,57,57,57,57,57,57,57,57,57,57,57,57,57,57,57,57,57,57,57,57,57,57,57,57,57,57,57,57,57,57,57,57,57,57,57,57,57,57,57,57,57,57,57,57,57,57,57,57,57,
57,57,57,57,57,57,57,57,57,57,57,57,57,57,57,57,57,57,57,57,57,57,57,57,57,57,57,57,57,57,57,57,57,57,57,57,57,57,57,57,57,57,57,57,57,57,57,57,57,57,
57,57,57,57,57,57,57,57,57,57,57,57,57,57,57,57,57,57,57,57,57,57,57,57,57,57,57,57,57,57,57,57,57,57,57,57,57,57,57,57,57,57,57,57,57,57,57,57,57,57,
57,57,57,57,57,57,57,57,57,57,57,57,57,57,57,57,57,57,57,57,57,57,57,57,57,57,57,57,57,57,57,57,57,57,57,57,57,57,57,57,57,57,57,57,57,57,57,57,57,57,
57,57,57,57,57,57,57,57,57,57,57,57,57,57,57,57,57,57,57,57,57,57,57,57,57,57,57,57,57,57,57,57,57,57,57,57,57,57,57,57,57,57,57,57,57,57,57,57,57,57,
57,57,57,57,57,57,57,57,57,57,57,57,57,57,57,57,57,57,57,57,57,57,57,57,57,57,57,57,57,57,57,57,57,57,57,57,57,57,57,57,57,57,57,57,57,57,57,57,57,57,
57,57,57,57,57,57,57,57,57,57,57,57,57,57,57,57,57,57,57,57,57,57,57,57,57,57,57,57,57,57,57,57,57,57,57,57,57,57,57,57,57,57,57,57,57,57,57,57,57,57,
57,57,57,57,57,57,57,57,57,57,57,57,57,57,57,57,57,57,57,57,57,57,57,57,57,57,57,57,57,57,57,57,57,57,57,57,57,57,57,57,57,57,57,57,57,57,57,57,57,57,
57,57,57,57,57,57,57,57,57,57,57,57,57,57,57,57,57,57,57,57,57,57,57,57,57,57,57,57,57,57,57,57,57,57,57,57,57,57,57,57,57,57,57,57,57,57,57,57,57,57,
57,57,57,57,57,57,57,57,57,57,57,57,57,57,57,57,57,57,57,57,57,57,57,57,57,57,57,57,57,57,57,57,57,57,57,57,57,57,57,57,57,57,57,57,57,57,57,57,57,57,
57,57,57,57,57,57,57,57,57,57,57,57,57,57,57,57,57,57,57,57,57,57,57,57,57,57,57,57,57,57,57,57,57,57,57,57,57,57,57,57,57,57,57,57,57,57,57,57,57,57,
57,57,57,57,57,57,57,57,57,57,57,57,57,57,57,57,57,57,57,57,57,57,57,57,57,57,57,57,57,57,57,57,57,57,57,57,57,57,57,57,57,57,57,57,57,57,57,57,57,57,
57,57,57,57,57,57,57,57,57,57,57,57,57,57,57,57,57,57,57,57,57,57,57,57,57,57,57,57,57,57,57,57,57,57,57,57,57,57,57,57,57,57,57,57,57,57,57,57,57,57,
57,57,57,57,57,57,57,57,57,57,57,57,57,57,57,57,57,57,57,57,57,57,57,57,57,57,57,57,57,57,57,57,57,57,57,57,57,57,57,57,57,57,57,57,57,57,57,57,57,57,
57,57,57,57,57,57,57,57,57,57,57,57,57,57,57,57,57,57,57,57,57,57,57,57,57,57,57,57,57,57,57,57,57,57,57,57,57,57,57,57,57,57,57,57,57,57,57,57,57,57,
57,57,57,57,57,57,57,57,57,57,57,57,57,57,57,57,57,57,57,57,57,57,57,57,57,57,57,57,57,57,57,57,57,57,57,57,57,57,57,57,57,57,57,57,57,57,57,57,57,57,
57,57,57,57,57,57,57,57,57,57,57,57,57,57,57,57,57,57,57,57,57,57,57,57,57,57,57,57,57,57,57,57,57,57,57,57,57,57,57,57,57,57,57,57,57,57,57,57,57,57,
57,57,57,57,57,57,57,57,57,57,57,57,57,57,57,57,57,57,57,57,57,57,57,57,57,57,57,57,57,57,57,57,57,57,57,57,57,57,57,57,57,57,57,57,57,57,57,57,57,57,
57,57,57,57,57,57,57,57,57,57,57,57,57,57,57,57,57,57,57,57,57,57,57,57,57,57,57,57,57,57,57,57,57,57,57,57,57,57,57,57,57,57,57,57,57,57,57,57,57,57
</data>
 </layer>
 <layer id="1" name="Background" width="50" height="50">
  <data encoding="csv">
1,2,2,2,2,2,2,2,2,2,2,2,2,2,2,2,2,2,2,2,2,2,2,2,2,2,2,2,2,2,2,2,2,2,2,2,2,2,2,2,2,2,2,2,2,2,2,2,2,3,
53,54,54,54,54,54,54,54,54,54,54,54,54,54,55,54,54,54,53,54,54,54,54,54,54,54,54,54,54,54,54,54,54,54,54,54,54,54,54,54,54,54,54,54,54,54,54,54,54,55,
53,54,54,54,54,54,54,54,54,54,54,54,54,54,55,54,54,54,53,54,54,54,54,54,54,54,54,54,54,54,54,54,54,54,54,54,54,54,54,54,54,54,54,54,54,54,54,54,54,55,
53,54,54,54,54,54,54,54,54,54,54,54,54,54,55,54,54,54,53,54,54,54,54,54,54,54,54,54,54,54,54,54,54,54,54,54,54,54,54,54,54,54,54,54,54,54,54,54,54,55,
53,54,54,54,54,54,54,54,54,54,54,54,54,54,55,54,54,54,53,54,54,54,54,54,54,54,54,54,54,54,54,54,54,54,54,54,54,54,54,54,54,54,54,54,54,54,54,54,54,55,
53,54,54,54,54,54,54,54,54,54,54,54,54,54,55,54,54,54,53,54,54,54,54,54,54,54,54,54,54,54,54,54,54,54,54,54,54,54,54,54,54,54,54,54,54,54,54,54,54,55,
53,54,54,54,54,54,54,54,54,54,54,54,54,54,55,54,54,54,53,54,54,54,54,54,54,54,54,54,54,54,54,54,54,54,54,54,54,54,54,54,54,54,54,54,54,54,54,54,54,55,
53,54,54,54,54,54,54,54,54,54,54,54,54,54,55,54,54,54,53,54,54,54,371,261,106,106,106,106,262,54,54,54,54,54,54,54,54,54,54,54,54,54,54,54,54,54,54,54,54,55,
53,54,54,54,54,54,54,54,54,54,54,54,54,54,55,54,54,54,53,261,106,106,106,3758096385,57,57,57,57,1610612737,106,106,106,106,106,106,106,106,106,106,106,262,54,54,54,54,54,54,54,54,55,
53,54,54,54,54,54,54,54,54,54,54,54,54,54,55,54,54,54,53,55,57,57,57,57,57,57,57,57,57,57,57,57,57,57,57,57,57,57,57,57,53,54,54,54,54,54,54,54,54,55,
53,54,54,54,54,54,54,54,54,54,54,54,54,54,55,54,54,54,53,55,57,1,2,3,57,57,57,57,57,57,57,57,57,57,57,57,57,57,57,57,53,54,54,54,54,54,54,54,54,55,
53,54,54,54,54,54,54,54,54,54,54,54,54,54,55,54,54,54,53,55,57,53,54,313,2,2,2,2,2,2,2,2,2,3,57,57,57,1,2,2,314,54,54,54,54,54,54,54,54,55,
53,54,54,54,54,54,54,54,54,54,54,54,54,54,55,54,54,54,53,55,57,53,54,54,54,54,54,54,54,54,54,54,54,313,2,2,2,314,54,54,54,54,54,54,54,54,54,54,54,55,
53,54,54,54,54,54,54,54,54,54,54,54,54,54,55,54,54,54,53,55,57,53,54,54,54,54,54,54,54,54,54,54,54,54,54,54,54,54,54,54,54,54,54,54,54,54,54,54,54,55,
53,54,54,54,54,54,54,54,54,54,54,54,54,54,55,54,54,54,105,107,0,105,106,106,106,262,54,54,54,54,54,54,54,54,54,54,54,54,54,54,54,54,54,54,54,54,54,54,54,55,
53,54,54,54,54,54,54,54,54,54,54,54,54,54,55,54,54,54,54,54,54,54,54,54,54,53,54,54,54,54,54,54,54,54,54,54,54,54,54,54,54,54,54,54,54,54,54,54,54,55,
53,54,54,54,54,54,54,54,54,54,54,54,54,54,55,54,54,54,54,54,54,54,54,54,54,53,54,54,54,54,54,54,54,54,54,54,54,54,54,54,54,54,54,54,54,54,54,54,54,55,
53,54,54,54,54,54,54,54,54,54,54,54,54,54,55,54,54,54,54,54,54,54,54,54,54,53,54,54,54,54,54,54,54,54,54,54,54,54,54,54,54,54,54,54,54,54,54,54,54,55,
53,54,54,54,54,54,54,54,54,54,54,54,54,54,313,2,2,2,3,57,1,3,54,54,54,53,54,54,54,54,54,54,54,54,54,54,54,54,54,54,54,54,54,54,54,54,54,54,54,55,
53,54,54,54,54,54,54,54,54,54,54,54,54,54,54,54,54,54,55,57,53,55,54,54,54,53,54,54,54,54,54,54,54,54,54,54,54,54,54,54,54,54,54,54,54,54,54,54,54,55,
53,54,54,54,54,54,54,54,54,54,54,54,54,54,54,54,54,54,55,57,53,55,54,54,54,53,54,54,54,54,54,54,54,54,54,54,54,54,54,54,54,54,54,54,54,54,54,54,54,55,
53,54,54,54,54,54,54,54,54,54,54,54,54,54,54,54,54,54,55,57,53,55,54,54,54,105,106,106,106,106,106,106,106,106,262,54,54,54,54,54,54,54,54,54,54,54,54,54,54,55,
53,54,54,54,54,54,54,54,54,54,54,54,54,54,54,54,54,54,55,57,53,55,54,54,54,54,54,54,54,54,54,54,54,54,53,54,54,54,54,54,54,54,54,54,54,54,54,54,54,55,
53,54,54,54,54,54,54,54,54,54,54,54,54,54,54,54,54,54,55,57,53,55,54,54,54,54,54,54,54,54,54,54,54,54,53,54,54,54,54,54,54,54,54,54,54,54,54,54,54,55,
53,54,54,54,54,54,54,54,54,54,54,54,54,54,54,54,54,54,55,57,53,55,54,54,54,54,54,54,54,54,54,54,54,54,53,54,54,54,54,54,54,54,54,54,54,54,54,54,54,55,
53,54,54,54,54,54,54,54,54,54,54,54,54,54,54,54,54,54,55,57,53,313,2,2,2,2,2,2,2,2,3,54,54,54,314,54,54,54,54,54,54,54,54,54,54,54,54,54,54,55,
53,54,54,54,54,54,54,54,54,54,54,54,54,54,54,54,54,54,55,57,1610612737,262,54,54,54,54,54,54,54,54,54,54,54,54,54,54,54,54,54,54,54,54,54,54,54,54,54,54,54,55,
53,54,54,54,54,54,54,54,54,54,54,54,54,54,54,54,54,54,55,57,57,53,54,54,54,54,54,54,54,54,261,54,54,54,262,54,54,54,54,54,54,54,54,54,54,54,54,54,54,55,
53,54,54,54,54,54,54,54,54,54,54,54,54,54,54,54,54,54,55,426,57,53,54,54,54,54,54,54,54,54,55,54,54,54,53,54,54,54,54,54,54,54,54,54,54,54,54,54,54,55,
53,54,54,54,54,54,54,54,54,54,54,54,54,54,54,54,54,54,55,0,57,53,54,54,54,54,54,54,54,54,55,54,54,54,53,54,54,54,54,54,54,54,54,54,54,54,54,54,54,55,
53,54,54,54,54,54,54,54,54,54,54,54,54,54,54,54,54,54,55,0,57,53,54,54,54,54,54,54,54,54,55,54,54,54,53,54,54,54,54,54,54,54,54,54,54,54,54,54,54,55,
53,54,54,54,261,106,106,262,54,54,54,54,54,54,261,106,106,106,3758096385,0,57,53,54,54,54,54,54,54,54,54,55,54,54,54,53,54,54,54,54,54,54,54,54,54,54,54,54,54,54,55,
53,54,54,54,55,57,57,1610612737,106,106,106,106,106,106,3758096385,57,57,57,57,57,57,53,54,54,54,54,54,54,54,54,55,54,54,54,105,106,106,106,106,106,106,106,106,106,106,106,106,106,106,55,
53,54,54,54,55,57,57,57,57,57,57,57,57,57,57,57,1,2,3,57,57,53,54,54,54,54,54,54,54,54,55,54,54,54,54,54,54,54,54,54,54,54,54,54,54,54,54,54,54,55,
53,54,54,54,313,2,2,2,2,2,2,2,2,2,2,2,314,54,55,57,57,53,54,54,54,54,54,54,54,54,55,54,54,54,54,54,54,54,54,54,54,54,54,54,54,54,54,54,54,55,
53,54,54,54,54,54,54,54,54,54,54,54,54,54,54,54,54,54,55,57,57,53,54,54,54,54,54,54,54,54,55,54,54,54,54,54,54,54,54,54,54,54,54,54,54,54,54,54,54,55,
53,54,54,54,54,54,54,54,54,54,54,54,54,54,54,54,54,54,55,57,57,53,54,54,54,54,54,54,54,54,313,2,2,2,2,2,2,2,2,2,2,2,2,2,2,2,2,2,2,2,
53,54,54,54,54,54,54,54,54,54,54,54,54,54,54,54,54,54,55,57,57,53,54,54,54,54,54,54,54,54,54,54,54,261,106,106,262,54,54,54,54,54,54,54,54,54,54,54,54,55,
53,54,54,54,54,54,54,54,54,54,54,54,54,54,54,54,54,54,55,57,57,1610612737,106,106,106,106,106,106,106,262,54,54,54,55,57,57,53,54,54,54,54,54,54,54,54,54,54,54,54,55,
53,54,54,54,54,54,54,54,54,54,54,54,54,54,54,54,54,54,55,57,57,57,57,0,0,57,57,57,57,1610612737,106,106,106,3758096385,57,57,53,54,54,54,54,54,54,54,54,54,54,54,54,55,
53,54,54,54,54,54,54,54,54,54,54,54,54,54,54,54,54,54,55,57,57,57,57,57,57,57,57,57,57,57,57,57,57,57,57,57,53,54,54,54,54,54,54,54,54,54,54,54,54,55,
53,54,54,54,54,54,54,54,54,54,54,54,54,54,54,54,54,54,313,2,2,2,2,2,2,2,2,2,2,2,2,2,2,2,2,2,314,54,54,54,54,54,54,54,54,54,54,54,54,55,
53,54,54,54,54,54,54,54,54,54,54,54,54,54,54,54,54,54,54,54,54,54,54,54,54,54,54,54,54,54,54,54,54,54,54,54,54,54,54,54,54,54,54,54,54,54,54,54,54,55,
53,54,54,54,54,54,54,54,54,54,54,54,54,54,54,54,54,54,54,54,54,54,54,54,54,54,54,54,54,54,54,54,54,54,54,54,54,54,54,54,54,54,54,54,54,54,54,54,54,55,
53,54,54,54,54,54,54,54,54,54,54,54,54,54,54,54,54,54,54,54,54,54,54,54,54,54,54,54,54,54,54,54,54,54,54,54,54,54,54,54,54,54,54,54,54,54,54,54,54,55,
53,54,54,54,54,54,54,54,54,54,54,54,54,54,54,54,54,54,54,54,54,54,54,54,54,54,54,54,54,54,54,54,54,54,54,54,54,54,54,54,54,54,54,54,54,54,54,54,54,55,
53,54,54,54,54,54,54,54,54,54,54,54,54,54,54,54,54,54,54,54,54,54,54,54,54,54,54,54,54,54,54,54,54,54,54,54,54,54,54,54,54,54,54,54,54,54,54,54,54,55,
53,54,54,54,54,54,54,54,54,54,54,54,54,54,54,54,54,54,54,54,54,54,54,54,54,54,54,54,54,54,54,54,54,54,54,54,54,54,54,54,54,54,54,54,54,54,54,54,54,55,
53,54,54,54,54,54,54,54,54,54,54,54,54,54,54,54,54,54,54,54,54,54,54,54,54,54,54,54,54,54,54,54,54,54,54,54,54,54,54,54,54,54,54,54,54,54,54,54,54,55,
105,106,106,106,106,106,106,106,106,106,106,106,106,106,106,106,106,106,106,106,106,106,106,106,106,106,106,106,106,106,106,106,106,106,106,106,106,106,106,106,106,106,106,106,106,106,106,106,106,107
</data>
 </layer>
 <layer id="2" name="Grass" width="50" height="50">
  <data encoding="csv">
169,170,171,169,170,171,169,170,171,169,170,171,169,170,171,169,170,171,169,170,171,169,170,171,169,170,171,169,170,171,169,170,171,169,170,171,169,170,171,169,170,171,169,170,171,169,170,171,169,170,
169,169,170,171,169,170,171,169,170,171,169,170,171,169,170,171,169,0,0,169,170,171,169,170,171,169,170,171,169,170,171,169,170,171,169,170,171,169,170,171,169,170,171,169,170,171,169,170,171,170,
169,169,170,171,169,170,171,169,170,171,169,170,171,169,170,171,169,170,0,169,170,171,169,170,171,169,170,171,169,170,171,169,170,171,169,170,171,169,170,171,169,170,171,169,170,171,169,170,171,170,
169,169,170,173,169,170,171,169,170,171,169,170,171,169,170,171,169,170,0,169,170,171,169,170,171,169,170,171,173,170,171,169,170,171,169,172,171,169,170,171,169,170,171,169,170,171,169,170,171,170,
169,169,170,171,169,170,171,169,170,171,169,170,171,169,170,171,169,170,0,169,170,171,169,170,171,169,170,171,169,170,171,169,170,171,169,170,171,169,170,171,169,170,171,169,170,171,169,170,171,170,
169,169,170,171,169,170,171,169,170,171,169,170,171,169,170,171,169,170,0,169,170,171,169,170,171,169,170,171,169,170,171,169,170,171,169,170,171,169,170,171,169,170,171,169,170,171,169,170,171,170,
169,169,170,171,169,170,171,169,170,171,169,170,171,169,170,171,169,170,0,169,170,171,169,170,171,169,170,171,169,170,171,169,170,171,169,170,171,169,170,171,169,170,171,169,170,171,169,170,171,170,
169,169,170,171,169,170,171,169,170,171,169,170,171,169,170,171,169,170,0,169,170,171,169,170,171,169,170,171,169,170,171,169,170,171,169,170,171,169,170,171,169,170,171,169,170,171,169,170,171,170,
169,169,170,171,169,170,171,169,172,171,169,170,173,169,170,171,169,170,0,0,0,0,0,0,0,0,0,0,0,0,0,0,0,0,0,0,171,169,170,171,169,170,171,169,170,171,169,170,171,170,
169,169,170,171,169,170,171,169,170,171,169,170,171,169,170,171,169,170,0,0,0,0,0,0,0,0,0,0,0,0,0,0,0,0,0,0,0,0,0,0,169,170,171,169,170,171,169,170,171,170,
169,169,170,171,169,170,171,169,170,171,169,170,171,169,170,171,169,170,0,0,0,171,169,170,0,0,0,0,0,0,0,0,0,0,0,0,0,0,0,0,169,170,171,169,170,171,169,170,171,170,
169,169,170,172,169,170,171,169,170,171,169,170,171,169,170,171,169,170,0,0,0,171,169,170,171,169,170,171,169,170,171,169,170,0,0,0,0,0,170,171,169,170,171,169,170,171,169,170,171,170,
169,169,170,171,169,170,173,169,170,171,169,170,171,169,170,171,169,170,0,0,0,171,169,170,171,172,170,171,169,170,171,169,170,171,169,170,171,169,170,171,169,170,171,169,170,171,169,170,171,170,
169,169,170,171,169,170,171,169,170,171,169,170,171,169,170,171,169,170,0,0,0,171,169,170,171,169,170,171,169,170,173,169,170,171,169,170,171,169,170,171,169,170,171,169,170,171,169,170,171,170,
169,169,170,171,169,170,171,169,170,171,169,170,171,169,170,171,169,170,0,0,0,0,0,0,0,0,170,171,169,170,171,169,170,171,169,170,171,169,170,171,169,170,171,169,170,171,169,170,171,170,
169,169,170,171,169,170,171,169,170,171,169,170,171,169,170,171,169,170,171,169,170,171,169,170,171,0,170,171,169,170,171,169,170,171,169,170,171,172,170,171,169,170,171,169,170,171,169,170,171,170,
169,169,170,171,169,170,171,169,170,171,169,170,171,169,170,171,169,170,171,169,170,171,169,170,171,0,170,171,169,170,171,169,170,171,169,170,171,169,170,171,169,170,171,169,170,171,172,170,171,170,
169,169,170,171,169,170,171,169,170,171,169,170,171,169,170,171,169,170,171,169,170,171,169,170,171,0,170,171,169,170,171,169,170,171,169,170,171,169,170,171,169,170,171,169,170,171,169,170,171,170,
169,169,170,171,169,170,171,169,170,171,169,170,171,169,170,171,169,170,0,0,0,0,169,170,171,0,170,171,169,170,172,169,170,171,169,170,171,169,173,171,169,170,171,169,170,173,169,170,171,170,
169,169,170,171,169,170,171,169,170,171,169,170,171,169,170,171,169,170,0,0,0,0,169,170,171,0,170,171,169,170,171,169,170,171,169,170,171,169,170,171,169,170,171,169,170,171,169,170,171,170,
169,169,170,171,169,170,171,169,170,171,169,170,171,169,170,172,169,170,0,0,0,0,169,170,171,0,170,171,169,170,171,169,170,171,169,170,171,169,170,171,169,170,171,169,170,171,169,170,171,170,
169,169,170,171,169,170,171,169,170,171,169,170,171,169,170,171,169,170,0,0,0,0,169,170,171,0,0,0,0,0,0,0,0,0,0,170,171,169,0,171,169,170,171,169,170,171,169,170,171,170,
169,169,170,171,169,170,171,169,172,171,169,170,171,169,170,171,169,170,0,0,0,0,169,170,171,169,170,171,169,170,171,169,170,0,0,170,171,169,170,171,169,170,171,169,170,171,169,170,171,170,
169,169,170,173,169,170,171,169,170,171,169,170,171,169,170,171,169,170,0,0,0,0,169,170,171,169,170,171,169,170,171,169,170,171,0,170,171,169,170,171,169,170,171,169,170,171,169,170,171,170,
169,169,170,171,169,170,171,169,170,171,169,170,171,169,170,171,169,170,0,0,0,0,169,170,171,169,170,171,169,170,171,169,170,171,0,170,171,169,170,171,169,170,171,169,170,171,169,170,171,170,
169,169,170,171,169,170,171,169,170,171,169,170,171,169,170,171,169,170,0,0,0,171,169,170,171,169,170,171,169,170,171,169,170,171,169,170,171,169,170,173,169,170,171,169,170,171,169,170,171,170,
169,169,170,171,169,170,171,169,170,171,169,170,171,169,170,171,169,170,0,0,0,0,169,170,171,169,170,171,169,170,171,169,170,171,169,170,171,169,170,171,169,170,171,169,170,171,169,170,171,170,
169,169,170,171,169,170,171,169,170,171,169,170,171,169,170,171,173,170,0,0,0,0,169,170,171,169,170,171,169,170,0,169,170,171,0,170,171,169,170,171,169,170,172,169,170,171,169,170,171,170,
169,169,170,171,169,170,171,169,170,171,169,170,171,169,170,171,169,170,0,0,0,0,169,170,171,169,170,171,169,170,0,169,170,171,0,170,171,169,170,171,169,170,171,169,173,171,169,170,171,170,
169,169,170,171,169,170,171,169,170,171,169,172,171,169,170,171,169,170,171,0,0,0,169,170,171,169,170,171,169,170,0,169,170,171,0,170,171,169,170,171,169,170,171,169,170,171,169,170,171,170,
169,169,170,171,169,170,171,169,170,171,169,170,171,169,170,171,169,170,171,0,0,0,169,170,171,169,170,171,169,170,0,169,170,171,0,170,171,169,170,171,169,170,171,169,170,171,169,170,171,170,
169,169,170,171,169,170,171,169,170,171,169,170,171,169,0,0,0,0,0,0,0,0,169,170,171,169,170,171,169,170,0,169,170,171,0,170,171,169,170,171,169,170,171,169,170,171,169,170,171,170,
169,169,170,171,0,0,0,0,0,0,0,0,0,0,0,0,0,0,0,0,0,0,169,170,171,169,170,173,169,170,0,169,170,171,0,0,0,0,0,0,0,0,0,0,0,0,0,0,0,170,
169,169,170,171,0,0,0,0,0,0,0,0,0,0,0,0,0,170,0,0,0,0,169,170,171,169,170,171,169,170,0,169,170,171,169,170,171,169,170,171,169,170,171,169,170,171,169,170,171,170,
169,169,170,171,169,170,171,169,170,171,169,170,171,169,170,171,169,170,0,0,0,0,169,170,171,169,170,171,169,170,0,169,170,171,169,170,171,169,170,171,169,170,171,169,170,171,169,170,171,170,
169,169,170,171,169,170,171,169,170,171,169,170,171,169,170,171,169,170,0,0,0,0,169,170,171,169,170,171,169,170,0,169,170,171,169,170,171,169,170,171,169,170,171,169,170,171,169,170,171,170,
169,169,170,171,169,170,171,169,170,171,169,170,171,169,170,171,169,170,0,0,0,0,169,170,171,169,170,171,169,170,0,169,170,171,169,170,171,169,170,171,169,170,171,169,170,171,169,170,171,170,
169,169,170,171,169,170,171,169,170,171,169,170,171,169,170,171,169,170,0,0,0,0,169,170,171,169,170,171,169,170,171,169,170,171,169,170,171,169,170,171,169,170,171,169,170,171,169,170,171,170,
169,169,170,171,169,170,171,169,170,171,169,170,171,169,170,171,169,170,0,0,0,0,0,170,0,0,0,0,0,170,171,169,170,0,0,0,0,169,170,171,169,170,171,169,170,171,169,170,171,170,
169,169,170,171,169,170,171,169,170,171,169,170,171,169,170,171,169,170,0,0,0,0,0,0,0,0,0,0,0,0,0,0,0,0,0,0,0,169,170,171,169,170,171,169,170,171,169,170,171,170,
169,169,170,171,169,170,171,169,172,171,169,170,171,169,170,171,169,170,0,0,0,0,0,0,0,0,0,0,0,0,0,0,0,0,0,0,0,169,170,173,169,170,171,169,170,171,169,170,171,170,
169,169,170,171,169,170,171,169,170,171,169,170,171,169,170,171,172,170,171,169,170,171,169,170,171,169,170,171,169,170,171,169,170,171,169,170,171,169,170,171,169,170,171,169,170,171,169,170,171,170,
169,169,170,171,169,170,171,169,170,171,169,170,171,169,170,171,169,170,171,169,170,171,169,170,171,169,170,171,169,170,171,169,170,171,169,170,171,169,170,171,169,170,171,169,170,171,169,170,171,170,
169,169,172,171,169,170,171,169,170,171,169,170,171,169,170,171,169,170,171,169,170,171,169,173,171,169,170,171,169,170,171,169,170,171,169,170,171,169,170,171,169,170,171,172,170,171,173,170,171,170,
169,169,170,171,169,170,171,169,170,171,169,170,171,169,170,171,169,170,171,169,170,171,169,170,171,169,170,171,169,170,171,169,170,171,169,170,171,169,173,171,169,170,171,169,170,171,169,170,171,170,
169,169,170,171,169,170,171,169,170,171,169,170,171,169,170,171,169,170,171,169,170,171,169,170,171,169,170,171,169,170,171,169,170,171,169,170,171,169,170,171,169,170,171,169,170,171,169,170,171,170,
169,169,170,171,169,170,171,169,170,171,169,172,171,169,170,171,169,170,171,169,170,171,169,170,171,169,170,171,169,170,171,169,170,171,169,170,171,169,170,171,169,170,171,169,170,171,169,170,171,170,
169,169,170,171,169,170,171,169,170,171,169,170,171,169,170,171,169,170,171,169,170,171,169,172,171,169,170,171,169,173,171,169,170,171,169,170,171,169,170,171,169,170,171,169,170,171,169,170,171,170,
169,169,170,171,169,170,171,169,170,171,169,170,171,169,170,171,169,170,171,169,170,171,169,170,171,169,170,171,169,170,171,169,170,171,169,170,171,169,170,171,169,170,171,169,170,171,169,170,171,171,
169,170,171,169,170,171,169,170,171,169,170,171,169,170,171,169,170,171,169,170,171,169,170,171,169,170,171,169,170,171,169,170,171,169,170,171,169,170,171,169,170,171,169,170,171,169,170,171,169,170
</data>
 </layer>
 <layer id="3" name="Walls" width="50" height="50">
  <data encoding="csv">
184,132,132,132,132,132,132,132,132,132,132,132,132,132,132,1406,1406,1406,132,132,132,132,132,132,132,132,132,132,132,132,132,132,132,132,132,132,132,132,132,132,132,132,132,132,132,132,132,132,132,184,
81,0,0,0,0,0,0,0,0,0,0,0,0,0,0,1406,1406,1406,0,0,0,0,0,0,0,0,0,0,0,0,0,0,0,0,0,0,0,0,0,0,0,0,0,0,0,0,80,80,80,184,
81,0,0,0,0,0,0,0,0,0,0,0,0,0,0,1406,1406,1406,0,0,0,0,0,0,0,0,0,0,0,0,0,0,0,0,0,0,0,0,0,0,0,0,27,28,28,28,28,29,0,79,
81,0,0,0,0,0,0,0,0,0,0,0,0,0,0,1406,1406,1406,0,0,0,0,0,0,0,0,0,0,0,0,0,0,0,0,0,0,0,0,0,0,0,0,131,132,288,289,132,133,0,79,
81,0,0,0,0,0,0,0,0,0,0,0,0,0,0,1406,1406,1406,0,0,0,0,0,0,0,0,0,0,0,0,0,0,0,0,0,0,0,0,0,0,0,0,0,0,0,0,0,0,0,79,
81,0,0,0,0,0,0,0,0,0,0,0,0,0,0,1406,1406,1406,0,0,0,0,0,0,0,0,0,0,0,0,0,0,0,0,0,0,0,0,0,0,0,0,0,0,0,0,0,0,0,79,
81,0,0,0,0,0,0,0,0,0,0,0,0,0,0,1406,1406,1406,0,0,0,0,0,0,0,0,0,0,0,0,0,0,0,0,0,0,0,0,0,0,0,0,0,0,0,0,0,0,0,79,
81,0,0,0,0,0,0,0,0,0,0,0,0,0,0,1406,1406,1406,0,0,0,0,0,0,0,0,0,0,0,0,0,0,0,0,0,0,0,0,0,0,0,0,0,0,0,0,0,0,0,79,
81,0,0,0,0,0,0,0,0,0,0,0,0,0,0,1406,1406,0,0,0,0,0,0,0,0,0,0,0,0,0,0,0,0,0,0,0,0,0,0,0,0,0,0,0,0,0,0,0,0,79,
81,0,0,0,0,0,0,0,0,0,0,0,0,0,0,1406,0,0,0,0,0,0,0,0,0,0,0,0,0,0,0,0,0,0,0,0,0,0,0,0,0,0,0,0,0,0,0,0,0,79,
81,0,0,0,0,0,0,0,0,0,0,0,0,0,0,1406,0,1406,0,0,0,0,0,0,0,0,0,0,0,0,0,0,0,0,0,0,0,0,0,0,0,0,0,0,0,0,0,0,0,79,
81,0,0,0,0,0,0,0,0,0,0,0,0,0,0,1406,0,0,0,0,0,0,0,0,0,0,0,0,0,0,0,0,0,0,0,0,0,0,0,0,0,0,0,0,0,0,0,0,0,79,
81,0,0,0,0,0,0,0,0,0,0,0,0,0,0,1406,1406,0,0,0,0,0,0,0,0,0,0,0,0,0,0,0,0,0,0,0,0,0,0,0,0,0,0,0,0,0,0,0,0,79,
81,0,0,0,0,0,0,0,0,0,0,0,0,0,0,1406,1406,0,0,0,0,0,0,0,0,0,0,0,0,0,0,0,0,0,0,0,0,0,0,0,0,0,0,0,0,0,0,0,0,79,
81,0,0,0,0,0,0,0,0,0,0,0,0,0,0,1406,0,0,0,0,0,0,0,0,0,0,0,0,0,0,0,0,0,0,0,0,0,0,0,0,0,0,0,0,0,0,0,0,0,79,
81,0,0,0,0,0,0,0,0,0,0,0,0,0,0,1406,0,1406,1406,0,0,0,1406,0,1406,0,0,0,0,0,0,0,0,0,0,0,0,0,0,0,0,0,0,0,0,0,0,0,0,79,
81,0,0,0,0,0,0,0,0,0,0,0,0,0,0,0,0,1406,0,0,0,0,0,0,1406,0,0,0,0,0,0,0,0,0,0,0,0,0,0,0,0,0,0,0,0,0,0,0,0,79,
81,0,0,0,0,0,0,0,0,0,0,0,0,0,0,0,1406,1406,0,0,0,0,0,1406,1406,0,0,0,0,0,0,0,0,0,0,0,0,0,0,0,0,0,0,0,0,0,0,0,0,79,
81,0,0,0,0,0,0,0,0,0,0,0,0,0,0,0,0,0,0,0,0,0,0,1406,1406,0,0,0,0,0,0,0,0,0,0,0,0,0,0,0,0,0,0,0,0,0,0,0,0,79,
81,0,0,0,0,0,0,0,0,0,0,0,0,0,0,0,0,0,0,0,0,0,0,1406,1406,0,0,0,0,0,0,0,0,0,0,0,0,0,0,0,0,0,0,0,0,0,0,0,0,79,
81,0,0,0,0,0,0,0,0,0,0,0,0,0,0,0,0,0,0,0,0,0,0,1406,1406,0,0,0,0,0,0,0,0,0,0,0,0,0,0,0,0,0,0,0,0,0,0,0,0,79,
81,0,0,0,0,0,0,0,0,0,0,0,0,0,0,0,0,0,0,0,0,0,0,1406,1406,0,0,0,0,0,0,0,0,0,0,0,0,0,0,0,0,0,0,0,0,0,0,0,0,79,
81,0,0,0,0,0,0,0,0,0,0,0,0,0,0,0,0,0,0,0,0,0,0,1406,1406,1406,1406,1406,1406,1406,1406,1406,1406,0,0,0,0,0,0,0,0,0,0,0,0,0,0,0,0,79,
81,0,0,0,0,0,0,0,0,0,0,0,0,0,0,0,0,0,0,0,0,0,0,1406,1406,1406,1406,1406,1406,1406,1406,1406,0,0,0,0,0,0,0,0,0,0,0,0,0,0,0,0,0,79,
81,0,0,0,0,0,0,0,0,0,0,0,0,0,0,0,0,0,0,0,0,0,0,0,0,0,0,1406,1406,1406,0,0,0,1406,0,0,0,0,0,0,0,0,0,0,0,0,0,0,0,79,
81,0,0,0,0,0,0,0,0,0,0,0,0,0,0,0,0,0,0,0,0,0,0,0,0,0,0,0,0,0,0,0,1406,0,0,1406,0,0,1406,0,0,0,0,1406,1406,0,0,1406,1406,79,
81,0,0,0,0,0,0,0,0,0,0,0,0,0,0,0,0,0,0,0,0,0,0,0,0,0,0,0,0,0,0,0,0,0,1406,0,0,0,1406,0,0,0,0,1406,1406,0,1406,1406,1406,79,
81,0,0,0,0,0,0,0,0,0,0,0,0,0,0,0,0,0,0,0,0,0,0,0,0,0,0,0,0,0,0,0,0,0,0,0,0,0,0,0,0,0,0,1406,0,0,1406,1406,1406,79,
81,0,0,0,0,0,0,0,0,0,0,0,0,0,0,0,0,0,0,0,0,0,0,0,0,0,0,0,0,0,0,0,0,1406,1406,0,0,0,0,0,0,0,1406,0,0,1406,1406,1406,1406,79,
81,0,0,0,0,0,0,0,0,0,0,0,0,0,0,0,0,0,0,0,0,0,0,0,0,0,0,0,0,0,0,1406,1406,1406,1406,0,1406,1406,0,0,0,0,0,0,1406,1406,1406,1406,1406,79,
81,0,0,0,0,0,0,0,0,0,0,0,0,0,0,0,0,0,0,0,0,0,0,0,0,0,0,0,0,0,0,1406,0,0,0,1406,1406,1406,1406,0,0,1406,1406,1406,1406,1406,1406,1406,1406,79,
81,0,0,0,0,0,0,0,0,0,0,0,0,0,0,0,0,0,0,0,0,0,0,0,0,0,0,0,0,0,0,0,0,1406,1406,1406,1406,1406,1406,1406,1406,1406,1406,1406,1406,1406,1406,1406,1406,79,
81,0,0,0,0,0,0,0,0,0,0,0,0,0,0,0,0,0,0,0,0,0,0,0,0,0,0,0,0,0,0,1406,1406,1406,1406,1406,1406,1406,1406,1406,1406,1406,1406,1406,1406,1406,1406,1406,1406,79,
81,0,0,0,0,0,0,0,0,0,0,0,0,0,0,0,0,0,0,0,0,0,0,0,0,0,0,0,0,0,0,1406,1406,1406,1406,1406,1406,1406,1406,1406,1406,1406,1406,1406,1406,1406,1406,1406,1406,1406,
81,0,0,0,0,0,0,0,0,0,0,0,0,0,0,0,0,0,0,0,0,0,0,0,0,0,0,0,0,0,0,1406,1406,1406,1406,1406,1406,1406,1406,1406,1406,1406,1406,1406,1406,1406,1406,1406,1406,1406,
81,0,0,0,0,0,0,0,0,0,0,0,0,0,0,0,0,0,0,0,0,0,0,0,0,0,0,0,0,0,0,1406,1406,1406,1406,1406,1406,1406,1406,1406,1406,1406,1406,1406,1406,1406,1406,1406,1406,1406,
81,0,0,0,0,0,0,0,0,0,0,0,0,0,0,0,0,0,0,0,0,0,0,0,0,0,0,0,0,0,0,0,0,0,0,0,0,0,0,0,0,0,0,0,0,0,0,0,0,79,
81,0,0,0,0,0,0,0,0,0,0,0,0,0,0,0,0,0,0,0,0,0,0,0,0,0,0,0,0,0,0,0,0,0,0,0,0,0,0,0,0,0,0,0,0,0,0,0,0,79,
81,0,0,0,0,0,0,0,0,0,0,0,0,0,0,0,0,0,0,0,0,0,0,0,0,0,0,0,0,0,0,0,0,0,0,0,0,0,0,0,0,0,0,0,0,0,0,0,0,79,
81,0,0,0,0,0,0,0,0,0,0,0,0,0,0,0,0,0,0,0,0,0,0,0,0,0,0,0,0,0,0,0,0,0,0,0,0,0,0,0,0,0,0,0,0,0,0,0,0,79,
81,0,0,0,0,0,0,0,0,0,0,0,0,0,0,0,0,0,0,0,0,0,0,0,0,0,0,0,0,0,0,0,0,0,0,0,0,0,0,0,0,0,0,0,0,0,0,0,0,79,
81,0,0,0,0,0,0,0,0,0,0,0,0,0,0,0,0,0,0,0,0,0,0,0,0,0,0,0,0,0,0,0,0,0,0,0,0,0,0,0,0,0,0,0,0,0,0,0,0,79,
81,0,0,0,0,0,0,0,0,0,0,0,0,0,0,0,0,0,0,0,0,0,0,0,0,0,0,0,0,0,0,0,0,0,0,0,0,0,0,0,0,0,0,0,0,0,0,0,0,79,
81,0,0,0,0,0,0,0,0,0,0,0,0,0,0,0,0,0,0,0,0,0,0,0,0,0,0,0,0,0,0,0,0,0,0,0,0,0,0,0,0,0,0,0,0,0,0,0,0,79,
81,0,0,0,0,0,0,0,0,0,0,0,0,0,0,0,0,0,0,0,0,0,0,0,0,0,0,0,0,0,0,0,0,0,0,0,0,0,0,0,0,0,0,0,0,0,0,0,0,79,
81,0,0,0,0,0,0,0,0,0,0,0,0,0,0,0,0,0,0,0,0,0,0,0,0,0,0,0,0,0,0,0,0,0,0,0,0,0,0,0,0,0,0,0,0,0,0,0,0,79,
81,0,0,0,0,0,0,0,0,0,0,0,0,0,0,0,0,0,0,0,0,0,0,0,0,0,0,0,0,0,0,0,0,0,0,0,0,0,0,0,0,0,0,0,0,0,0,0,0,79,
81,0,0,0,0,0,0,0,0,0,0,0,0,0,0,0,0,0,0,0,0,0,0,0,0,0,0,0,0,0,0,0,0,0,0,0,0,0,0,0,0,0,0,0,0,0,0,0,0,79,
81,0,0,0,0,0,0,0,0,0,0,0,0,0,0,0,0,0,0,0,0,0,0,0,0,0,0,0,0,0,0,0,0,0,0,0,0,0,0,0,0,0,0,0,0,0,0,0,0,79,
184,28,28,28,28,28,28,28,28,28,28,28,28,28,28,28,28,28,28,28,28,28,28,28,28,28,28,28,28,28,28,28,28,28,28,28,28,28,28,28,28,28,28,28,28,28,28,28,28,184
</data>
 </layer>
 <layer id="5" name="Water" width="50" height="50">
  <data encoding="csv">
0,0,0,0,0,0,0,0,0,0,0,0,0,0,0,598,598,598,0,0,0,0,0,0,0,0,0,0,0,0,0,0,0,0,0,0,0,0,0,0,0,0,0,0,0,0,0,0,0,0,
0,0,0,0,0,0,0,0,0,0,0,0,0,0,0,598,598,598,0,0,0,0,0,0,0,0,0,0,0,0,0,0,0,0,0,0,0,0,0,0,0,0,0,0,0,0,0,0,0,0,
0,0,0,0,0,0,0,0,0,0,0,0,0,0,0,598,598,598,0,0,0,0,0,0,0,0,0,0,0,0,0,0,0,0,0,0,0,0,0,0,0,0,0,0,0,0,0,0,0,0,
0,0,0,0,0,0,0,0,0,0,0,0,0,0,0,598,598,598,0,0,0,0,0,0,0,0,0,0,0,0,0,0,0,0,0,0,0,0,0,0,0,0,0,0,0,0,0,0,0,0,
0,0,0,0,0,0,0,0,0,0,0,0,0,0,0,598,598,598,0,0,0,0,0,0,0,0,0,0,0,0,0,0,0,0,0,0,0,0,0,0,0,0,0,0,0,0,0,0,0,0,
0,0,0,0,0,0,0,0,0,0,0,0,0,0,0,598,598,598,0,0,0,0,0,0,0,0,0,0,0,0,0,0,0,0,0,0,0,0,0,0,0,0,0,0,0,0,0,0,0,0,
0,0,0,0,0,0,0,0,0,0,0,0,0,0,0,598,598,598,0,0,0,0,0,0,0,0,0,0,0,0,0,0,0,0,0,0,0,0,0,0,0,0,0,0,0,0,0,0,0,0,
0,0,0,0,0,0,0,0,0,0,0,0,0,0,0,598,598,598,0,0,0,0,0,0,0,0,0,0,0,0,0,0,0,0,0,0,0,0,0,0,0,0,0,0,0,0,0,0,0,0,
0,0,0,0,0,0,0,0,0,0,0,0,0,0,0,598,598,598,0,0,0,0,0,0,0,0,0,0,0,0,0,0,0,0,0,0,0,0,0,0,0,0,0,0,0,0,0,0,0,0,
0,0,0,0,0,0,0,0,0,0,0,0,0,0,0,598,598,598,0,0,0,0,0,0,0,0,0,0,0,0,0,0,0,0,0,0,0,0,0,0,0,0,0,0,0,0,0,0,0,0,
0,0,0,0,0,0,0,0,0,0,0,0,0,0,0,598,598,598,0,0,0,0,0,0,0,0,0,0,0,0,0,0,0,0,0,0,0,0,0,0,0,0,0,0,0,0,0,0,0,0,
0,0,0,0,0,0,0,0,0,0,0,0,0,0,0,598,598,598,0,0,0,0,0,0,0,0,0,0,0,0,0,0,0,0,0,0,0,0,0,0,0,0,0,0,0,0,0,0,0,0,
0,0,0,0,0,0,0,0,0,0,0,0,0,0,0,598,598,598,0,0,0,0,0,0,0,0,0,0,0,0,0,0,0,0,0,0,0,0,0,0,0,0,0,0,0,0,0,0,0,0,
0,0,0,0,0,0,0,0,0,0,0,0,0,0,0,598,598,598,0,0,0,0,0,0,0,0,0,0,0,0,0,0,0,0,0,0,0,0,0,0,0,0,0,0,0,0,0,0,0,0,
0,0,0,0,0,0,0,0,0,0,0,0,0,0,0,598,598,598,0,0,0,0,0,0,0,0,0,0,0,0,0,0,0,0,0,0,0,0,0,0,0,0,0,0,0,0,0,0,0,0,
0,0,0,0,0,0,0,0,0,0,0,0,0,0,0,598,598,598,598,598,598,598,598,598,598,0,0,0,0,0,0,0,0,0,0,0,0,0,0,0,0,0,0,0,0,0,0,0,0,0,
0,0,0,0,0,0,0,0,0,0,0,0,0,0,0,598,598,598,598,598,598,598,598,598,598,0,0,0,0,0,0,0,0,0,0,0,0,0,0,0,0,0,0,0,0,0,0,0,0,0,
0,0,0,0,0,0,0,0,0,0,0,0,0,0,0,598,598,598,598,598,598,598,598,598,598,0,0,0,0,0,0,0,0,0,0,0,0,0,0,0,0,0,0,0,0,0,0,0,0,0,
0,0,0,0,0,0,0,0,0,0,0,0,0,0,0,0,0,0,0,0,0,0,598,598,598,0,0,0,0,0,0,0,0,0,0,0,0,0,0,0,0,0,0,0,0,0,0,0,0,0,
0,0,0,0,0,0,0,0,0,0,0,0,0,0,0,0,0,0,0,0,0,0,598,598,598,0,0,0,0,0,0,0,0,0,0,0,0,0,0,0,0,0,0,0,0,0,0,0,0,0,
0,0,0,0,0,0,0,0,0,0,0,0,0,0,0,0,0,0,0,0,0,0,598,598,598,0,0,0,0,0,0,0,0,0,0,0,0,0,0,0,0,0,0,0,0,0,0,0,0,0,
0,0,0,0,0,0,0,0,0,0,0,0,0,0,0,0,0,0,0,0,0,0,598,598,598,0,0,0,0,0,0,0,0,0,0,0,0,0,0,0,0,0,0,0,0,0,0,0,0,0,
0,0,0,0,0,0,0,0,0,0,0,0,0,0,0,0,0,0,0,0,0,0,598,598,598,598,598,598,598,598,598,598,598,598,0,0,0,0,0,0,0,0,0,0,0,0,0,0,0,0,
0,0,0,0,0,0,0,0,0,0,0,0,0,0,0,0,0,0,0,0,0,0,598,598,598,598,598,598,598,598,598,598,598,598,0,0,0,0,0,0,0,0,0,0,0,0,0,0,0,0,
0,0,0,0,0,0,0,0,0,0,0,0,0,0,0,0,0,0,0,0,0,0,598,598,598,598,598,598,598,598,598,598,598,598,0,0,0,0,0,0,0,0,0,0,0,0,0,0,0,0,
0,0,0,0,0,0,0,0,0,0,0,0,0,0,0,0,0,0,0,0,0,0,0,0,0,0,0,0,0,0,0,598,598,598,0,0,0,0,0,0,0,0,0,0,0,0,0,0,0,0,
0,0,0,0,0,0,0,0,0,0,0,0,0,0,0,0,0,0,0,0,0,0,0,0,0,0,0,0,0,0,0,598,598,598,0,0,0,0,0,0,0,0,0,0,0,0,0,0,0,0,
0,0,0,0,0,0,0,0,0,0,0,0,0,0,0,0,0,0,0,0,0,0,0,0,0,0,0,0,0,0,0,598,598,598,0,0,0,0,0,0,0,0,0,0,0,0,0,0,0,0,
0,0,0,0,0,0,0,0,0,0,0,0,0,0,0,0,0,0,0,0,0,0,0,0,0,0,0,0,0,0,0,598,598,598,0,0,0,0,0,0,0,0,0,0,0,0,0,0,0,0,
0,0,0,0,0,0,0,0,0,0,0,0,0,0,0,0,0,0,0,0,0,0,0,0,0,0,0,0,0,0,0,598,598,598,0,0,0,0,0,0,0,0,0,0,0,0,0,0,0,0,
0,0,0,0,0,0,0,0,0,0,0,0,0,0,0,0,0,0,0,0,0,0,0,0,0,0,0,0,0,0,0,598,598,598,0,0,0,0,0,0,0,0,0,0,0,0,0,0,0,0,
0,0,0,0,0,0,0,0,0,0,0,0,0,0,0,0,0,0,0,0,0,0,0,0,0,0,0,0,0,0,0,598,598,598,0,0,0,0,0,0,0,0,0,0,0,0,0,0,0,0,
0,0,0,0,0,0,0,0,0,0,0,0,0,0,0,0,0,0,0,0,0,0,0,0,0,0,0,0,0,0,0,598,598,598,0,0,0,0,0,0,0,0,0,0,0,0,0,0,0,0,
0,0,0,0,0,0,0,0,0,0,0,0,0,0,0,0,0,0,0,0,0,0,0,0,0,0,0,0,0,0,0,598,598,598,598,598,598,598,598,598,598,598,598,598,598,598,598,598,598,598,
0,0,0,0,0,0,0,0,0,0,0,0,0,0,0,0,0,0,0,0,0,0,0,0,0,0,0,0,0,0,0,598,598,598,598,598,598,598,598,598,598,598,598,598,598,598,598,598,598,598,
0,0,0,0,0,0,0,0,0,0,0,0,0,0,0,0,0,0,0,0,0,0,0,0,0,0,0,0,0,0,0,598,598,598,598,598,598,598,598,598,598,598,598,598,598,598,598,598,598,598,
0,0,0,0,0,0,0,0,0,0,0,0,0,0,0,0,0,0,0,0,0,0,0,0,0,0,0,0,0,0,0,0,0,0,0,0,0,0,0,0,0,0,0,0,0,0,0,0,0,0,
0,0,0,0,0,0,0,0,0,0,0,0,0,0,0,0,0,0,0,0,0,0,0,0,0,0,0,0,0,0,0,0,0,0,0,0,0,0,0,0,0,0,0,0,0,0,0,0,0,0,
0,0,0,0,0,0,0,0,0,0,0,0,0,0,0,0,0,0,0,0,0,0,0,0,0,0,0,0,0,0,0,0,0,0,0,0,0,0,0,0,0,0,0,0,0,0,0,0,0,0,
0,0,0,0,0,0,0,0,0,0,0,0,0,0,0,0,0,0,0,0,0,0,0,0,0,0,0,0,0,0,0,0,0,0,0,0,0,0,0,0,0,0,0,0,0,0,0,0,0,0,
0,0,0,0,0,0,0,0,0,0,0,0,0,0,0,0,0,0,0,0,0,0,0,0,0,0,0,0,0,0,0,0,0,0,0,0,0,0,0,0,0,0,0,0,0,0,0,0,0,0,
0,0,0,0,0,0,0,0,0,0,0,0,0,0,0,0,0,0,0,0,0,0,0,0,0,0,0,0,0,0,0,0,0,0,0,0,0,0,0,0,0,0,0,0,0,0,0,0,0,0,
0,0,0,0,0,0,0,0,0,0,0,0,0,0,0,0,0,0,0,0,0,0,0,0,0,0,0,0,0,0,0,0,0,0,0,0,0,0,0,0,0,0,0,0,0,0,0,0,0,0,
0,0,0,0,0,0,0,0,0,0,0,0,0,0,0,0,0,0,0,0,0,0,0,0,0,0,0,0,0,0,0,0,0,0,0,0,0,0,0,0,0,0,0,0,0,0,0,0,0,0,
0,0,0,0,0,0,0,0,0,0,0,0,0,0,0,0,0,0,0,0,0,0,0,0,0,0,0,0,0,0,0,0,0,0,0,0,0,0,0,0,0,0,0,0,0,0,0,0,0,0,
0,0,0,0,0,0,0,0,0,0,0,0,0,0,0,0,0,0,0,0,0,0,0,0,0,0,0,0,0,0,0,0,0,0,0,0,0,0,0,0,0,0,0,0,0,0,0,0,0,0,
0,0,0,0,0,0,0,0,0,0,0,0,0,0,0,0,0,0,0,0,0,0,0,0,0,0,0,0,0,0,0,0,0,0,0,0,0,0,0,0,0,0,0,0,0,0,0,0,0,0,
0,0,0,0,0,0,0,0,0,0,0,0,0,0,0,0,0,0,0,0,0,0,0,0,0,0,0,0,0,0,0,0,0,0,0,0,0,0,0,0,0,0,0,0,0,0,0,0,0,0,
0,0,0,0,0,0,0,0,0,0,0,0,0,0,0,0,0,0,0,0,0,0,0,0,0,0,0,0,0,0,0,0,0,0,0,0,0,0,0,0,0,0,0,0,0,0,0,0,0,0,
0,0,0,0,0,0,0,0,0,0,0,0,0,0,0,0,0,0,0,0,0,0,0,0,0,0,0,0,0,0,0,0,0,0,0,0,0,0,0,0,0,0,0,0,0,0,0,0,0,0
</data>
 </layer>
 <layer id="4" name="Trees and other stuff with collision" width="50" height="50">
  <data encoding="csv">
0,0,0,0,0,0,0,0,0,0,0,0,0,0,0,0,0,0,0,0,0,0,0,0,0,0,0,0,0,0,0,0,0,0,0,0,0,0,0,0,0,0,0,0,0,0,0,0,0,0,
0,0,0,0,0,0,0,0,0,0,0,0,0,0,0,0,0,0,0,0,0,0,0,0,0,0,0,0,0,0,0,0,0,0,0,0,0,473,474,475,0,0,0,0,0,0,0,0,0,79,
0,0,0,0,0,0,0,365,366,367,0,0,0,0,0,0,0,0,0,0,0,0,0,0,0,0,0,0,0,0,0,0,0,0,0,0,0,525,526,527,0,0,0,0,0,0,0,0,0,0,
0,0,0,0,0,0,0,417,418,419,0,0,0,0,0,0,0,0,0,0,0,0,0,0,0,0,0,0,0,0,0,0,0,0,0,0,0,733,734,735,0,0,0,0,0,0,0,0,0,0,
0,0,365,366,367,0,0,733,734,735,0,0,0,0,0,0,0,0,0,0,0,0,797,798,799,800,801,795,796,0,365,366,367,0,0,0,0,785,786,787,0,0,0,0,0,0,0,0,0,0,
0,0,417,418,419,0,0,785,786,787,0,0,0,0,0,0,0,0,0,0,0,0,849,850,851,852,853,847,848,0,417,418,419,0,797,798,799,800,801,802,803,804,805,806,807,0,0,0,0,0,
0,0,733,734,735,0,0,0,0,0,0,0,0,0,0,0,0,0,0,0,0,0,901,902,903,904,905,899,900,0,733,734,735,0,849,850,851,852,853,854,855,856,857,858,859,0,0,0,0,0,
0,0,785,786,787,0,0,0,0,0,0,0,0,0,0,0,0,0,0,0,0,0,953,954,955,956,957,958,952,0,785,786,787,0,901,902,903,904,905,906,907,908,909,910,911,0,0,0,0,0,
0,0,0,0,0,0,0,0,0,0,0,0,0,0,0,0,0,0,0,0,0,0,0,0,0,0,0,0,0,0,0,0,0,0,953,954,955,956,957,958,959,960,961,962,963,0,365,366,367,0,
0,0,0,0,0,0,0,0,0,0,0,0,0,0,0,0,0,0,0,0,0,0,0,0,0,0,0,0,0,0,0,0,0,0,1005,0,0,0,0,0,1011,1012,1013,1014,1015,0,417,418,419,0,
0,0,0,0,0,0,0,0,0,365,366,367,0,0,0,0,0,0,0,0,0,0,0,0,0,0,0,0,0,0,0,0,0,0,0,0,0,0,0,0,1063,1064,1065,1066,0,0,733,734,735,0,
0,0,0,0,0,0,0,0,0,417,418,419,0,0,0,0,0,0,0,0,0,0,0,0,0,0,0,0,0,0,0,0,0,0,0,0,0,0,0,0,0,0,0,0,0,0,785,786,787,0,
0,0,0,0,0,0,0,0,0,733,734,735,0,0,0,0,0,0,0,0,0,0,0,0,0,0,0,0,0,0,0,0,0,0,0,0,0,0,0,0,0,0,0,0,0,0,0,0,0,0,
0,0,0,0,0,0,0,0,0,785,786,787,0,0,0,0,0,0,0,0,0,0,0,0,0,0,0,0,0,0,0,0,0,0,0,0,0,0,365,366,367,0,0,0,0,0,0,0,0,0,
0,0,0,0,0,0,0,0,0,0,0,0,0,0,0,0,0,0,0,0,0,0,0,0,0,0,0,0,0,0,0,0,0,0,0,0,0,0,417,418,419,0,0,0,0,0,0,0,0,0,
0,0,0,0,0,0,0,0,0,0,0,0,0,0,0,0,0,0,0,693,693,0,0,0,0,0,0,0,0,0,0,0,0,0,0,0,0,0,733,734,735,0,0,0,0,0,0,0,0,0,
0,0,0,365,366,367,0,0,0,0,0,0,0,0,0,0,0,0,0,693,693,0,0,0,0,0,0,0,0,0,0,0,0,0,0,0,0,0,785,786,787,0,0,0,0,0,0,0,0,0,
0,0,0,417,418,419,0,0,0,0,0,0,0,0,0,0,0,0,0,693,693,0,0,0,0,0,0,0,0,0,0,0,0,0,0,0,0,0,0,0,0,0,0,0,0,0,0,0,0,0,
0,0,0,733,734,735,0,0,0,0,0,0,0,0,0,0,0,0,0,0,0,0,0,0,0,0,0,0,0,0,0,0,0,0,0,0,0,0,0,0,0,0,0,0,0,0,0,0,0,0,
0,0,0,785,786,787,0,0,0,0,0,0,0,0,0,0,0,0,0,0,0,0,0,0,0,0,0,0,0,0,0,0,0,0,0,0,0,0,0,0,0,0,0,0,0,0,0,0,0,0,
0,0,0,0,0,0,0,0,0,0,0,0,0,0,0,0,0,0,0,0,0,0,0,0,0,0,0,0,0,0,0,0,0,0,0,0,0,0,0,0,0,0,0,0,0,0,0,0,374,0,
0,0,0,0,0,0,0,0,0,0,0,0,0,0,0,0,0,0,0,0,0,0,0,0,0,0,0,0,0,0,0,0,0,0,0,0,0,0,0,0,0,0,0,0,0,0,0,0,426,0,
0,0,0,0,0,0,0,0,0,0,0,365,366,367,0,0,0,0,0,0,0,0,0,0,0,0,0,0,0,0,0,0,0,0,0,0,0,0,0,0,0,0,0,0,0,0,0,0,426,0,
0,0,0,0,0,0,0,0,0,0,0,417,418,419,0,0,0,0,0,0,0,0,0,0,0,0,0,0,0,0,0,0,0,0,0,0,0,0,0,0,0,0,473,474,475,0,0,0,374,0,
0,0,0,0,0,0,0,0,0,0,0,733,734,735,0,0,0,0,0,0,0,0,0,0,0,0,0,0,0,0,0,0,0,0,0,0,0,0,0,0,0,0,525,526,527,0,0,0,426,0,
0,0,0,0,0,0,0,0,0,0,0,785,786,787,0,0,0,0,0,0,0,0,0,0,0,0,0,0,0,0,2147484290,641,641,641,642,0,0,0,0,0,0,0,733,734,735,0,0,0,426,0,
0,0,0,0,0,0,0,0,0,0,0,0,0,0,0,0,0,0,0,0,0,0,0,0,0,0,0,0,0,0,2147484342,693,693,693,0,0,0,0,0,0,0,0,785,786,787,0,0,0,426,0,
0,0,0,0,0,0,0,0,0,0,0,0,0,0,0,0,0,0,0,0,0,0,0,0,0,0,0,0,0,0,0,0,0,0,0,0,0,0,0,0,0,0,0,0,0,0,0,0,0,0,
0,0,0,797,798,799,800,801,795,796,0,0,0,0,0,0,0,0,0,0,0,0,0,0,0,0,0,0,0,0,0,0,0,0,0,0,0,0,0,0,0,0,0,0,0,0,0,0,0,0,
0,0,0,849,850,851,852,853,847,848,0,0,0,0,0,0,0,0,0,0,0,0,0,0,0,0,0,0,0,0,0,0,0,0,0,0,0,0,0,0,0,0,0,0,0,0,0,0,0,0,
0,0,0,901,902,903,904,905,899,900,0,0,0,0,0,0,0,0,0,0,0,0,0,0,0,0,0,0,0,0,0,0,0,0,0,0,0,0,0,0,0,0,0,0,0,0,0,0,0,0,
0,0,0,953,954,955,956,957,958,0,0,0,0,0,0,0,0,0,0,0,0,0,0,0,0,0,0,0,0,0,0,0,0,0,0,0,0,0,788,0,0,0,0,0,0,0,0,0,0,0,
0,0,0,0,0,0,0,0,0,0,0,0,0,0,0,0,0,0,0,0,0,0,0,0,0,0,0,0,0,0,0,0,0,0,0,0,0,0,0,788,789,0,0,0,0,0,0,0,0,0,
0,0,0,0,0,0,0,0,0,0,0,0,0,0,0,0,0,0,0,0,0,0,0,0,0,0,0,0,0,0,0,0,0,0,0,0,0,0,0,0,0,0,0,0,0,0,0,0,0,0,
0,0,0,0,0,0,0,0,0,0,0,0,0,0,0,0,0,0,0,0,0,0,0,0,0,0,0,0,0,0,0,790,791,792,793,794,795,796,0,0,0,0,0,0,0,0,0,0,0,0,
0,0,0,0,0,0,0,0,0,0,365,366,367,0,0,0,0,0,0,0,0,0,0,0,0,0,0,0,0,0,0,842,843,0,0,846,847,848,0,0,0,0,0,0,0,0,0,0,0,0,
0,0,0,365,366,367,0,0,0,0,417,418,419,0,0,0,0,0,0,0,0,0,0,0,0,0,0,0,0,0,0,894,895,896,897,898,899,900,0,0,0,0,0,0,0,0,0,0,0,0,
0,0,0,417,418,419,0,0,0,0,733,734,735,0,0,0,0,0,0,0,0,0,0,0,0,0,0,0,0,0,0,946,947,948,949,950,951,952,0,0,0,0,0,365,366,367,0,0,0,0,
0,0,0,733,734,735,0,0,0,0,785,786,787,0,0,0,0,0,0,0,0,0,0,0,0,0,0,0,0,0,0,0,0,0,0,0,0,0,0,0,0,0,0,417,418,419,0,0,0,0,
0,0,0,785,786,787,0,0,0,0,0,0,0,0,0,0,0,0,0,0,0,0,0,0,0,0,0,0,0,0,0,0,0,0,0,0,0,0,0,0,0,0,0,733,734,735,0,0,0,0,
0,0,0,0,0,0,0,0,0,0,0,0,0,0,0,0,0,0,0,0,0,0,0,0,0,0,0,0,0,0,0,0,0,0,0,0,0,0,0,0,0,0,0,785,786,787,0,0,0,0,
0,0,0,0,0,0,0,0,0,0,0,0,0,0,0,0,0,0,0,0,0,0,0,0,0,0,0,0,0,0,0,0,0,0,0,0,0,0,0,0,0,0,0,0,0,0,0,0,0,0,
0,0,0,0,0,0,0,0,0,0,0,0,0,0,0,0,0,0,0,0,0,0,0,0,0,0,0,365,366,367,0,0,0,0,0,0,0,0,0,0,0,0,0,0,0,0,0,0,0,0,
0,0,0,0,0,365,366,367,0,0,0,0,0,0,0,0,0,0,0,0,0,0,0,0,0,0,0,417,418,419,0,0,0,0,0,0,0,0,0,0,0,0,0,0,0,0,0,0,0,0,
0,0,0,0,0,417,418,419,0,0,0,0,0,0,0,365,366,367,0,0,0,0,0,0,0,0,0,733,734,735,0,0,0,0,0,0,0,0,0,0,0,0,0,0,0,0,0,0,0,0,
0,0,0,0,0,733,734,735,0,0,0,0,0,0,0,417,418,419,0,0,0,0,0,0,0,0,0,785,786,787,0,0,0,0,0,0,0,0,0,0,0,0,365,366,367,0,0,0,0,0,
0,0,0,0,0,785,786,787,0,0,0,0,0,0,0,733,734,735,0,0,0,0,0,0,0,0,0,0,0,0,0,0,0,0,0,0,0,0,0,0,0,0,417,418,419,0,0,0,0,0,
0,0,0,0,0,0,0,0,0,0,0,0,0,0,0,785,786,787,0,0,0,0,0,0,0,0,0,0,0,0,0,0,0,0,0,0,0,0,0,0,0,0,733,734,735,0,0,0,0,0,
0,0,0,0,0,0,0,0,0,0,0,0,0,0,0,0,0,0,0,0,0,0,0,0,0,0,0,0,0,0,0,0,0,0,0,0,0,0,0,0,0,0,785,786,787,0,0,0,0,0,
0,0,0,0,0,0,0,0,0,0,0,0,0,0,0,0,0,0,0,0,0,0,0,0,0,0,0,0,0,0,0,0,0,0,0,0,0,0,0,0,0,0,0,0,0,0,0,0,0,0
</data>
 </layer>
 <layer id="6" name="Random stuffs" width="50" height="50">
  <data encoding="csv">
0,0,0,0,0,0,0,0,0,0,0,0,0,0,0,0,0,0,0,0,0,0,0,0,0,0,0,0,0,0,0,0,0,0,0,0,0,0,0,0,0,0,0,0,0,0,0,0,0,0,
0,0,0,0,0,0,0,0,0,0,0,0,0,0,0,0,0,0,0,0,0,0,0,0,0,0,0,0,0,0,0,0,0,0,0,0,0,0,0,0,0,0,0,0,0,0,0,0,0,0,
0,0,0,0,0,0,0,0,0,0,0,0,0,0,0,0,0,0,0,0,0,0,0,0,0,0,0,0,0,0,0,0,0,0,0,0,0,0,0,0,0,0,0,0,0,332,0,0,0,0,
0,0,0,0,0,0,0,0,0,0,0,0,0,0,0,0,0,0,0,0,0,0,0,0,0,0,0,0,0,0,0,0,0,0,0,0,0,0,0,0,0,0,0,0,0,0,0,0,0,0,
0,0,0,0,0,0,0,0,0,0,0,0,0,0,0,0,0,0,0,0,0,0,0,0,0,0,0,0,0,0,0,0,0,0,0,0,0,0,0,0,0,0,0,0,0,0,0,0,0,0,
0,0,0,0,0,0,0,0,0,0,0,0,0,0,0,0,0,0,0,0,0,0,0,0,0,0,0,0,0,0,0,0,0,0,0,0,0,0,0,0,0,0,0,0,0,0,0,0,0,0,
0,0,0,0,0,0,0,0,0,0,0,0,0,0,0,0,0,0,0,0,0,0,383,0,0,0,0,0,333,0,0,0,0,0,0,0,0,0,0,0,0,0,0,0,0,0,0,0,0,0,
0,0,0,0,0,0,0,0,0,0,0,0,0,0,0,0,0,0,0,0,0,0,435,0,0,0,0,0,385,0,0,0,0,0,0,0,0,0,0,0,0,0,0,0,0,0,0,0,0,0,
0,0,0,0,0,0,0,0,0,0,0,0,0,0,0,0,0,0,0,0,0,0,0,0,0,0,0,0,0,0,0,0,0,0,0,0,0,0,0,0,0,0,0,0,0,0,0,0,0,0,
0,0,0,0,0,0,0,0,0,0,0,0,0,0,0,0,0,0,0,0,0,0,0,0,0,0,0,0,0,0,0,0,0,0,0,0,0,0,0,0,0,1376,1377,0,0,0,0,0,0,0,
0,0,0,0,0,0,0,0,0,0,0,0,0,0,0,0,0,0,0,0,0,0,0,0,0,0,0,0,0,0,0,0,0,0,0,0,0,0,0,0,383,383,383,384,0,0,0,0,0,0,
0,0,0,0,0,0,0,0,0,0,0,0,0,0,0,0,0,0,0,0,0,0,0,0,0,0,0,0,0,0,0,0,0,0,0,0,0,0,0,0,435,435,435,436,0,0,0,0,0,0,
0,0,0,0,0,0,0,0,0,0,0,0,0,0,0,0,0,0,0,0,0,0,0,0,0,0,0,0,0,0,0,0,0,0,0,0,0,0,0,0,0,0,0,0,0,0,0,0,0,0,
0,0,0,0,0,0,0,0,0,0,0,0,0,0,0,0,0,0,0,0,0,0,0,0,0,0,0,0,0,0,0,0,0,0,0,0,0,0,0,0,0,0,0,0,0,0,0,0,0,0,
0,0,0,0,0,0,0,0,0,0,0,0,0,0,0,0,0,0,0,0,0,0,0,0,0,0,0,0,0,0,0,0,0,0,0,0,0,0,0,0,0,0,0,0,0,0,0,0,0,0,
0,0,0,0,0,0,0,0,0,0,0,0,0,0,0,0,0,0,0,0,0,0,0,0,0,0,0,0,0,0,0,0,0,0,0,0,0,0,0,0,0,0,0,0,0,0,0,0,0,0,
0,0,0,0,0,0,0,0,0,0,0,0,0,0,0,0,0,0,0,0,0,0,0,0,0,0,0,0,0,0,0,0,0,0,0,0,0,0,0,0,0,0,0,0,0,0,0,0,0,0,
0,0,0,0,0,0,0,0,0,0,0,0,0,0,0,0,0,0,0,0,0,0,0,0,0,0,0,0,0,0,0,0,0,0,0,0,0,0,0,0,0,0,0,0,0,0,0,0,0,0,
0,0,0,0,0,0,0,0,0,0,0,0,0,0,0,0,0,0,0,0,0,0,0,0,0,0,0,0,0,0,0,0,0,0,0,0,0,0,0,0,0,0,0,0,0,0,0,0,0,0,
0,0,0,0,0,0,0,0,0,0,0,0,0,0,0,0,0,0,0,0,0,0,0,0,0,0,0,0,0,0,0,0,0,0,0,0,0,0,0,0,0,0,0,0,0,0,0,0,0,0,
0,0,0,0,0,0,0,0,0,0,0,0,0,0,0,0,0,0,0,0,0,0,0,0,0,0,0,0,0,0,0,0,0,0,0,0,0,0,0,0,0,0,0,0,0,0,0,0,0,0,
0,0,0,0,0,0,0,0,0,0,0,0,0,0,0,0,0,0,0,0,0,0,0,0,0,0,0,0,0,0,0,0,0,0,0,0,0,0,0,0,0,0,0,0,0,0,0,0,0,0,
0,0,0,0,0,0,0,0,0,0,0,0,0,0,0,0,0,0,0,0,0,0,0,0,0,0,0,0,0,0,0,0,0,0,0,0,0,0,0,0,0,0,0,0,0,0,0,0,0,0,
0,0,0,0,0,0,0,0,0,0,0,0,0,0,0,0,0,0,0,0,0,0,0,0,0,0,0,0,0,0,0,0,0,0,0,0,0,0,0,0,0,0,0,0,0,0,0,0,0,0,
0,0,0,0,0,0,0,0,0,0,0,0,0,0,0,0,0,0,0,0,0,0,0,0,0,0,0,0,0,0,0,0,0,0,0,0,0,0,0,0,0,0,0,0,0,0,0,0,0,0,
0,0,0,0,0,0,0,0,0,0,0,0,0,0,0,0,0,0,0,0,0,0,0,0,0,0,0,0,0,0,0,0,0,0,0,0,0,0,0,0,0,0,0,0,0,0,0,0,0,0,
0,0,0,0,0,0,0,0,0,0,0,0,0,0,0,0,0,0,0,0,0,0,0,0,0,0,0,0,0,0,0,0,0,0,0,0,0,0,0,0,0,0,0,0,0,0,0,0,0,0,
0,0,0,0,0,0,0,0,0,0,0,0,0,0,0,0,0,0,0,0,0,0,0,0,0,0,0,0,0,0,0,0,0,0,0,0,0,0,0,0,0,0,0,0,0,0,0,0,0,0,
0,0,0,0,0,0,0,0,0,0,0,0,0,0,0,0,0,0,0,0,0,0,0,0,0,0,0,0,0,0,0,0,0,0,0,0,0,0,0,0,0,0,0,0,0,0,0,0,0,0,
0,0,0,0,0,0,0,0,0,0,0,0,0,0,0,0,0,0,0,0,0,0,0,0,0,0,0,0,0,0,0,0,0,0,0,0,0,0,0,0,0,0,0,0,0,0,0,0,0,0,
0,0,0,0,0,0,0,0,0,0,0,0,0,0,0,0,0,0,0,0,0,0,0,0,0,0,0,0,0,0,0,0,0,0,0,0,0,0,0,0,0,0,0,0,0,0,0,0,0,0,
0,0,0,0,0,0,0,334,0,0,0,0,0,0,0,0,0,0,0,0,0,0,0,0,0,0,0,0,0,0,0,0,0,0,0,0,0,0,0,0,0,0,0,0,0,0,0,0,0,0,
0,0,0,0,0,0,0,0,0,0,0,0,0,0,0,0,0,0,0,0,0,0,0,0,0,0,0,0,0,0,0,0,0,0,0,0,0,0,0,0,0,0,0,0,0,0,0,0,0,0,
0,0,0,0,0,0,0,0,0,0,0,0,0,0,0,0,0,0,0,0,0,0,0,0,0,0,0,0,0,0,0,0,0,0,0,0,0,0,0,0,0,0,0,0,0,0,0,0,0,0,
0,0,0,0,0,0,0,0,0,0,0,0,0,0,0,0,0,0,0,0,0,0,0,0,0,0,0,0,0,0,0,1154,1155,1156,1157,1158,1159,1160,0,0,0,0,0,0,0,0,0,0,0,0,
0,0,0,0,0,0,0,0,0,0,0,0,0,0,0,0,0,0,0,0,0,0,0,0,0,0,0,0,0,0,0,1206,1207,1208,1209,1210,1211,1212,0,0,0,0,0,0,0,0,0,0,0,0,
0,0,0,0,0,0,0,0,0,0,0,0,0,0,0,0,0,0,0,0,0,0,0,0,0,0,0,0,0,0,0,1258,1259,1260,1261,1262,1263,1264,0,0,0,0,0,0,0,0,0,0,0,0,
0,0,0,0,0,0,0,0,0,0,0,0,0,0,0,0,0,0,0,0,0,0,0,0,0,0,0,0,0,0,0,0,0,0,0,0,334,0,0,0,0,0,0,0,0,0,0,0,0,0,
0,0,0,0,0,0,0,0,0,0,0,0,0,0,0,0,0,0,0,0,0,0,0,0,0,0,0,0,0,0,0,0,0,0,0,0,0,0,0,0,0,0,0,0,0,0,0,0,0,0,
0,0,0,0,0,0,0,0,0,0,0,0,0,0,0,0,0,0,0,0,0,0,0,0,0,0,0,0,0,0,0,0,0,0,0,0,0,0,0,0,0,0,0,0,0,0,0,0,0,0,
0,0,0,0,0,0,0,0,0,0,0,0,0,0,0,0,0,0,0,0,0,0,0,0,0,0,0,0,0,0,0,0,0,0,0,0,0,0,0,0,0,0,0,0,0,0,0,0,0,0,
0,0,0,0,0,0,0,0,0,0,0,0,0,0,0,0,0,0,0,0,0,0,0,0,0,0,0,0,0,0,0,0,0,0,0,0,0,0,0,0,0,0,0,0,0,0,0,0,0,0,
0,0,0,0,0,0,0,0,0,0,0,0,0,0,0,0,0,0,0,0,0,0,0,0,0,0,0,0,0,0,0,0,0,0,0,0,0,0,0,0,0,0,0,0,0,0,0,0,0,0,
0,0,0,0,0,0,0,0,0,0,0,0,0,0,0,0,0,0,0,0,0,0,0,0,0,0,0,0,0,0,0,0,0,0,0,0,0,0,0,0,0,0,0,0,0,0,0,0,0,0,
0,0,0,0,0,0,0,0,0,0,0,0,0,0,0,0,0,0,0,0,0,0,0,0,0,0,0,0,0,0,0,0,0,0,0,0,0,0,0,0,0,0,0,0,0,0,0,0,0,0,
0,0,0,0,0,0,0,0,0,0,0,0,0,0,0,0,0,0,0,0,0,0,0,0,0,0,0,0,0,0,0,0,0,0,0,0,0,0,0,0,0,0,0,0,0,0,0,0,0,0,
0,0,0,0,0,0,0,0,0,0,0,0,0,0,0,0,0,0,0,0,0,0,0,0,0,0,0,0,0,0,0,0,0,0,0,0,0,0,0,0,0,0,0,0,0,0,0,0,0,0,
0,0,0,0,0,0,0,0,0,0,0,0,0,0,0,0,0,0,0,0,0,0,0,0,0,0,0,0,0,0,0,0,0,0,0,0,0,0,0,0,0,0,0,0,0,0,0,0,0,0,
0,0,0,0,0,0,0,0,0,0,0,0,0,0,0,0,0,0,0,0,0,0,0,0,0,0,0,0,0,0,0,0,0,0,0,0,0,0,0,0,0,0,0,0,0,0,0,0,0,0,
0,0,0,0,0,0,0,0,0,0,0,0,0,0,0,0,0,0,0,0,0,0,0,0,0,0,0,0,0,0,0,0,0,0,0,0,0,0,0,0,0,0,0,0,0,0,0,0,0,0
</data>
 </layer>
 <objectgroup id="9" name="Collisions" class="collision" visible="0">
  <object id="1" name="collision_mur_arbre_maison_eau" type="collision" x="724" y="140" width="180" height="117.333"/>
  <object id="3" name="collision_mur_arbre_maison_eau" type="collision" x="708" y="217.333" width="22.6667" height="37.3333"/>
  <object id="4" name="collision_mur_arbre_maison_eau" type="collision" x="901.333" y="221.333" width="24" height="34.6667"/>
  <object id="5" name="collision_mur_arbre_maison_eau" type="collision" x="1109.33" y="174.667" width="302.667" height="114.667"/>
  <object id="6" name="collision_mur_arbre_maison_eau" type="collision" x="1280" y="290.667" width="128" height="92"/>
  <object id="7" name="collision_mur_arbre_maison_eau" type="collision" x="1481.33" y="265.333" width="80" height="86.6667"/>
  <object id="10" name="collision_mur_arbre_maison_eau" type="collision" x="90.6667" y="912" width="169.333" height="109.333"/>
  <object id="14" name="collision_mur_arbre_maison_eau" type="collision" x="1221.33" y="417.333" width="86.6667" height="90.6667"/>
  <object id="15" name="collision_mur_arbre_maison_eau" type="collision" x="968" y="132" width="81.3333" height="89.3333"/>
  <object id="16" name="collision_mur_arbre_maison_eau" type="collision" x="1186.67" y="65.3333" width="93.3333" height="94.6667"/>
  <object id="17" name="collision_mur_arbre_maison_eau" type="collision" x="1346.67" y="756" width="89.3333" height="92"/>
  <object id="18" name="collision_mur_arbre_maison_eau" type="collision" x="224" y="62.6667" width="94.6667" height="96"/>
  <object id="19" name="collision_mur_arbre_maison_eau" type="collision" x="69" y="129.333" width="86.6667" height="92"/>
  <object id="20" name="collision_mur_arbre_maison_eau" type="collision" x="356" y="701.333" width="90.6667" height="100"/>
  <object id="21" name="collision_mur_arbre_maison_eau" type="collision" x="104" y="512" width="84" height="96"/>
  <object id="22" name="collision_mur_arbre_maison_eau" type="collision" x="288" y="317.333" width="96" height="101.333"/>
  <object id="23" name="collision_mur_arbre_maison_eau" type="collision" x="325.333" y="1128" width="86.6667" height="85.3333"/>
  <object id="24" name="collision_mur_arbre_maison_eau" type="collision" x="105.333" y="1153.33" width="82.6667" height="90.6667"/>
  <object id="25" name="collision_mur_arbre_maison_eau" type="collision" x="168" y="1372" width="85.3333" height="98.6667"/>
  <object id="26" name="collision_mur_arbre_maison_eau" type="collision" x="484" y="1409.33" width="88" height="92"/>
  <object id="27" name="collision_mur_arbre_maison_eau" type="collision" x="864" y="1346.67" width="89.3333" height="92"/>
  <object id="28" name="collision_mur_arbre_maison_eau" type="collision" x="1014.67" y="1101.33" width="169.333" height="117.333"/>
  <object id="32" name="collision_mur_arbre_maison_eau" type="collision" x="1380" y="1188" width="86.6667" height="89.3333"/>
  <object id="33" name="collision_mur_arbre_maison_eau" type="collision" x="1350.67" y="1448" width="86.6667" height="86.6667"/>
  <object id="34" name="collision_mur_arbre_maison_eau" type="collision" x="1341.33" y="64" width="101.333" height="61.3333"/>
  <object id="35" name="collision_mur_arbre_maison_eau" type="collision" x="1436" y="64" width="94.6667" height="32"/>
  <object id="37" name="collision_mur_arbre_maison_eau" type="collision" x="1472" y="96" width="60" height="30.6667"/>
  <object id="38" name="collision_mur_arbre_maison_eau" type="collision" x="477.333" y="-5.33333" width="98.6667" height="580"/>
  <object id="39" name="collision_mur_arbre_maison_eau" type="collision" x="572" y="474.667" width="33.3333" height="98.6667"/>
  <object id="40" name="collision_mur_arbre_maison_eau" type="collision" x="670.667" y="476" width="128" height="100"/>
  <object id="41" name="collision_mur_arbre_maison_eau" type="collision" x="704" y="570.667" width="96" height="228"/>
  <object id="42" name="collision_mur_arbre_maison_eau" type="collision" x="800" y="702.667" width="285.333" height="96"/>
  <object id="43" name="collision_mur_arbre_maison_eau" type="collision" x="993.333" y="792" width="94.6667" height="36"/>
  <object id="44" name="collision_mur_arbre_maison_eau" type="collision" x="990.667" y="862.667" width="97.3333" height="286.667"/>
  <object id="45" name="collision_mur_arbre_maison_eau" type="collision" x="1089.33" y="1054.67" width="510.667" height="94.6667"/>
  <object id="46" name="collision_mur_arbre_maison_eau" type="collision" x="-0.66667" y="-9.33333" width="1600" height="37.3333"/>
  <object id="47" name="collision_mur_arbre_maison_eau" type="collision" x="1566.67" y="28" width="32" height="1573.33"/>
  <object id="48" name="collision_mur_arbre_maison_eau" type="collision" x="1.33333" y="1568" width="1564" height="32"/>
  <object id="49" name="collision_mur_arbre_maison_eau" type="collision" x="0" y="32" width="28" height="1537.33"/>
  <object id="54" name="spawn" x="209" y="1038">
   <point/>
  </object>
 </objectgroup>
</map>
