<?xml version="1.0" encoding="UTF-8"?>
<map version="1.10" tiledversion="1.10.2" orientation="orthogonal" renderorder="right-down" width="50" height="50" tilewidth="32" tileheight="32" infinite="0" nextlayerid="13" nextobjectid="30">
 <tileset firstgid="1" source="tuiles_grotte.tsx"/>
 <tileset firstgid="2449" source="tuiles_grotte_decorations.tsx"/>
 <layer id="2" name="backgound" width="50" height="50">
  <data encoding="csv">
2272,2273,2274,2275,2272,2273,2274,2275,2272,2273,2274,2275,2272,2273,2274,2275,2272,2273,2274,2275,2272,2273,2274,2275,2272,2273,2274,2275,2272,2273,2274,2275,2272,2273,2274,2275,2272,2273,2274,2275,2272,2273,2274,2275,2272,2273,2274,2275,2272,2273,
2323,2324,2325,2326,2323,2324,2325,2326,2323,2324,2325,2326,2323,2324,2325,2326,2323,2324,2325,2326,2323,2324,2325,2326,2323,2324,2325,2326,2323,2324,2325,2326,2323,2324,2325,2326,2323,2324,2325,2326,2323,2324,2325,2326,2323,2324,2325,2326,2323,2324,
2374,2375,2376,2377,2374,2375,2376,2377,2374,2375,2376,2377,2374,2375,2376,2377,2374,2375,2376,2377,2374,2375,2376,2377,2374,2375,2376,2377,2374,2375,2376,2377,2374,2375,2376,2377,2374,2375,2376,2377,2374,2375,2376,2377,2374,2375,2376,2377,2374,2375,
2272,2273,2274,2275,2272,2273,2274,2275,2272,2273,2274,2275,2272,2273,2274,2275,2272,2273,2274,2275,2272,2273,2274,2275,2272,2273,2274,2275,2272,2273,2274,2275,2272,2273,2274,2275,2272,2273,2274,2275,2272,2273,2274,2275,2272,2273,2274,2275,2272,2273,
2323,2324,2325,2326,2323,2324,2325,2326,2323,2324,2325,2326,2323,2324,2325,2326,2323,2324,2325,2326,2323,2324,2325,2326,2323,2324,2325,2326,2323,2324,2325,2326,2323,2324,2325,2326,2323,2324,2325,2326,2323,2324,2325,2326,2323,2324,2325,2326,2323,2324,
2374,2375,2376,2377,2374,2375,2376,2377,2374,2375,2376,2377,2374,2375,2376,2377,2374,2375,2376,2377,2374,2375,2376,2377,2374,2375,2376,2377,2374,2375,2376,2377,2374,2375,2376,2377,2374,2375,2376,2377,2374,2375,2376,2377,2374,2375,2376,2377,2374,2375,
2272,2273,2274,2275,2272,2273,2274,2275,2272,2273,2274,2275,2272,2273,2274,2275,2272,2273,2274,2275,2272,2273,2274,2275,2272,2273,2274,2275,2272,2273,2274,2275,2272,2273,2274,2275,2272,2273,2274,2275,2272,2273,2274,2275,2272,2273,2274,2275,2272,2273,
2323,2324,2325,2326,2323,2324,2325,2326,2323,2324,2325,2326,2323,2324,2325,2326,2323,2324,2325,2326,2323,2324,2325,2326,2323,2324,2325,2326,2323,2324,2325,2326,2323,2324,2325,2326,2323,2324,2325,2326,2323,2324,2325,2326,2323,2324,2325,2326,2323,2324,
2374,2375,2376,2377,2374,2375,2376,2377,2374,2375,2376,2377,2374,2375,2376,2377,2374,2375,2376,2377,2374,2375,2376,2377,2374,2375,2376,2377,2374,2375,2376,2377,2374,2375,2376,2377,2374,2375,2376,2377,2374,2375,2376,2377,2374,2375,2376,2377,2374,2375,
2272,2273,2274,2275,2272,2273,2274,2275,2272,2273,2274,2275,2272,2273,2274,2275,2272,2273,2274,2275,2272,2273,2274,2275,2272,2273,2274,2275,2272,2273,2274,2275,2272,2273,2274,2275,2272,2273,2274,2275,2272,2273,2274,2275,2272,2273,2274,2275,2272,2273,
2323,2324,2325,2326,2323,2324,2325,2326,2323,2324,2325,2326,2323,2324,2325,2326,2323,2324,2325,2326,2323,2324,2325,2326,2323,2324,2325,2326,2323,2324,2325,2326,2323,2324,2325,2326,2323,2324,2325,2326,2323,2324,2325,2326,2323,2324,2325,2326,2323,2324,
2374,2375,2376,2377,2374,2375,2376,2377,2374,2375,2376,2377,2374,2375,2376,2377,2374,2375,2376,2377,2374,2375,2376,2377,2374,2375,2376,2377,2374,2375,2376,2377,2374,2375,2376,2377,2374,2375,2376,2377,2374,2375,2376,2377,2374,2375,2376,2377,2374,2375,
2272,2273,2274,2275,2272,2273,2274,2275,2272,2273,2274,2275,2272,2273,2274,2275,2272,2273,2274,2275,2272,2273,2274,2275,2272,2273,2274,2275,2272,2273,2274,2275,2272,2273,2274,2275,2272,2273,2274,2275,2272,2273,2274,2275,2272,2273,2274,2275,2272,2273,
2323,2324,2325,2326,2323,2324,2325,2326,2323,2324,2325,2326,2323,2324,2325,2326,2323,2324,2325,2326,2323,2324,2325,2326,2323,2324,2325,2326,2323,2324,2325,2326,2323,2324,2325,2326,2323,2324,2325,2326,2323,2324,2325,2326,2323,2324,2325,2326,2323,2324,
2374,2375,2376,2377,2374,2375,2376,2377,2374,2375,2376,2377,2374,2375,2376,2377,2374,2375,2376,2377,2374,2375,2376,2377,2374,2375,2376,2377,2374,2375,2376,2377,2374,2375,2376,2377,2374,2375,2376,2377,2374,2375,2376,2377,2374,2375,2376,2377,2374,2375,
2272,2273,2274,2275,2272,2273,2274,2275,2272,2273,2274,2275,2272,2273,2274,2275,2272,2273,2274,2275,2272,2273,2274,2275,2272,2273,2274,2275,2272,2273,2274,2275,2272,2273,2274,2275,2272,2273,2274,2275,2272,2273,2274,2275,2272,2273,2274,2275,2272,2273,
2323,2324,2325,2326,2323,2324,2325,2326,2323,2324,2325,2326,2323,2324,2325,2326,2323,2324,2325,2326,2323,2324,2325,2326,2323,2324,2325,2326,2323,2324,2325,2326,2323,2324,2325,2326,2323,2324,2325,2326,2323,2324,2325,2326,2323,2324,2325,2326,2323,2324,
2374,2375,2376,2377,2374,2375,2376,2377,2374,2375,2376,2377,2374,2375,2376,2377,2374,2375,2376,2377,2374,2375,2376,2377,2374,2375,2376,2377,2374,2375,2376,2377,2374,2375,2376,2377,2374,2375,2376,2377,2374,2375,2376,2377,2374,2375,2376,2377,2374,2375,
2272,2273,2274,2275,2272,2273,2274,2275,2272,2273,2274,2275,2272,2273,2274,2275,2272,2273,2274,2275,2272,2273,2274,2275,2272,2273,2274,2275,2272,2273,2274,2275,2272,2273,2274,2275,2272,2273,2274,2275,2272,2273,2274,2275,2272,2273,2274,2275,2272,2273,
2323,2324,2325,2326,2323,2324,2325,2326,2323,2324,2325,2326,2323,2324,2325,2326,2323,2324,2325,2326,2323,2324,2325,2326,2323,2324,2325,2326,2323,2324,2325,2326,2323,2324,2325,2326,2323,2324,2325,2326,2323,2324,2325,2326,2323,2324,2325,2326,2323,2324,
2374,2375,2376,2377,2374,2375,2376,2377,2374,2375,2376,2377,2374,2375,2376,2377,2374,2375,2376,2377,2374,2375,2376,2377,2374,2375,2376,2377,2374,2375,2376,2377,2374,2375,2376,2377,2374,2375,2376,2377,2374,2375,2376,2377,2374,2375,2376,2377,2374,2375,
2272,2273,2274,2275,2272,2273,2274,2275,2272,2273,2274,2275,2272,2273,2274,2275,2272,2273,2274,2275,2272,2273,2274,2275,2272,2273,2274,2275,2272,2273,2274,2275,2272,2273,2274,2275,2272,2273,2274,2275,2272,2273,2274,2275,2272,2273,2274,2275,2272,2273,
2323,2324,2325,2326,2323,2324,2325,2326,2323,2324,2325,2326,2323,2324,2325,2326,2323,2324,2325,2326,2323,2324,2325,2326,2323,2324,2325,2326,2323,2324,2325,2326,2323,2324,2325,2326,2323,2324,2325,2326,2323,2324,2325,2326,2323,2324,2325,2326,2323,2324,
2374,2375,2376,2377,2374,2375,2376,2377,2374,2375,2376,2377,2374,2375,2376,2377,2374,2375,2376,2377,2374,2375,2376,2377,2374,2375,2376,2377,2374,2375,2376,2377,2374,2375,2376,2377,2374,2375,2376,2377,2374,2375,2376,2377,2374,2375,2376,2377,2374,2375,
2272,2273,2274,2275,2272,2273,2274,2275,2272,2273,2274,2275,2272,2273,2274,2275,2272,2273,2274,2275,2272,2273,2274,2275,2272,2273,2274,2275,2272,2273,2274,2275,2272,2273,2274,2275,2272,2273,2274,2275,2272,2273,2274,2275,2272,2273,2274,2275,2272,2273,
2323,2324,2325,2326,2323,2324,2325,2326,2323,2324,2325,2326,2323,2324,2325,2326,2323,2324,2325,2326,2323,2324,2325,2326,2323,2324,2325,2326,2323,2324,2325,2326,2323,2324,2325,2326,2323,2324,2325,2326,2323,2324,2325,2326,2323,2324,2325,2326,2323,2324,
2374,2375,2376,2377,2374,2375,2376,2377,2374,2375,2376,2377,2374,2375,2376,2377,2374,2375,2376,2377,2374,2375,2376,2377,2374,2375,2376,2377,2374,2375,2376,2377,2374,2375,2376,2377,2374,2375,2376,2377,2374,2375,2376,2377,2374,2375,2376,2377,2374,2375,
2272,2273,2274,2275,2272,2273,2274,2275,2272,2273,2274,2275,2272,2273,2274,2275,2272,2273,2274,2275,2272,2273,2274,2275,2272,2273,2274,2275,2272,2273,2274,2275,2272,2273,2274,2275,2272,2273,2274,2275,2272,2273,2274,2275,2272,2273,2274,2275,2272,2273,
2323,2324,2325,2326,2323,2324,2325,2326,2323,2324,2325,2326,2323,2324,2325,2326,2323,2324,2325,2326,2323,2324,2325,2326,2323,2324,2325,2326,2323,2324,2325,2326,2323,2324,2325,2326,2323,2324,2325,2326,2323,2324,2325,2326,2323,2324,2325,2326,2323,2324,
2374,2375,2376,2377,2374,2375,2376,2377,2374,2375,2376,2377,2374,2375,2376,2377,2374,2375,2376,2377,2374,2375,2376,2377,2374,2375,2376,2377,2374,2375,2376,2377,2374,2375,2376,2377,2374,2375,2376,2377,2374,2375,2376,2377,2374,2375,2376,2377,2374,2375,
2272,2273,2274,2275,2272,2273,2274,2275,2272,2273,2274,2275,2272,2273,2274,2275,2272,2273,2274,2275,2272,2273,2274,2275,2272,2273,2274,2275,2272,2273,2274,2275,2272,2273,2274,2275,2272,2273,2274,2275,2272,2273,2274,2275,2272,2273,2274,2275,2272,2273,
2323,2324,2325,2326,2323,2324,2325,2326,2323,2324,2325,2326,2323,2324,2325,2326,2323,2324,2325,2326,2323,2324,2325,2326,2323,2324,2325,2326,2323,2324,2325,2326,2323,2324,2325,2326,2323,2324,2325,2326,2323,2324,2325,2326,2323,2324,2325,2326,2323,2324,
2374,2375,2376,2377,2374,2375,2376,2377,2374,2375,2376,2377,2374,2375,2376,2377,2374,2375,2376,2377,2374,2375,2376,2377,2374,2375,2376,2377,2374,2375,2376,2377,2374,2375,2376,2377,2374,2375,2376,2377,2374,2375,2376,2377,2374,2375,2376,2377,2374,2375,
2272,2273,2274,2275,2272,2273,2274,2275,2272,2273,2274,2275,2272,2273,2274,2275,2272,2273,2274,2275,2272,2273,2274,2275,2272,2273,2274,2275,2272,2273,2274,2275,2272,2273,2274,2275,2272,2273,2274,2275,2272,2273,2274,2275,2272,2273,2274,2275,2272,2273,
2323,2324,2325,2326,2323,2324,2325,2326,2323,2324,2325,2326,2323,2324,2325,2326,2323,2324,2325,2326,2323,2324,2325,2326,2323,2324,2325,2326,2323,2324,2325,2326,2323,2324,2325,2326,2323,2324,2325,2326,2323,2324,2325,2326,2323,2324,2325,2326,2323,2324,
2374,2375,2376,2377,2374,2375,2376,2377,2374,2375,2376,2377,2374,2375,2376,2377,2374,2375,2376,2377,2374,2375,2376,2377,2374,2375,2376,2377,2374,2375,2376,2377,2374,2375,2376,2377,2374,2375,2376,2377,2374,2375,2376,2377,2374,2375,2376,2377,2374,2375,
2272,2273,2274,2275,2272,2273,2274,2275,2272,2273,2274,2275,2272,2273,2274,2275,2272,2273,2274,2275,2272,2273,2274,2275,2272,2273,2274,2275,2272,2273,2274,2275,2272,2273,2274,2275,2272,2273,2274,2275,2272,2273,2274,2275,2272,2273,2274,2275,2272,2273,
2323,2324,2325,2326,2323,2324,2325,2326,2323,2324,2325,2326,2323,2324,2325,2326,2323,2324,2325,2326,2323,2324,2325,2326,2323,2324,2325,2326,2323,2324,2325,2326,2323,2324,2325,2326,2323,2324,2325,2326,2323,2324,2325,2326,2323,2324,2325,2326,2323,2324,
2374,2375,2376,2377,2374,2375,2376,2377,2374,2375,2376,2377,2374,2375,2376,2377,2374,2375,2376,2377,2374,2375,2376,2377,2374,2375,2376,2377,2374,2375,2376,2377,2374,2375,2376,2377,2374,2375,2376,2377,2374,2375,2376,2377,2374,2375,2376,2377,2374,2375,
2272,2273,2274,2275,2272,2273,2274,2275,2272,2273,2274,2275,2272,2273,2274,2275,2272,2273,2274,2275,2272,2273,2274,2275,2272,2273,2274,2275,2272,2273,2274,2275,2272,2273,2274,2275,2272,2273,2274,2275,2272,2273,2274,2275,2272,2273,2274,2275,2272,2273,
2323,2324,2325,2326,2323,2324,2325,2326,2323,2324,2325,2326,2323,2324,2325,2326,2323,2324,2325,2326,2323,2324,2325,2326,2323,2324,2325,2326,2323,2324,2325,2326,2323,2324,2325,2326,2323,2324,2325,2326,2323,2324,2325,2326,2323,2324,2325,2326,2323,2324,
2374,2375,2376,2377,2374,2375,2376,2377,2374,2375,2376,2377,2374,2375,2376,2377,2374,2375,2376,2377,2374,2375,2376,2377,2374,2375,2376,2377,2374,2375,2376,2377,2374,2375,2376,2377,2374,2375,2376,2377,2374,2375,2376,2377,2374,2375,2376,2377,2374,2375,
2272,2273,2274,2275,2272,2273,2274,2275,2272,2273,2274,2275,2272,2273,2274,2275,2272,2273,2274,2275,2272,2273,2274,2275,2272,2273,2274,2275,2272,2273,2274,2275,2272,2273,2274,2275,2272,2273,2274,2275,2272,2273,2274,2275,2272,2273,2274,2275,2272,2273,
2323,2324,2325,2326,2323,2324,2325,2326,2323,2324,2325,2326,2323,2324,2325,2326,2323,2324,2325,2326,2323,2324,2325,2326,2323,2324,2325,2326,2323,2324,2325,2326,2323,2324,2325,2326,2323,2324,2325,2326,2323,2324,2325,2326,2323,2324,2325,2326,2323,2324,
2374,2375,2376,2377,2374,2375,2376,2377,2374,2375,2376,2377,2374,2375,2376,2377,2374,2375,2376,2377,2374,2375,2376,2377,2374,2375,2376,2377,2374,2375,2376,2377,2374,2375,2376,2377,2374,2375,2376,2377,2374,2375,2376,2377,2374,2375,2376,2377,2374,2375,
2272,2273,2274,2275,2272,2273,2274,2275,2272,2273,2274,2275,2272,2273,2274,2275,2272,2273,2274,2275,2272,2273,2274,2275,2272,2273,2274,2275,2272,2273,2274,2275,2272,2273,2274,2275,2272,2273,2274,2275,2272,2273,2274,2275,2272,2273,2274,2275,2272,2273,
2323,2324,2325,2326,2323,2324,2325,2326,2323,2324,2325,2326,2323,2324,2325,2326,2323,2324,2325,2326,2323,2324,2325,2326,2323,2324,2325,2326,2323,2324,2325,2326,2323,2324,2325,2326,2323,2324,2325,2326,2323,2324,2325,2326,2323,2324,2325,2326,2323,2324,
2374,2375,2376,2377,2374,2375,2376,2377,2374,2375,2376,2377,2374,2375,2376,2377,2374,2375,2376,2377,2374,2375,2376,2377,2374,2375,2376,2377,2374,2375,2376,2377,2374,2375,2376,2377,2374,2375,2376,2377,2374,2375,2376,2377,2374,2375,2376,2377,2374,2375,
2272,2273,2274,2275,2272,2273,2274,2275,2272,2273,2274,2275,2272,2273,2274,2275,2272,2273,2274,2275,2272,2273,2274,2275,2272,2273,2274,2275,2272,2273,2274,2275,2272,2273,2274,2275,2272,2273,2274,2275,2272,2273,2274,2275,2272,2273,2274,2275,2272,2273,
2323,2324,2325,2326,2323,2324,2325,2326,2323,2324,2325,2326,2323,2324,2325,2326,2323,2324,2325,2326,2323,2324,2325,2326,2323,2324,2325,2326,2323,2324,2325,2326,2323,2324,2325,2326,2323,2324,2325,2326,2323,2324,2325,2326,2323,2324,2325,2326,2323,2324
</data>
 </layer>
 <layer id="11" name="floor" width="50" height="50">
  <data encoding="csv">
0,0,0,0,0,0,0,0,0,0,0,0,0,0,0,0,0,0,0,0,0,0,0,0,0,0,0,0,0,0,0,0,0,0,0,0,0,0,0,0,0,0,0,0,0,0,0,0,0,0,
0,0,0,2272,0,0,0,0,0,0,0,0,0,0,0,0,0,0,0,0,0,0,0,0,0,0,0,0,0,0,0,0,0,0,0,0,0,0,0,0,0,0,0,0,0,0,0,0,0,0,
0,0,0,0,0,0,0,0,0,0,0,0,0,0,0,0,0,0,0,0,0,0,0,0,0,0,0,0,0,0,0,0,0,0,0,0,0,0,0,0,0,0,0,0,0,0,0,0,0,0,
0,0,2272,2273,2274,2275,2272,2273,2274,2275,2272,2273,2274,2275,2272,2273,2274,2275,2272,2273,2274,2275,2272,2273,2274,2275,2272,2273,2274,2275,2272,2273,2274,2275,2272,2273,2274,2275,2272,2273,2274,2275,2272,2273,2274,2275,2272,2273,0,0,
0,0,2323,2324,2325,2326,2323,2324,2325,2326,2323,2324,2325,2326,2323,2324,2325,2326,2323,2324,2325,2326,2323,2324,2325,2326,2323,2324,2325,2326,2323,2324,2325,2326,2323,2324,2325,2326,2323,2324,2325,2326,2323,2324,2325,2326,2323,2324,0,0,
0,0,2374,2375,2376,2377,2374,2375,2376,2377,2374,2375,2376,2377,2374,2375,2376,2377,2374,2375,2376,2377,2374,2375,2376,2377,2374,2375,2376,2377,2374,2375,2376,2377,2374,2375,2376,2377,2374,2375,2376,2377,2374,2375,2376,2377,2374,2375,0,0,
0,0,2272,2273,2274,2275,2272,2273,2274,2275,2272,2273,2274,2275,2272,2273,2274,2275,2272,2273,2274,2275,2272,2273,2274,2275,2272,2273,2274,2275,2272,2273,2274,2275,2272,2273,2274,2275,2272,2273,2274,2275,2272,2273,2274,2275,2272,2273,0,0,
0,0,2323,2324,2325,2326,2323,2324,2325,2326,2323,2324,2325,2326,2323,2324,2325,2326,2323,2324,2325,2326,2323,2324,2325,2326,2323,2324,2325,2326,2323,2324,2325,2326,2323,2324,2325,2326,2323,2324,2325,2326,2323,2324,2325,2326,2323,2324,0,0,
0,0,2374,2375,2376,2377,2374,2375,2376,2377,2374,2375,2376,2377,2374,2375,2376,2377,2374,2375,2376,2377,2374,2375,2376,2377,2374,2375,2376,2377,2374,2375,2376,2377,2374,2375,2376,2377,2374,2375,2376,2377,2374,2375,2376,2377,2374,2375,0,0,
0,0,2272,2273,2274,2275,2272,2273,2274,2275,2272,2273,2274,2275,2272,2273,2274,2275,2272,2273,2274,2275,2272,2273,2274,2275,2272,2273,2274,2275,2272,2273,2274,2275,2272,2273,2274,2275,2272,2273,2274,2275,2272,2273,2274,2275,2272,2273,0,0,
0,0,2323,2324,2325,2326,2323,2324,2325,2326,2323,2324,2325,2326,2323,2324,2325,2326,2323,2324,2325,2326,2323,2324,2325,2326,2323,2324,2325,2326,2323,2324,2325,2326,2323,2324,2325,2326,2323,2324,2325,2326,2323,2324,2325,2326,2323,2324,0,0,
0,0,2374,2375,2376,2377,2374,2375,2376,2377,2374,2375,2376,2377,2374,2375,2376,2377,2374,2375,2376,2377,2374,2375,2376,2377,2374,2375,2376,2377,2374,2375,2376,2377,2374,2375,2376,2377,2374,2375,2376,2377,2374,2375,2376,2377,2374,2375,0,0,
0,0,2272,2273,2274,2275,2272,2273,2274,2275,2272,2273,2274,2275,2272,2273,2274,2275,2272,2273,2274,2275,2272,2273,2274,2275,2272,2273,2274,2275,2272,2273,2274,2275,2272,2273,2274,2275,2272,2273,2274,2275,2272,2273,2274,2275,2272,2273,0,0,
0,0,2323,2324,2325,2326,2323,2324,2325,2326,2323,2324,2325,2326,2323,2324,2325,2326,2323,2324,2325,2326,2323,2324,2325,2326,2323,2324,2325,2326,2323,2324,2325,2326,2323,2324,2325,2326,2323,2324,2325,2326,2323,2324,2325,2326,2323,2324,0,0,
0,0,2374,2375,2376,2377,2374,2375,2376,2377,2374,2375,2376,2377,2374,2375,2376,2377,2374,2375,2376,2377,2374,2375,2376,2377,2374,2375,2376,2377,2374,2375,2376,2377,2374,2375,2376,2377,2374,2375,2376,2377,2374,2375,2376,2377,2374,2375,0,0,
0,0,2272,2273,2274,2275,2272,2273,2274,2275,2272,2273,2274,2275,2272,2273,2274,2275,2272,2273,2274,2275,2272,2273,2274,2275,2272,2273,2274,2275,2272,2273,2274,2275,2272,2273,2274,2275,2272,2273,2274,2275,2272,2273,2274,2275,2272,2273,0,0,
0,0,2323,2324,2325,2326,2323,2324,2325,2326,2323,2324,2325,2326,2323,2324,2325,2326,2323,2324,2325,2326,2323,2324,2325,2326,2323,2324,2325,2326,2323,2324,2325,2326,2323,2324,2325,2326,2323,2324,2325,2326,2323,2324,2325,2326,2323,2324,0,0,
0,0,2374,2375,2376,2377,2374,2375,2376,2377,2374,2375,2376,2377,2374,2375,2376,2377,2374,2375,2376,2377,2374,2375,2376,2377,2374,2375,2376,2377,2374,2375,2376,2377,2374,2375,2376,2377,2374,2375,2376,2377,2374,2375,2376,2377,2374,2375,0,0,
0,0,2272,2273,2274,2275,2272,2273,2274,2275,2272,2273,2274,2275,2272,2273,2274,2275,2272,2273,2274,2275,2272,2273,2274,2275,2272,2273,2274,2275,2272,2273,2274,2275,2272,2273,2274,2275,2272,2273,2274,2275,2272,2273,2274,2275,2272,2273,0,0,
0,0,2323,2324,2325,2326,2323,2324,2325,2326,2323,2324,2325,2326,2323,2324,2325,2326,2323,2324,2325,2326,2323,2324,2325,2326,2323,2324,2325,2326,2323,2324,2325,2326,2323,2324,2325,2326,2323,2324,2325,2326,2323,2324,2325,2326,2323,2324,0,0,
0,0,2374,2375,2376,2377,2374,2375,2376,2377,2374,2375,2376,2377,2374,2375,2376,2377,2374,2375,2376,2377,2374,2375,2376,2377,2374,2375,2376,2377,2374,2375,2376,2377,2374,2375,2376,2377,2374,2375,2376,2377,2374,2375,2376,2377,2374,2375,0,0,
0,0,2272,2273,2274,2275,2272,2273,2274,2275,2272,2273,2274,2275,2272,2273,2274,2275,2272,2273,2274,2275,2272,2273,2274,2275,2272,2273,2274,2275,2272,2273,2274,2275,2272,2273,2274,2275,2272,2273,2274,2275,2272,2273,2274,2275,2272,2273,0,0,
0,0,2323,2324,2325,2326,2323,2324,2325,2326,2323,2324,2325,2326,2323,2324,2325,2326,2323,2324,2325,2326,2323,2324,2325,2326,2323,2324,2325,2326,2323,2324,2325,2326,2323,2324,2325,2326,2323,2324,2325,2326,2323,2324,2325,2326,2323,2324,0,0,
0,0,2374,2375,2376,2377,2374,2375,2376,2377,2374,2375,2376,2377,2374,2375,2376,2377,2374,2375,2376,2377,2374,2375,2376,2377,2374,2375,2376,2377,2374,2375,2376,2377,2374,2375,2376,2377,2374,2375,2376,2377,2374,2375,2376,2377,2374,2375,0,0,
0,0,2272,2273,2274,2275,2272,2273,2274,2275,2272,2273,2274,2275,2272,2273,2274,2275,2272,2273,2274,2275,2272,2273,2274,2275,2272,2273,2274,2275,2272,2273,2274,2275,2272,2273,2274,2275,2272,2273,2274,2275,2272,2273,2274,2275,2272,2273,0,0,
0,0,2323,2324,2325,2326,2323,2324,2325,2326,2323,2324,2325,2326,2323,2324,2325,2326,2323,2324,2325,2326,2323,2324,2325,2326,2323,2324,2325,2326,2323,2324,2325,2326,2323,2324,2325,2326,2323,2324,2325,2326,2323,2324,2325,2326,2323,2324,0,0,
0,0,2374,2375,2376,2377,2374,2375,2376,2377,2374,2375,2376,2377,2374,2375,2376,2377,2374,2375,2376,2377,2374,2375,2376,2377,2374,2375,2376,2377,2374,2375,2376,2377,2374,2375,2376,2377,2374,2375,2376,2377,2374,2375,2376,2377,2374,2375,0,0,
0,0,2272,2273,2274,2275,2272,2273,2274,2275,2272,2273,2274,2275,2272,2273,2274,2275,2272,2273,2274,2275,2272,2273,2274,2275,2272,2273,2274,2275,2272,2273,2274,2275,2272,2273,2274,2275,2272,2273,2274,2275,2272,2273,2274,2275,2272,2273,0,0,
0,0,2323,2324,2325,2326,2323,2324,2325,2326,2323,2324,2325,2326,2323,2324,2325,2326,2323,2324,2325,2326,2323,2324,2325,2326,2323,2324,2325,2326,2323,2324,2325,2326,2323,2324,2325,2326,2323,2324,2325,2326,2323,2324,2325,2326,2323,2324,0,0,
0,0,2374,2375,2376,2377,2374,2375,2376,2377,2374,2375,2376,2377,2374,2375,2376,2377,2374,2375,2376,2377,2374,2375,2376,2377,2374,2375,2376,2377,2374,2375,2376,2377,2374,2375,2376,2377,2374,2375,2376,2377,2374,2375,2376,2377,2374,2375,0,0,
0,0,2272,2273,2274,2275,2272,2273,2274,2275,2272,2273,2274,2275,2272,2273,2274,2275,2272,2273,2274,2275,2272,2273,2274,2275,2272,2273,2274,2275,2272,2273,2274,2275,2272,2273,2274,2275,2272,2273,2274,2275,2272,2273,2274,2275,2272,2273,0,0,
0,0,2323,2324,2325,2326,2323,2324,2325,2326,2323,2324,2325,2326,2323,2324,2325,2326,2323,2324,2325,2326,2323,2324,2325,2326,2323,2324,2325,2326,2323,2324,2325,2326,2323,2324,2325,2326,2323,2324,2325,2326,2323,2324,2325,2326,2323,2324,0,0,
0,0,2374,2375,2376,2377,2374,2375,2376,2377,2374,2375,2376,2377,2374,2375,2376,2377,2374,2375,2376,2377,2374,2375,2376,2377,2374,2375,2376,2377,2374,2375,2376,2377,2374,2375,2376,2377,2374,2375,2376,2377,2374,2375,2376,2377,2374,2375,0,0,
0,0,2272,2273,2274,2275,2272,2273,2274,2275,2272,2273,2274,2275,2272,2273,2274,2275,2272,2273,2274,2275,2272,2273,2274,2275,2272,2273,2274,2275,2272,2273,2274,2275,2272,2273,2274,2275,2272,2273,2274,2275,2272,2273,2274,2275,2272,2273,0,0,
0,0,2323,2324,2325,2326,2323,2324,2325,2326,2323,2324,2325,2326,2323,2324,2325,2326,2323,2324,2325,2326,2323,2324,2325,2326,2323,2324,2325,2326,2323,2324,2325,2326,2323,2324,2325,2326,2323,2324,2325,2326,2323,2324,2325,2326,2323,2324,0,0,
0,0,2374,2375,2376,2377,2374,2375,2376,2377,2374,2375,2376,2377,2374,2375,2376,2377,2374,2375,2376,2377,2374,2375,2376,2377,2374,2375,2376,2377,2374,2375,2376,2377,2374,2375,2376,2377,2374,2375,2376,2377,2374,2375,2376,2377,2374,2375,0,0,
0,0,2272,2273,2274,2275,2272,2273,2274,2275,2272,2273,2274,2275,2272,2273,2274,2275,2272,2273,2274,2275,2272,2273,2274,2275,2272,2273,2274,2275,2272,2273,2274,2275,2272,2273,2274,2275,2272,2273,2274,2275,2272,2273,2274,2275,2272,2273,0,0,
0,0,2323,2324,2325,2326,2323,2324,2325,2326,2323,2324,2325,2326,2323,2324,2325,2326,2323,2324,2325,2326,2323,2324,2325,2326,2323,2324,2325,2326,2323,2324,2325,2326,2323,2324,2325,2326,2323,2324,2325,2326,2323,2324,2325,2326,2323,2324,0,0,
0,0,2374,2375,2376,2377,2374,2375,2376,2377,2374,2375,2376,2377,2374,2375,2376,2377,2374,2375,2376,2377,2374,2375,2376,2377,2374,2375,2376,2377,2374,2375,2376,2377,2374,2375,2376,2377,2374,2375,2376,2377,2374,2375,2376,2377,2374,2375,0,0,
0,0,2272,2273,2274,2275,2272,2273,2274,2275,2272,2273,2274,2275,2272,2273,2274,2275,2272,2273,2274,2275,2272,2273,2274,2275,2272,2273,2274,2275,2272,2273,2274,2275,2272,2273,2274,2275,2272,2273,2274,2275,2272,2273,2274,2275,2272,2273,0,0,
0,0,2323,2324,2325,2326,2323,2324,2325,2326,2323,2324,2325,2326,2323,2324,2325,2326,2323,2324,2325,2326,2323,2324,2325,2326,2323,2324,2325,2326,2323,2324,2325,2326,2323,2324,2325,2326,2323,2324,2325,2326,2323,2324,2325,2326,2323,2324,0,0,
0,0,2374,2375,2376,2377,2374,2375,2376,2377,2374,2375,2376,2377,2374,2375,2376,2377,2374,2375,2376,2377,2374,2375,2376,2377,2374,2375,2376,2377,2374,2375,2376,2377,2374,2375,2376,2377,2374,2375,2376,2377,2374,2375,2376,2377,2374,2375,0,0,
0,0,2272,2273,2274,2275,2272,2273,2274,2275,2272,2273,2274,2275,2272,2273,2274,2275,2272,2273,2274,2275,2272,2273,2274,2275,2272,2273,2274,2275,2272,2273,2274,2275,2272,2273,2274,2275,2272,2273,2274,2275,2272,2273,2274,2275,2272,2273,0,0,
0,0,2323,2324,2325,2326,2323,2324,2325,2326,2323,2324,2325,2326,2323,2324,2325,2326,2323,2324,2325,2326,2323,2324,2325,2326,2323,2324,2325,2326,2323,2324,2325,2326,2323,2324,2325,2326,2323,2324,2325,2326,2323,2324,2325,2326,2323,2324,0,0,
0,0,2374,2375,2376,2377,2374,2375,2376,2377,2374,2375,2376,2377,2374,2375,2376,2377,2374,2375,2376,2377,2374,2375,2376,2377,2374,2375,2376,2377,2374,2375,2376,2377,2374,2375,2376,2377,2374,2375,2376,2377,2374,2375,2376,2377,2374,2375,0,0,
0,0,2272,2273,2274,2275,2272,2273,2274,2275,2272,2273,2274,2275,2272,2273,2274,2275,2272,2273,2274,2275,2272,2273,2274,2275,2272,2273,2274,2275,2272,2273,2274,2275,2272,2273,2274,2275,2272,2273,2274,2275,2272,2273,2274,2275,2272,2273,0,0,
0,0,2323,2324,2325,2326,2323,2324,2325,2326,2323,2324,2325,2326,2323,2324,2325,2326,2323,2324,2325,2326,2323,2324,2325,2326,2323,2324,2325,2326,2323,2324,2325,2326,2323,2324,2325,2326,2323,2324,2325,2326,2323,2324,2325,2326,2323,2324,0,0,
0,0,2374,2375,2376,2377,2374,2375,2376,2377,2374,2375,2376,2377,2374,2375,2376,2377,2374,2375,2376,2377,2374,2375,2376,2377,2374,2375,2376,2377,2374,2375,2376,2377,2374,2375,2376,2377,2374,2375,2376,2377,2374,2375,2376,2377,2374,2375,0,0,
0,0,0,0,0,0,0,0,0,0,0,0,0,0,0,0,0,0,0,0,0,0,0,0,0,0,0,0,0,0,0,0,0,0,0,0,0,0,0,0,0,0,0,0,0,0,0,0,0,0,
0,0,0,0,0,0,0,0,0,0,0,0,0,0,0,0,0,0,0,0,0,0,0,0,0,0,0,0,0,0,0,0,0,0,0,0,0,0,0,0,0,0,0,0,0,0,0,0,0,0
</data>
 </layer>
 <layer id="1" name="walls and water" width="50" height="50">
  <data encoding="csv">
57,58,467,468,469,263,2233,2234,2233,2234,862,1017,1018,1017,1018,1018,1018,1018,1018,1018,1018,1018,1018,1018,1017,1018,1018,1018,1018,1018,1018,1018,1018,1018,1018,1018,1018,1018,1018,1018,1018,1018,1018,1018,1018,1018,1018,1018,156,157,
108,109,518,519,520,314,2284,2285,2284,2285,2293,853,854,855,856,855,856,853,853,853,853,854,855,856,853,854,855,853,854,855,856,856,856,853,854,855,856,853,854,855,853,854,855,856,856,856,856,856,207,208,
159,160,569,570,571,365,2341,2342,2343,2343,2344,2083,2084,0,0,0,0,0,0,0,0,0,0,0,0,0,0,0,0,0,0,0,0,0,0,0,0,0,0,0,0,0,0,0,0,0,0,0,258,259,
210,59,620,621,622,2340,2341,2342,2343,2292,2293,2134,2135,0,0,0,0,0,0,0,0,0,0,0,0,0,0,0,0,0,0,0,0,0,0,0,0,0,0,0,0,0,0,0,0,0,0,0,258,259,
261,110,0,0,0,2238,2239,2240,2241,2343,2344,2185,2186,0,0,0,0,0,0,0,0,0,0,0,0,0,0,0,0,0,0,0,0,0,0,0,0,0,0,0,0,0,0,0,0,0,0,0,258,259,
57,161,0,0,0,2289,2290,2291,2292,2234,2235,2236,2237,0,0,0,0,0,0,0,0,0,0,0,0,0,0,0,0,0,0,0,0,0,0,0,0,0,0,0,0,0,0,0,0,0,0,0,258,259,
108,212,0,0,0,2340,2341,2342,2343,2285,2286,2183,2184,2185,0,0,0,0,0,0,0,0,0,0,0,0,0,0,0,0,0,0,0,0,0,0,0,0,0,0,0,0,0,0,0,0,0,0,258,259,
159,263,0,0,0,2332,2333,2334,2335,2336,2337,2234,2183,2184,2185,0,0,0,0,0,0,0,0,0,0,0,0,0,0,0,0,0,0,0,0,0,0,0,0,0,0,0,0,0,0,0,0,0,258,259,
210,314,0,0,0,2383,2384,2385,2386,2387,2284,2285,2234,2183,2184,2185,0,0,0,0,0,0,0,0,0,0,0,0,0,0,0,0,0,0,0,0,0,0,0,0,0,0,0,0,0,0,0,0,258,259,
261,59,0,0,0,2434,2435,2436,2333,2334,2335,2284,2285,2234,2183,2184,2185,0,0,0,0,0,0,0,0,0,0,0,0,0,0,0,0,0,0,0,0,0,0,0,0,0,0,0,0,0,0,0,258,259,
57,110,0,0,0,0,0,0,2384,2333,2334,2335,2284,2285,2234,2183,2184,2185,0,0,0,0,0,0,0,0,0,0,0,0,0,0,0,0,0,0,0,0,0,0,0,0,0,0,0,0,0,0,258,259,
108,161,0,0,0,0,0,0,0,2384,2333,2334,2335,2284,2285,2234,2183,2184,2185,0,0,0,0,0,0,0,0,0,0,0,0,0,0,0,0,0,0,0,0,0,0,0,0,0,0,0,0,0,258,259,
159,212,0,0,0,0,0,0,0,0,2384,2333,2334,2335,2284,2285,2234,2183,2184,2185,0,0,0,0,0,0,0,0,0,0,0,0,0,0,0,0,0,0,0,0,0,0,0,0,0,0,0,0,258,259,
210,263,0,0,0,0,0,0,0,0,0,2384,2333,2334,2335,2284,2285,2234,2183,2184,2185,0,0,0,0,0,0,0,0,0,0,0,0,0,0,0,0,0,0,0,0,0,0,0,0,0,0,0,258,259,
261,314,0,0,0,0,0,0,0,0,0,0,2384,2333,2334,2335,2284,2285,2234,2183,2184,2137,2138,2139,2137,2138,2139,2137,2138,2137,2138,2139,2137,2138,2139,0,0,0,0,0,0,0,0,0,0,0,0,0,258,259,
57,59,0,0,0,0,0,0,0,0,0,0,0,1610614921,2437,2334,2335,2284,2285,2234,2235,2188,2189,2190,2188,2189,2190,2188,2189,2188,2189,2190,2188,2189,2190,2132,2133,0,0,0,0,0,0,0,0,0,0,0,258,259,
108,110,0,0,0,0,0,0,0,0,0,0,1610614921,1610614972,1610614971,1610615022,2334,2335,2284,2285,2286,2239,2240,2241,2239,2240,2241,2239,2240,2239,2240,2241,2239,2240,2241,2183,2184,0,0,0,0,0,0,0,0,0,0,0,258,259,
159,161,0,0,0,0,0,0,0,0,0,1610614921,1610614972,1610614971,1610615022,1610615021,2285,2334,2335,2336,2337,2290,2291,2292,2290,2291,2292,2290,2291,2290,2291,2292,2290,2291,2292,2234,2235,2236,2237,0,0,0,0,0,0,0,0,0,54,55,
210,212,0,0,0,0,0,0,0,0,1610614921,1610614972,1610614971,1610615022,1610615021,1610615020,1610615071,1610615122,2386,2234,2234,2341,2342,2343,2341,2342,2343,2341,2342,2341,2342,2343,2341,2342,2343,2233,2234,2235,2236,2237,2237,0,0,0,0,0,0,0,54,55,
261,263,0,0,0,0,0,0,0,1610614921,1610614972,1610614971,1610615022,1610615021,1610615020,1610615071,1610615122,1610615121,2392,2393,2394,2392,2393,2394,2392,2393,2394,2392,2393,2392,2393,2333,2334,2334,2283,2284,2233,2234,2235,2236,2237,0,0,0,0,0,0,0,105,106,
57,314,0,0,0,0,0,0,1610614921,1610614972,1610614971,1610615022,1610615021,1610615020,1610615071,1610615122,1610615121,1610615120,0,0,0,0,0,0,0,0,0,0,0,0,0,2384,2385,2334,2334,2283,2284,2233,2234,2235,2184,2185,0,0,0,0,0,0,156,157,
108,59,0,0,0,0,0,1610614921,1610614972,1610614971,1610615022,1610615021,1610615020,1610615071,1610615122,1610615121,1610615120,0,0,0,0,0,0,0,0,0,0,0,0,0,0,0,2384,2385,2334,2334,2283,2284,2336,2285,2235,2184,2185,0,0,0,0,0,207,208,
159,110,0,0,0,0,1610614921,1610614972,1610614971,1610615022,1610615021,1610615020,1610615071,1610615122,1610615121,1610615120,0,0,0,0,0,0,0,0,0,0,0,0,0,0,0,0,0,2384,2385,2334,2334,2336,2233,2234,2285,2235,2236,2185,0,0,0,0,258,259,
210,161,0,0,0,1610614921,1610614972,1610614971,1610615022,1610615021,1610615020,1610615071,1610615122,1610615121,1610615120,0,0,0,0,0,0,0,0,0,0,0,0,0,0,0,0,0,0,0,2384,2385,2234,2283,2284,2285,2286,2285,2235,2184,2185,0,0,0,309,310,
261,212,0,0,1610614921,1610614972,1610614971,1610615022,1610615021,1610615020,1610615071,1610615122,1610615121,1610615120,0,0,0,0,0,0,0,0,0,0,0,0,0,0,0,0,0,0,0,0,0,0,2333,2334,2335,2336,2233,2234,2285,2235,2184,2185,0,0,360,361,
57,263,0,1610614921,1610614972,1610614971,1610615022,1610615021,1610615020,1610615071,1610615122,1610615121,1610615120,0,0,0,0,0,0,0,0,0,0,0,0,0,0,0,0,0,0,0,0,0,0,0,2384,2385,2386,2283,2284,2285,2286,2285,2235,2184,2137,2137,2138,412,
262,314,1610614921,1610614972,1610614971,1610615022,1610615021,1610615020,1610615071,1610615122,1610615121,1610615120,0,0,0,0,0,0,0,0,0,0,0,2078,2079,2080,2081,2082,2083,0,0,0,0,0,0,0,2435,2436,2333,2334,2335,2336,2285,2286,2285,2235,2188,2188,2189,2190,
313,365,1610614972,1610614971,1610615022,1610615021,1610615020,1610615071,1610615122,1610615121,1610615120,0,0,0,0,0,0,0,0,0,0,0,0,2129,2130,2131,2132,2133,2134,0,0,0,0,0,0,0,0,1610614921,1610614972,2285,2285,2285,2285,2337,2285,2286,2287,2239,2240,2241,
365,1610614972,1610614971,1610615022,1610615021,1610615020,1610615071,1610615122,1610615121,1610615120,0,0,0,0,0,0,0,0,0,0,0,0,0,2180,2181,2182,2183,2184,2185,0,0,0,0,0,0,0,0,1610614920,1610614971,2684356894,2684356843,2285,2285,2285,2285,2337,2338,2290,2291,2292,
1610614972,1610614971,1610615022,1610615021,1610615020,1610615071,1610615122,1610615121,1610615120,0,0,0,0,0,0,0,0,0,0,0,0,0,1610614921,1610614972,2232,2233,2234,2235,2236,3221227908,3221227907,0,0,0,0,1610614921,1610614972,1610614919,1610614970,2684356895,2684356844,2684356793,2285,2285,2285,2388,2392,2393,2392,1073742236,
1610614971,1610615022,1610615021,1610615020,1610615071,1610615122,1610615121,1610615120,0,0,0,0,0,0,0,0,0,0,0,0,2684356995,1610614921,1610614920,1610614971,2239,2239,2240,2241,2183,2184,2185,0,0,0,0,1610614920,1610614971,2684356894,2684356843,2684356896,2684356845,2285,2285,2337,2338,0,0,0,3221225837,3221225836,
1610615022,1610615021,1610615020,1610615071,1610615122,1610615121,1610615120,0,0,0,0,0,0,0,0,0,0,0,0,2684356995,2684356944,1610614920,1610614919,1610614970,2290,2290,2291,2292,2234,2235,2236,3221227908,3221227907,1610614921,1610614972,1610614919,1610614970,2684356895,2684356844,2684356793,2336,2337,2336,2388,2389,0,0,0,3221225786,3221225785,
1610615021,1610615020,1610615071,1610615122,1610615121,1610615120,0,0,0,0,0,0,0,0,0,0,0,0,2684356995,1610614921,1610614972,1610614919,1610614970,2684356844,2341,2341,2342,2343,3221227756,3221227755,2183,2184,2138,2181,2182,2684356894,2684356843,2684356896,2684356845,2684356794,2387,2337,2338,2390,0,0,0,0,207,106,
1610615020,1610615071,1610615122,1610615121,1610615120,0,0,0,0,0,0,0,0,0,0,0,0,2684356995,2684356944,1610614920,1610614971,2684356843,2147485983,2147485982,2147485981,2333,2334,2335,3221227705,3221227808,2234,2235,2189,2182,2233,2684356843,2684356844,2684356793,2336,2337,2337,2338,2389,2441,0,0,0,0,258,157,
1610615071,1610615122,1610615121,1610615120,0,0,0,0,0,0,0,0,0,0,0,0,0,1610614921,1610614972,1610614919,1610614970,2684356844,2147486034,2147486033,2147486032,2147486031,2385,2386,3221227758,3221227757,3221227756,3221227755,2336,2233,2684356895,2684356844,2684356793,2684356794,2387,2337,2338,2389,0,0,0,0,0,0,54,55,
1610615070,1610615121,1610615120,0,0,0,0,0,0,0,0,0,0,0,0,0,0,1610614920,1610614971,2684356895,2147485983,2147485982,2147485981,2147485980,2147486083,2147486082,2436,2437,2334,2335,3221227705,2285,2285,2285,2684356896,2684356845,2336,2337,2337,2338,2389,2441,0,0,0,0,0,0,54,55,
536871424,536871475,0,0,0,0,0,0,0,0,0,0,0,0,0,0,2181,1610614919,2239,2240,2147486034,2147486033,2147486032,2147486031,0,0,2383,2384,2385,2386,3221227705,2285,2285,2285,2285,2684356846,2387,2337,2338,2389,0,0,0,0,0,0,0,0,54,55,
536871425,536871476,0,0,0,0,0,0,0,0,0,0,0,0,2180,2181,2182,2239,2240,2241,2147486085,2147486084,2147486083,2147486082,0,0,2434,2435,2436,2437,2285,2285,2285,2285,2285,2285,2337,2338,2389,2441,0,0,0,0,0,0,0,0,54,55,
536871424,536871475,0,0,0,0,0,0,0,0,0,0,0,0,2231,2232,2233,2147485983,2147485982,2147485981,2147485980,0,0,0,0,0,0,0,0,0,2333,2334,2335,2336,2337,2337,2338,2389,0,0,0,0,0,0,0,0,0,0,54,55,
536871425,536871476,0,0,0,0,0,0,0,0,0,0,2180,2181,2182,2284,2285,2147486034,2147486033,2147486032,2147486031,0,0,0,0,0,0,0,0,0,2384,2385,2386,2387,2337,2338,2389,0,0,0,0,0,0,0,0,0,0,0,54,55,
536871424,536871475,0,0,0,0,0,0,0,0,0,0,2231,2232,2233,2335,2336,2147486085,2147486084,2147486083,2147486082,0,0,0,0,0,0,0,0,0,2435,2436,2392,2393,2394,2389,0,0,0,0,0,0,0,0,0,0,0,0,105,106,
536871425,536871476,0,0,0,0,0,0,0,0,2180,2181,2182,2284,2285,2147485982,2147485981,2147485980,0,0,0,0,0,0,0,0,0,0,0,0,0,0,0,0,0,0,0,0,0,0,0,0,0,0,0,0,0,0,156,157,
536871424,536871475,0,0,0,0,0,0,0,0,2231,2232,2233,2335,2336,2147486033,2147486032,2147486031,0,0,0,0,0,0,0,0,0,0,0,0,0,0,0,0,0,0,0,0,0,0,0,0,0,0,0,0,0,0,207,208,
536871425,536871476,0,0,0,0,0,0,2180,2181,2182,2284,2285,2147485982,2147485981,2147485980,2147486083,2147486082,0,0,0,0,0,0,0,0,0,0,0,0,0,0,0,0,0,0,0,0,0,0,0,0,0,0,0,0,0,0,258,259,
536871424,536871475,0,0,0,0,0,0,2231,2232,2284,2285,2336,2147486033,2147486032,2147486031,0,0,0,0,0,0,0,0,0,0,0,0,0,0,0,0,0,0,0,0,0,0,0,0,0,0,0,0,0,0,0,666,718,718,
536871425,536871476,0,0,0,0,2180,2181,2182,2284,2335,2285,2285,2184,2185,2147486082,0,0,0,0,0,0,0,0,0,0,0,0,0,0,0,0,0,0,0,0,0,0,0,0,0,0,0,0,0,0,2684355843,2684355792,2684355741,2684355690,
536871424,536871475,0,0,0,2180,2181,2182,2233,2335,2336,536873246,2285,2235,2184,2185,0,0,0,0,0,0,0,0,0,0,0,0,0,0,0,0,0,0,0,0,0,0,0,0,0,0,0,0,0,0,2684355844,2684355793,2684355742,2684355691,
536871425,536871476,0,0,0,2231,2232,2233,2284,2335,2336,536873247,536873298,2285,2235,2184,2185,0,0,0,0,0,0,0,0,0,0,0,0,0,0,0,0,0,0,0,0,0,0,0,0,0,0,0,0,0,2684355845,2684355794,2684355743,2684355692,
536871424,536871475,0,2180,2181,2182,2284,2284,2335,2335,2336,2285,2285,2285,2284,2235,2184,2185,1073742387,1073742388,1073742387,1073742388,1073742387,1073742388,1073742387,1073742387,1073742387,1073742387,1073742387,1073742387,1073742387,1073742387,1073742387,1073742387,1073742387,1073742387,1073742388,1073742387,1073742387,1073742387,1073742387,1073742387,1073742387,1073742387,1073742387,1073742387,1073742388,465,718,718,
536871425,536871476,0,2231,2232,2233,2335,2335,2335,2336,2336,2336,2336,2336,536873246,2285,2235,2236,1073742336,1073742337,1073742336,1073742337,1073742336,1073742337,1073742336,1073742336,1073742336,1073742336,1073742336,1073742336,1073742336,1073742336,1073742336,1073742336,1073742336,1073742336,1073742337,1073742336,1073742336,1073742336,1073742336,1073742336,1073742336,1073742336,1073742336,1073742336,1073742337,109,108,109
</data>
 </layer>
 <layer id="4" name="other" width="50" height="50">
  <data encoding="csv">
0,0,0,0,0,0,0,0,0,0,1884,0,0,0,0,0,0,0,0,0,0,0,0,0,0,0,0,0,0,0,0,0,0,0,0,0,0,0,0,0,0,0,0,0,0,0,0,0,0,0,
0,0,0,0,0,0,0,0,0,0,1935,0,0,0,0,0,0,0,0,0,0,0,0,0,0,0,0,0,0,0,0,0,0,0,0,0,0,0,0,0,0,0,0,0,0,0,0,0,0,0,
0,0,0,0,0,0,0,0,0,0,0,0,0,0,0,0,0,0,0,0,0,0,0,0,0,0,0,0,0,0,0,0,0,0,0,0,0,0,0,0,0,0,0,0,0,0,0,0,0,0,
0,0,0,0,0,0,0,0,0,0,0,0,0,0,0,0,0,0,0,0,0,0,0,0,0,0,0,0,0,0,0,0,0,0,0,0,0,0,0,0,0,0,0,0,0,0,0,0,0,0,
0,0,0,0,0,0,0,0,0,0,0,0,0,0,0,0,0,0,0,0,0,0,0,0,0,0,0,0,0,0,0,0,0,0,0,0,0,0,0,0,0,0,0,0,0,0,0,0,0,0,
0,0,0,0,0,0,0,0,0,0,0,0,0,0,0,0,0,0,0,0,0,0,0,0,0,0,0,0,0,0,0,0,0,0,0,0,0,0,0,0,0,0,0,0,0,0,0,0,0,0,
0,0,0,0,0,0,0,0,0,0,0,0,0,0,0,0,0,0,0,0,0,0,0,0,0,0,0,0,0,0,0,0,0,0,0,0,0,0,0,0,0,0,0,0,0,0,0,0,0,0,
0,0,0,0,0,0,0,0,0,0,0,0,0,0,0,0,0,0,0,0,0,0,0,0,0,0,0,0,0,0,0,0,0,0,0,0,0,0,0,0,0,0,0,0,0,0,0,0,0,0,
0,0,0,0,0,0,0,0,0,0,0,0,0,0,0,0,0,0,0,0,0,0,0,0,0,0,0,0,0,0,0,0,0,0,0,0,0,0,0,0,0,0,0,0,0,0,0,0,0,0,
0,0,0,0,0,0,0,0,0,0,0,0,0,0,0,0,0,0,0,0,0,0,0,0,0,0,0,0,0,0,0,0,0,0,0,0,0,0,0,0,0,0,0,0,0,0,0,0,0,0,
0,0,0,0,0,0,0,0,0,0,0,0,0,0,0,0,0,0,0,0,0,0,0,0,0,0,0,0,0,0,0,0,0,0,0,0,0,0,0,0,0,0,0,0,0,0,0,0,0,0,
0,0,0,0,0,0,0,0,0,0,0,0,0,0,0,0,0,0,0,0,0,0,0,0,0,0,0,0,0,0,0,0,0,0,0,0,0,0,0,0,0,0,0,0,0,0,0,0,0,0,
0,0,0,0,0,0,0,0,0,0,0,0,0,0,0,0,0,0,0,0,0,0,0,0,0,0,0,0,0,0,0,0,0,0,0,0,0,0,0,0,0,0,0,0,0,0,0,0,0,0,
0,0,0,0,0,0,0,0,0,0,0,0,0,0,0,0,0,0,0,0,0,0,0,1782,1782,1782,0,0,0,0,0,0,0,0,0,0,0,0,0,0,0,0,0,0,0,0,0,0,0,0,
0,0,0,0,0,0,0,0,0,0,0,0,0,0,0,0,0,0,0,0,0,0,0,1833,1833,1833,0,0,0,0,0,0,0,0,0,0,0,0,0,0,0,0,0,0,0,0,0,0,0,0,
0,0,0,0,0,0,0,0,0,0,0,0,0,0,0,0,0,0,0,0,0,0,0,1884,1833,1833,0,0,0,0,0,0,0,0,0,0,0,0,0,0,0,0,0,0,0,0,0,0,0,0,
0,0,0,0,0,0,0,0,0,0,0,0,0,0,0,0,0,0,0,0,0,0,0,1833,1833,1884,0,0,0,0,0,0,0,0,0,0,0,0,0,0,0,0,0,0,0,0,0,0,0,0,
0,0,0,0,0,0,0,0,0,0,0,1782,0,0,0,0,0,0,0,0,0,0,0,1833,1833,1833,0,0,0,0,0,0,0,0,0,0,0,0,0,0,0,0,0,0,0,0,0,0,0,0,
0,0,0,0,0,0,0,0,0,0,1782,1833,0,0,0,0,0,0,0,0,0,0,0,1833,1833,1833,0,0,0,0,0,0,0,0,0,0,0,0,0,0,0,0,0,0,0,0,0,0,0,0,
0,0,0,0,0,0,0,0,0,0,1833,1833,0,0,0,0,0,0,0,0,0,0,0,1884,1884,1884,0,0,0,0,0,0,0,0,0,0,0,0,0,0,0,0,0,0,0,0,0,0,0,0,
0,0,0,0,0,0,0,0,0,0,1833,1833,0,0,0,0,0,0,0,0,0,0,0,1935,1935,1935,0,0,0,0,0,0,0,0,0,0,0,0,0,0,0,0,0,0,0,0,0,0,0,0,
0,0,0,0,0,0,0,0,0,0,1884,1833,0,0,0,0,0,0,0,0,0,0,0,0,0,0,0,0,0,0,0,0,0,0,0,0,0,0,0,0,0,0,0,0,0,0,0,0,0,0,
0,0,0,0,0,0,0,0,0,0,1884,1833,0,0,0,0,0,0,0,0,0,0,0,0,0,0,0,0,0,0,0,0,0,0,0,0,0,0,0,0,0,0,0,0,0,0,0,0,0,0,
0,0,0,0,0,0,0,0,0,0,1884,1833,0,0,0,0,0,0,0,0,0,0,0,0,0,0,0,0,0,0,0,0,0,0,0,0,0,0,0,0,0,0,0,0,0,0,0,0,0,0,
0,0,0,0,0,0,0,0,0,0,1884,1833,0,0,0,0,0,0,0,0,0,0,0,0,0,0,0,0,0,0,0,0,0,0,0,0,0,0,0,0,0,0,0,0,0,0,0,0,0,0,
0,0,0,0,0,0,0,0,0,0,1884,1884,0,0,0,0,0,0,0,0,0,0,0,0,0,0,0,0,0,0,0,0,0,0,0,0,0,0,0,0,0,0,0,0,0,2684356289,2684356238,2684356238,0,0,
0,0,0,0,0,0,0,0,0,0,1884,1935,0,0,0,0,0,0,0,0,0,0,0,0,0,0,0,0,0,0,0,0,0,0,0,0,0,0,0,0,0,0,0,0,2684356341,2684356290,2684356239,2684356239,0,0,
0,0,0,0,0,0,0,0,0,0,1935,0,0,0,0,0,0,0,0,0,0,0,0,0,0,0,0,0,0,0,0,0,0,0,0,0,0,0,0,0,0,0,0,0,0,2684356291,2684356240,2684356240,0,0,
0,0,0,0,0,0,0,0,0,0,0,0,0,0,0,0,0,0,0,0,0,0,0,0,0,0,0,0,0,0,0,0,0,0,0,0,0,0,0,0,0,0,0,0,2684356341,2684356292,2684356241,2684356241,0,0,
0,0,0,0,0,0,0,0,0,0,0,0,0,0,0,0,0,0,0,0,0,0,0,0,0,0,0,0,0,0,0,0,0,0,0,0,0,0,0,0,0,0,0,0,0,2684356293,2684356242,2684356242,0,0,
0,0,0,0,0,0,0,0,0,0,0,0,0,0,0,0,0,0,0,0,0,0,0,0,0,0,0,0,0,0,0,0,0,0,0,0,0,0,0,0,0,0,0,0,0,0,0,0,0,0,
0,0,0,0,0,0,0,0,0,0,0,0,0,0,0,0,0,0,0,0,0,0,0,0,0,0,0,0,0,0,0,0,0,0,0,0,0,0,0,0,0,0,0,0,0,0,0,0,0,0,
0,0,0,0,0,0,0,0,0,0,0,0,0,0,0,0,0,0,0,0,0,0,0,0,0,0,0,0,0,0,0,0,0,0,0,0,0,0,0,0,0,0,0,0,0,0,0,0,0,0,
0,0,0,0,0,0,0,0,0,0,0,0,0,0,0,0,0,0,0,0,0,0,0,0,0,0,0,0,0,0,0,0,0,0,0,0,0,0,0,0,0,0,0,0,0,0,0,0,0,0,
0,0,0,0,0,0,0,0,0,0,0,0,0,0,0,0,0,0,0,0,0,0,0,0,0,0,0,0,0,0,0,0,0,0,0,0,0,0,0,0,0,0,0,0,0,0,0,0,0,0,
0,0,0,0,0,0,0,0,0,0,0,0,0,0,0,0,0,0,0,0,0,0,0,0,0,0,0,0,0,0,0,0,0,0,0,0,0,0,0,0,0,0,0,0,0,0,0,0,0,0,
0,0,0,0,0,0,0,0,0,0,0,0,0,0,0,0,0,0,0,0,0,0,0,0,0,0,0,0,0,0,0,0,0,0,0,0,0,0,0,0,0,0,0,0,0,0,0,0,0,0,
0,0,0,0,0,0,0,0,0,0,0,0,0,0,0,0,0,0,0,0,0,0,0,0,0,0,0,0,0,0,0,0,0,0,0,0,0,0,0,0,0,0,0,0,0,0,0,0,0,0,
0,0,0,0,0,0,0,0,0,0,0,0,0,0,0,0,0,0,0,0,0,0,0,0,0,0,0,0,0,0,0,0,0,0,0,0,0,0,0,0,0,0,0,0,0,0,0,0,0,0,
0,0,0,0,0,0,0,0,0,0,0,0,0,0,0,0,0,0,0,0,0,0,0,0,0,0,0,0,0,0,0,0,0,0,0,0,0,0,0,0,0,0,0,0,0,0,0,0,0,0,
0,0,0,0,0,0,0,0,0,0,0,0,0,0,0,0,0,0,0,0,0,0,0,0,0,0,0,0,0,0,0,0,0,0,0,0,0,0,0,0,0,0,0,0,0,0,0,0,0,0,
0,0,0,0,0,0,0,0,0,0,0,0,0,0,0,0,0,0,0,0,0,0,0,0,0,0,0,0,0,0,0,0,0,0,0,0,0,0,0,0,0,0,0,0,0,0,0,0,0,0,
0,0,0,0,0,0,0,0,0,0,0,0,0,0,0,0,0,0,0,0,0,0,0,0,0,0,0,0,0,0,0,0,0,0,0,0,0,0,0,0,0,0,0,0,0,0,0,0,0,0,
0,0,0,0,0,0,0,0,0,0,0,0,0,0,0,0,0,0,0,0,0,0,0,0,0,0,0,0,0,0,0,0,0,0,0,0,0,0,0,0,0,0,0,0,0,0,0,0,0,0,
0,0,0,0,0,0,0,0,0,0,0,0,0,0,0,0,0,0,0,0,0,0,0,0,0,0,0,0,0,0,0,0,0,0,0,0,0,0,0,0,0,0,0,0,0,0,0,0,0,0,
0,0,0,0,0,0,0,0,0,0,0,0,0,0,0,0,0,0,0,0,0,0,0,0,0,0,0,0,0,0,0,0,0,0,0,0,0,0,0,0,0,0,0,0,0,0,0,0,0,0,
0,0,0,0,0,0,0,0,0,0,0,0,0,0,0,0,0,0,0,0,0,0,0,0,0,0,0,0,0,0,0,0,0,0,0,0,0,0,0,0,0,0,0,0,0,0,0,0,0,0,
0,0,0,0,0,0,0,0,0,0,0,0,0,0,0,0,0,0,0,0,0,0,0,0,0,0,0,0,0,0,0,0,0,0,0,0,0,0,0,0,0,0,0,0,0,0,0,0,0,0,
0,0,0,0,0,0,0,0,0,0,0,0,0,0,0,0,0,0,0,0,0,0,0,0,0,0,0,0,0,0,0,0,0,0,0,0,0,0,0,0,0,0,0,0,0,0,0,0,0,0,
0,0,0,0,0,0,0,0,0,0,0,0,0,0,0,0,0,0,0,0,0,0,0,0,0,0,0,0,0,0,0,0,0,0,0,0,0,0,0,0,0,0,0,0,0,0,0,0,0,0
</data>
 </layer>
 <layer id="5" name="rien" width="50" height="50">
  <data encoding="csv">
0,0,0,0,0,0,0,0,0,0,0,0,0,0,0,0,0,0,0,0,0,0,0,0,0,0,0,0,0,0,0,0,0,0,0,0,0,0,0,0,0,0,0,0,0,0,0,0,0,0,
0,0,0,0,0,0,0,0,0,0,0,0,0,0,0,0,0,0,0,0,0,0,0,0,0,0,0,0,0,0,0,0,0,0,0,0,0,0,0,0,0,0,0,0,0,0,0,0,0,0,
0,0,0,0,0,0,0,0,0,0,0,0,0,0,0,0,0,0,0,0,0,0,0,0,0,0,0,0,0,0,0,0,0,0,0,0,0,0,0,0,0,0,0,0,0,0,0,0,0,0,
0,0,0,0,0,0,0,0,0,0,0,0,0,0,0,0,0,0,0,0,0,0,0,0,0,0,0,0,0,0,0,0,0,0,0,0,0,0,0,0,0,0,0,0,0,0,0,0,0,0,
0,0,0,0,0,0,0,0,0,0,0,0,0,0,0,0,0,0,0,0,0,0,0,0,0,0,0,0,0,0,0,0,0,0,0,0,0,0,0,0,0,0,0,0,0,0,0,0,0,0,
0,0,0,0,0,0,0,0,0,0,0,0,0,0,0,0,0,0,0,0,0,0,0,0,0,0,0,0,0,0,0,0,0,0,0,0,0,0,0,0,0,0,0,0,0,0,0,0,0,0,
0,0,0,0,0,0,0,0,0,0,0,0,0,0,0,0,0,0,0,0,0,0,0,0,0,0,0,0,0,0,0,0,0,0,0,0,0,0,0,0,0,0,0,0,0,0,0,0,0,0,
0,0,0,0,0,0,0,0,0,0,0,0,0,0,0,0,0,0,0,0,0,0,0,0,0,0,0,0,0,0,0,0,0,0,0,0,0,0,0,0,0,0,0,0,0,0,0,0,0,0,
0,0,0,0,0,0,0,0,0,0,0,0,0,0,0,0,0,0,0,0,0,0,0,0,0,0,0,0,0,0,0,0,0,0,0,0,0,0,0,0,0,0,0,0,0,0,0,0,0,0,
0,0,0,0,0,0,0,0,0,0,0,0,0,0,0,0,0,0,0,0,0,0,0,0,0,0,0,0,0,0,0,0,0,0,0,0,0,0,0,0,0,0,0,0,0,0,0,0,0,0,
0,0,0,0,0,0,0,0,0,0,0,0,0,0,0,0,0,0,0,0,0,0,0,0,0,0,0,0,0,0,0,0,0,0,0,0,0,0,0,0,0,0,0,0,0,0,0,0,0,0,
0,0,0,0,0,0,0,0,0,0,0,0,0,0,0,0,0,0,0,0,0,0,0,0,0,0,0,0,0,0,0,0,0,0,0,0,0,0,0,0,0,0,0,0,0,0,0,0,0,0,
0,0,0,0,0,0,0,0,0,0,0,0,0,0,0,0,0,0,0,0,0,0,0,0,0,0,0,0,0,0,0,0,0,0,0,0,0,0,0,0,0,0,0,0,0,0,0,0,0,0,
0,0,0,0,0,0,0,0,0,0,0,0,0,0,0,0,0,0,0,0,0,0,0,0,0,0,0,0,0,0,0,0,0,0,0,0,0,0,0,0,0,0,0,0,0,0,0,0,0,0,
0,0,0,0,0,0,0,0,0,0,0,0,0,0,0,0,0,0,0,0,0,0,0,0,0,0,0,0,0,0,0,0,0,0,0,0,0,0,0,0,0,0,0,0,0,0,0,0,0,0,
0,0,0,0,0,0,0,0,0,0,0,0,0,0,0,0,0,0,0,0,0,0,0,0,0,0,0,0,0,0,0,0,0,0,0,0,0,0,0,0,0,0,0,0,0,0,0,0,0,0,
0,0,0,0,0,0,0,0,0,0,0,0,0,0,0,0,0,0,0,0,0,0,0,0,0,0,0,0,0,0,0,0,0,0,0,0,0,0,0,0,0,0,0,0,0,0,0,0,0,0,
0,0,0,0,0,0,0,0,0,0,0,0,0,0,0,0,0,0,0,0,0,0,0,0,0,0,0,0,0,0,0,0,0,0,0,0,0,0,0,0,0,0,0,0,0,0,0,0,0,0,
0,0,0,0,0,0,0,0,0,0,0,0,0,0,0,0,0,0,0,0,0,0,0,0,0,0,0,0,0,0,0,0,0,0,0,0,0,0,0,0,0,0,0,0,0,0,0,0,0,0,
0,0,0,0,0,0,0,0,0,0,0,0,0,0,0,0,0,0,0,0,0,0,0,0,0,0,0,0,0,0,0,0,0,0,0,0,0,0,0,0,0,0,0,0,0,0,0,0,0,0,
0,0,0,0,0,0,0,0,0,0,0,0,0,0,0,0,0,0,0,0,0,0,0,0,0,0,0,0,0,0,0,0,0,0,0,0,0,0,0,0,0,0,0,0,0,0,0,0,0,0,
0,0,0,0,0,0,0,0,0,0,0,0,0,0,0,0,0,0,0,0,0,0,0,0,0,0,0,0,0,0,0,0,0,0,0,0,0,0,0,0,0,0,0,0,0,0,0,0,0,0,
0,0,0,0,0,0,0,0,0,0,0,0,0,0,0,0,0,0,0,0,0,0,0,0,0,0,0,0,0,0,0,0,0,0,0,0,0,0,0,0,0,0,0,0,0,0,0,0,0,0,
0,0,0,0,0,0,0,0,0,0,0,0,0,0,0,0,0,0,0,0,0,0,0,0,0,0,0,0,0,0,0,0,0,0,0,0,0,0,0,0,0,0,0,0,0,0,0,0,0,0,
0,0,0,0,0,0,0,0,0,0,0,0,0,0,0,0,0,0,0,0,0,0,0,0,0,0,0,0,0,0,0,0,0,0,0,0,0,0,0,0,0,0,0,0,0,0,0,0,0,0,
0,0,0,0,0,0,0,0,0,0,0,0,0,0,0,0,0,0,0,0,0,0,0,0,0,0,0,0,0,0,0,0,0,0,0,0,0,0,0,0,0,0,0,0,0,0,0,0,0,0,
0,0,0,0,0,0,0,0,0,0,0,0,0,0,0,0,0,0,0,0,0,0,0,0,0,0,0,0,0,0,0,0,0,0,0,0,0,0,0,0,0,0,0,0,0,0,0,0,0,0,
0,0,0,0,0,0,0,0,0,0,0,0,0,0,0,0,0,0,0,0,0,0,0,0,0,0,0,0,0,0,0,0,0,0,0,0,0,0,0,0,0,0,0,0,0,0,0,0,0,0,
0,0,0,0,0,0,0,0,0,0,0,0,0,0,0,0,0,0,0,0,0,0,0,0,0,0,0,0,0,0,0,0,0,0,0,0,0,0,0,0,0,0,0,0,0,0,0,0,0,0,
0,0,0,0,0,0,0,0,0,0,0,0,0,0,0,0,0,0,0,0,0,0,0,0,0,0,0,0,0,0,0,0,0,0,0,0,0,0,0,0,0,0,0,0,0,0,0,0,0,0,
0,0,0,0,0,0,0,0,0,0,0,0,0,0,0,0,0,0,0,0,0,0,0,0,0,0,0,0,0,0,0,0,0,0,0,0,0,0,0,0,0,0,0,0,0,0,0,0,0,0,
0,0,0,0,0,0,0,0,0,0,0,0,0,0,0,0,0,0,0,0,0,0,0,0,0,0,0,0,0,0,0,0,0,0,0,0,0,0,0,0,0,0,0,0,0,0,0,0,0,0,
0,0,0,0,0,0,0,0,0,0,0,0,0,0,0,0,0,0,0,0,0,0,0,0,0,0,0,0,0,0,0,0,0,0,0,0,0,0,0,0,0,0,0,0,0,0,0,0,0,0,
0,0,0,0,0,0,0,0,0,0,0,0,0,0,0,0,0,0,0,0,0,0,0,0,0,0,0,0,0,0,0,0,0,0,0,0,0,0,0,0,0,0,0,0,0,0,0,0,0,0,
0,0,0,0,0,0,0,0,0,0,0,0,0,0,0,0,0,0,0,0,0,0,0,0,0,0,0,0,0,0,0,0,0,0,0,0,0,0,0,0,0,0,0,0,0,0,0,0,0,0,
0,0,0,0,0,0,0,0,0,0,0,0,0,0,0,0,0,0,0,0,0,0,0,0,0,0,0,0,0,0,0,0,0,0,0,0,0,0,0,0,0,0,0,0,0,0,0,0,0,0,
0,0,0,0,0,0,0,0,0,0,0,0,0,0,0,0,0,0,0,0,0,0,0,0,0,0,0,0,0,0,0,0,0,0,0,0,0,0,0,0,0,0,0,0,0,0,0,0,0,0,
0,0,0,0,0,0,0,0,0,0,0,0,0,0,0,0,0,0,0,0,0,0,0,0,0,0,0,0,0,0,0,0,0,0,0,0,0,0,0,0,0,0,0,0,0,0,0,0,0,0,
0,0,0,0,0,0,0,0,0,0,0,0,0,0,0,0,0,0,0,0,0,0,0,0,0,0,0,0,0,0,0,0,0,0,0,0,0,0,0,0,0,0,0,0,0,0,0,0,0,0,
0,0,0,0,0,0,0,0,0,0,0,0,0,0,0,0,0,0,0,0,0,0,0,0,0,0,0,0,0,0,0,0,0,0,0,0,0,0,0,0,0,0,0,0,0,0,0,0,0,0,
0,0,0,0,0,0,0,0,0,0,0,0,0,0,0,0,0,0,0,0,0,0,0,0,0,0,0,0,0,0,0,0,0,0,0,0,0,0,0,0,0,0,0,0,0,0,0,0,0,0,
0,0,0,0,0,0,0,0,0,0,0,0,0,0,0,0,0,0,0,0,0,0,0,0,0,0,0,0,0,0,0,0,0,0,0,0,0,0,0,0,0,0,0,0,0,0,0,0,0,0,
0,0,0,0,0,0,0,0,0,0,0,0,0,0,0,0,0,0,0,0,0,0,0,0,0,0,0,0,0,0,0,0,0,0,0,0,0,0,0,0,0,0,0,0,0,0,0,0,0,0,
0,0,0,0,0,0,0,0,0,0,0,0,0,0,0,0,0,0,0,0,0,0,0,0,0,0,0,0,0,0,0,0,0,0,0,0,0,0,0,0,0,0,0,0,0,0,0,0,0,0,
0,0,0,0,0,0,0,0,0,0,0,0,0,0,0,0,0,0,0,0,0,0,0,0,0,0,0,0,0,0,0,0,0,0,0,0,0,0,0,0,0,0,0,0,0,0,0,0,0,0,
0,0,0,0,0,0,0,0,0,0,0,0,0,0,0,0,0,0,0,0,0,0,0,0,0,0,0,0,0,0,0,0,0,0,0,0,0,0,0,0,0,0,0,0,0,0,0,0,0,0,
0,0,0,0,0,0,0,0,0,0,0,0,0,0,0,0,0,0,0,0,0,0,0,0,0,0,0,0,0,0,0,0,0,0,0,0,0,0,0,0,0,0,0,0,0,0,0,0,0,0,
0,0,0,0,0,0,0,0,0,0,0,0,0,0,0,0,0,0,0,0,0,0,0,0,0,0,0,0,0,0,0,0,0,0,0,0,0,0,0,0,0,0,0,0,0,0,0,0,0,0,
0,0,0,0,0,0,0,0,0,0,0,0,0,0,0,0,0,0,0,0,0,0,0,0,0,0,0,0,0,0,0,0,0,0,0,0,0,0,0,0,0,0,0,0,0,0,0,0,0,0,
0,0,0,0,0,0,0,0,0,0,0,0,0,0,0,0,0,0,0,0,0,0,0,0,0,0,0,0,0,0,0,0,0,0,0,0,0,0,0,0,0,0,0,0,0,0,0,0,0,0
</data>
 </layer>
 <layer id="3" name="decorative" width="50" height="50">
  <data encoding="csv">
0,0,0,0,0,0,0,0,0,0,0,0,0,0,0,0,0,0,0,0,0,0,0,0,0,0,0,0,0,0,0,0,0,0,0,0,0,0,0,0,0,0,0,0,0,0,0,0,0,0,
0,0,0,0,0,0,0,0,0,0,0,0,0,0,0,0,0,0,0,0,0,0,0,0,0,0,0,0,0,0,0,0,0,0,0,0,0,0,0,0,0,0,0,0,0,0,0,0,0,0,
0,0,0,0,0,0,0,0,0,0,0,0,0,0,0,0,2748,2749,2750,2751,0,0,0,0,0,0,0,0,0,0,0,0,0,0,0,0,0,0,0,0,0,0,0,0,0,0,0,0,0,0,
0,0,0,0,0,0,0,0,0,0,0,0,0,0,0,0,2761,2762,2763,2764,0,0,0,0,0,0,0,0,0,0,0,0,0,0,0,0,0,0,0,0,0,0,0,0,0,0,0,0,0,0,
0,0,0,0,0,0,0,0,0,0,0,0,0,0,0,0,2774,2775,2776,2777,0,0,0,0,0,0,0,0,0,0,0,0,0,0,0,0,0,0,0,0,0,0,0,0,0,0,0,0,0,0,
0,0,0,0,0,0,0,0,0,0,0,0,0,0,0,0,2787,2788,2789,2790,0,0,0,0,0,0,0,2763,2764,2765,2766,0,0,2465,2466,2467,2468,0,0,0,0,0,0,0,0,0,0,0,0,0,
0,0,0,0,0,0,0,0,0,0,0,0,0,0,0,0,2800,2801,2802,2803,0,0,0,0,0,0,0,2776,2777,2778,2779,0,0,2478,2479,2480,2481,0,0,0,0,0,0,0,0,0,0,0,0,0,
0,0,0,0,0,0,0,0,0,0,0,0,0,0,0,0,2813,2814,2815,2816,0,0,2462,2463,2464,0,0,0,0,0,0,0,0,2491,2492,2493,2494,0,0,0,0,0,0,0,0,0,0,0,0,0,
0,0,0,2748,2749,2750,2751,0,0,0,0,0,0,0,0,0,0,0,0,0,0,0,2475,2476,2477,0,0,0,0,0,0,0,0,0,0,0,0,0,0,0,0,0,0,0,0,0,0,0,0,0,
0,0,0,2761,2762,2763,2764,0,0,0,0,0,0,0,0,0,0,0,0,0,0,0,2488,2489,2490,0,0,0,0,0,0,0,0,0,0,0,0,0,0,0,0,0,0,0,0,0,0,0,0,0,
0,0,0,2774,2775,2776,2777,0,0,0,0,0,0,0,0,0,0,0,0,0,0,0,0,0,0,0,0,0,0,0,0,0,0,0,0,0,0,0,0,0,0,0,0,0,0,0,0,0,0,0,
0,0,0,2787,2788,2789,2790,0,0,0,0,0,0,0,0,0,0,0,0,0,0,0,0,0,0,0,0,0,0,0,0,0,0,0,0,0,0,0,0,0,0,0,0,0,0,0,0,0,0,0,
0,0,0,2800,2801,2802,2803,2519,2520,2521,2522,0,0,0,0,0,0,0,0,0,0,0,0,0,0,0,0,0,0,0,0,0,0,0,0,0,0,0,0,0,0,0,0,0,0,0,0,0,0,0,
0,0,0,2813,2814,2815,2816,2532,2533,2534,2535,0,0,0,0,0,0,0,0,0,0,0,0,0,0,0,0,0,0,0,0,0,0,0,0,0,0,0,0,0,0,0,0,0,0,0,0,0,0,0,
0,0,0,0,0,0,0,2545,2546,2547,2548,0,0,0,0,0,0,0,0,0,0,0,0,0,0,0,0,0,0,0,0,0,0,0,0,0,0,0,0,0,0,0,2751,2752,2753,2754,0,0,0,0,
0,0,0,0,0,0,0,0,0,0,0,0,0,0,0,0,0,0,0,0,0,0,0,0,0,0,0,0,0,0,0,0,0,0,0,0,0,0,0,0,0,0,2764,2765,2766,2767,0,0,0,0,
0,0,0,0,0,0,0,0,0,0,0,0,0,0,0,0,0,0,0,0,0,0,0,0,0,0,0,0,0,0,0,0,0,0,0,0,0,0,0,0,0,0,0,0,0,0,0,0,0,0,
0,0,0,0,0,0,0,0,0,0,0,0,0,0,0,0,0,0,0,0,0,0,0,0,0,0,0,0,0,0,0,0,0,0,0,0,0,0,0,0,0,0,0,0,0,0,0,0,0,0,
0,0,0,0,0,0,0,0,0,0,0,0,0,0,0,0,0,0,0,0,0,0,0,0,0,0,0,0,0,0,0,0,0,0,0,0,0,0,0,0,0,0,0,0,0,0,0,0,0,0,
0,0,0,0,0,0,0,0,0,0,0,0,0,0,0,0,0,0,0,0,0,0,0,0,0,0,0,0,0,0,0,0,0,0,0,0,0,0,0,0,0,0,0,0,0,0,0,0,0,0,
0,0,0,0,0,0,0,0,0,0,0,0,0,0,0,0,0,0,0,0,0,0,0,0,0,0,0,0,0,0,0,0,0,0,0,0,0,0,0,0,0,0,0,0,0,0,0,0,0,0,
0,0,0,0,0,0,0,0,0,0,0,0,0,0,0,0,0,0,0,0,0,0,0,0,0,0,0,0,0,0,0,0,0,0,0,0,0,0,0,0,0,0,0,0,0,0,0,0,0,0,
0,0,0,0,0,0,0,0,0,0,0,0,0,0,0,2751,2752,2753,2754,0,0,0,0,0,0,0,0,0,0,0,0,0,0,0,0,0,0,0,0,0,0,0,0,0,0,0,0,0,0,0,
0,0,0,0,0,0,0,0,0,0,0,0,0,0,0,2764,2765,2766,2767,0,0,0,0,0,0,0,0,0,0,0,0,0,0,0,0,0,0,0,0,0,0,0,0,0,0,0,0,0,0,0,
0,0,0,0,0,0,0,0,0,0,0,0,0,0,0,0,0,0,0,0,0,0,0,0,0,0,0,0,0,0,2462,2463,2464,0,0,0,0,0,0,0,0,0,0,0,0,0,0,0,0,0,
0,0,0,0,0,0,0,0,0,0,0,0,0,0,0,0,0,0,0,0,0,0,0,0,0,0,0,0,0,0,2475,2476,2477,0,0,0,0,0,0,0,0,0,0,0,3758098168,3758098117,0,0,0,0,
0,0,0,0,0,0,0,0,0,0,0,0,0,0,0,0,0,0,0,0,0,0,0,0,0,0,0,0,0,0,2488,2489,2490,0,0,0,0,0,0,0,0,0,0,0,0,0,0,0,0,0,
0,0,0,0,0,0,0,0,0,0,0,0,0,0,0,0,0,0,0,0,0,0,0,0,0,0,0,0,0,0,0,0,0,0,0,0,0,0,0,0,0,0,0,0,0,3758098115,0,0,0,0,
0,0,0,0,0,0,0,0,0,0,0,0,0,0,0,0,0,0,0,0,0,0,0,0,0,0,0,0,0,0,0,0,0,0,0,0,0,0,0,0,0,0,0,0,0,0,0,0,0,0,
0,0,0,0,0,0,0,0,0,0,0,0,0,0,0,0,0,0,0,0,0,0,0,0,0,0,0,0,0,0,0,2763,2764,2765,2766,0,0,0,0,0,0,0,0,0,3758098164,3758098113,0,0,0,0,
0,0,0,0,0,0,0,0,0,0,0,0,0,0,0,0,0,0,0,0,0,0,0,0,0,0,0,0,0,0,0,2776,2777,2778,2779,0,0,0,0,0,0,0,0,0,0,0,0,0,0,0,
0,0,0,0,0,0,0,0,0,0,0,0,0,0,0,0,0,0,0,0,0,0,0,0,0,0,0,0,0,0,0,0,0,0,0,0,0,0,0,0,0,0,0,0,0,0,0,0,0,0,
0,0,0,0,0,0,0,0,0,0,0,0,0,0,0,0,0,0,0,0,0,0,0,0,0,0,0,0,0,0,0,0,0,0,0,0,0,0,0,0,0,0,0,0,0,0,0,0,0,0,
0,0,0,0,0,0,0,0,0,0,0,0,0,0,0,0,0,0,0,0,0,0,0,0,0,0,0,0,0,0,0,0,0,0,0,0,0,0,0,0,0,0,0,0,0,0,0,0,0,0,
0,0,0,0,0,0,0,0,0,0,0,0,0,0,0,0,0,0,0,0,0,0,0,0,0,0,0,0,0,0,0,0,0,0,0,0,0,0,0,0,0,0,0,0,0,0,0,0,0,0,
0,0,0,0,0,0,0,0,0,0,0,0,0,0,0,0,0,0,0,0,0,0,0,0,0,0,0,0,0,0,0,0,0,0,0,0,0,0,0,0,0,0,0,0,0,0,0,0,0,0,
0,0,0,0,2748,2749,2750,2751,2752,2753,2754,2755,0,0,0,0,0,0,0,0,0,0,0,0,0,0,0,0,0,0,0,0,0,0,0,0,0,0,0,0,0,0,0,0,0,0,0,0,0,0,
0,0,0,0,2761,2762,2763,2764,2765,2766,2767,2768,0,0,0,0,0,0,0,0,0,0,0,0,0,0,0,0,0,0,0,0,0,0,0,0,0,0,0,0,0,0,0,0,0,0,0,0,0,0,
0,0,0,0,2774,2775,2776,2777,2778,2779,2780,2781,0,0,0,0,0,0,0,0,0,0,0,0,0,0,0,0,0,0,0,0,0,0,0,0,0,0,0,0,0,0,0,0,0,0,0,0,0,0,
0,0,0,0,2787,2788,2789,2790,2791,2792,2793,2794,0,0,0,0,0,0,0,0,0,0,0,0,0,0,2563,0,0,0,0,0,0,0,0,0,0,0,0,0,0,0,0,0,0,0,0,0,0,0,
0,0,0,0,0,0,0,0,0,0,0,0,0,0,0,0,0,0,0,0,0,0,0,2523,2524,2525,2576,0,0,0,0,0,0,0,0,0,0,0,0,0,0,0,0,0,0,0,0,0,0,0,
0,0,0,0,0,2528,2529,2530,2531,0,0,0,0,0,0,0,0,0,0,0,0,0,0,2536,2537,2538,2589,0,0,0,0,0,0,0,0,0,0,0,0,0,0,0,0,0,0,0,0,0,0,0,
0,0,0,0,0,2541,2542,2543,2544,0,0,0,0,0,0,0,0,0,0,0,0,0,0,2549,2550,2551,2602,0,0,0,0,0,0,0,0,0,0,0,0,0,0,0,2701,2702,2703,0,0,0,0,0,
0,0,0,0,0,0,0,0,0,0,0,0,0,0,0,0,0,0,0,0,0,0,0,0,0,0,0,0,0,0,0,0,0,0,0,0,0,0,0,0,0,0,2714,2715,2716,0,0,0,0,0,
0,0,0,0,0,0,0,0,0,0,0,0,0,0,0,0,0,0,0,0,0,0,0,0,0,0,0,0,0,0,0,0,0,0,0,0,0,0,0,0,0,0,2727,2728,2729,0,0,0,0,0,
0,0,0,0,0,0,0,0,0,0,0,0,0,0,0,0,0,0,0,0,0,0,0,0,0,0,0,0,0,0,0,0,0,0,0,0,0,0,0,0,0,0,0,0,0,0,0,0,0,0,
0,0,0,0,0,0,0,0,0,0,0,0,0,0,0,0,0,0,0,0,0,0,0,0,0,0,0,0,0,0,0,0,0,0,0,0,0,0,0,0,0,0,0,0,0,0,0,0,0,0,
0,0,0,0,0,0,0,0,0,0,0,0,0,0,0,0,0,0,0,0,0,0,0,0,0,0,0,0,0,0,0,0,0,0,0,0,0,0,0,0,0,0,0,0,0,0,0,0,0,0,
0,0,0,0,0,0,0,0,0,0,0,0,0,0,0,0,0,0,0,0,0,0,0,0,0,0,0,0,0,0,0,0,0,0,0,0,0,0,0,0,0,0,0,0,0,0,0,0,0,0,
0,0,0,0,0,0,0,0,0,0,0,0,0,0,0,0,0,0,0,0,0,0,0,0,0,0,0,0,0,0,0,0,0,0,0,0,0,0,0,0,0,0,0,0,0,0,0,0,0,0
</data>
 </layer>
 <objectgroup id="8" name="exit_cave">
  <object id="2" type="collision" x="81" y="53.25" width="60" height="56.75"/>
 </objectgroup>
 <objectgroup id="7" name="spawn_cave">
  <object id="1" x="110.75" y="193">
   <point/>
  </object>
 </objectgroup>
 <objectgroup id="9" name="enter_dunjon">
  <object id="3" x="1488.67" y="1459.33" width="60.6667" height="56.6667"/>
 </objectgroup>
 <objectgroup id="10" name="exit_dunjon_spawn">
  <object id="5" x="1200.67" y="1494.67">
   <point/>
  </object>
 </objectgroup>
 <objectgroup id="6" name="Collisions" class="collision">
  <object id="6" type="collision" x="4" y="2" width="58" height="1600"/>
  <object id="7" type="collision" x="64" y="1538" width="1540" height="64"/>
  <object id="8" type="collision" x="1490" y="1516.67" width="112" height="21.3333"/>
  <object id="9" type="collision" x="1488" y="1432" width="112" height="26"/>
  <object id="10" type="collision" x="1516" y="1408" width="84" height="22.6667"/>
  <object id="11" type="collision" x="1536.33" y="0.333333" width="59.6667" height="1406.67"/>
  <object id="12" type="collision" x="148" y="-2" width="1389.33" height="44.3333"/>
  <object id="13" type="collision" x="140.667" y="-0.333333" width="41" height="111.667"/>
  <object id="14" type="collision" x="62.3333" y="53" width="18.3333" height="58.3333"/>
  <object id="15" type="collision" x="1548" y="1458" width="52.6667" height="57.6667"/>
  <object id="16" type="collision" x="61.6667" y="0" width="80.3333" height="53.3333"/>
  <object id="18" type="collision" x="189.333" y="2.66667">
   <polygon points="0,0 -8,213.333 277.333,494.667 277.333,520 254.667,506.667 198.667,573.333 196,797.333 380,613.333 542.667,616 546.667,473.333 473.333,469.333 456,458.667 148,157.333 134.667,0"/>
  </object>
  <object id="19" type="collision" x="318.667" y="641.333">
   <polygon points="0,0 -312,326.667 -310.667,538.667 -1.33333,226.667"/>
  </object>
  <object id="20" type="collision" x="836" y="481.333">
   <polygon points="0,0 280,2.66667 628,352 629.333,464 284,806.667 194.667,806.667 -29.3333,580 -420,964.333 -262.667,1121.67 -728,1118.67 -5.33333,386.667 204.667,593 406.667,382.667 158.667,138.667 -2.66667,138.667"/>
  </object>
  <object id="21" type="collision" x="230" y="471.857">
   <polygon points="0,0 11,-27.1429 22,-37.8571 38,-35 54,-11.4286 39,2.14286 17,7.14286"/>
  </object>
  <object id="22" type="collision" x="317" y="433.833">
   <polygon points="0,0 8,-8.83333 35,39.4103 -2,44.1667 -25,37.3718 -12,8.83333"/>
  </object>
  <object id="23" type="collision" x="187" y="1344">
   <polygon points="0,0 -13,23.7209 6,30 20,23.0233"/>
  </object>
  <object id="24" type="collision" x="244" y="1342">
   <polygon points="0,0 14,0 28,26.5532 6,32 -10,27.9149"/>
  </object>
  <object id="25" type="collision" x="769" y="1320.41">
   <polygon points="0,0 10,8.76087 20,2.02174 26,4.71739 41,-7.41304 54,18.8696 50,25.6087 53,37.0652 43,39.7609 47,47.1739 3,54.587 -7,46.5 -13,45.1522 -13,39.087 -18,39.087 -11,12.1304"/>
  </object>
  <object id="26" type="collision" x="980" y="794">
   <polygon points="0,0 16,18.3333 23,7.33333 33,17.6 41,7.33333 65,51.3333 56,54.2667 58,58.6667 46,60.8667 43,66 -5,63.8 1,52.0667 -9,46.2 -5,34.4667 -15,30.0667"/>
  </object>
  <object id="27" type="collision" x="1084" y="217">
   <polygon points="0,0 34,28.8514 18,35 -28,33.1081"/>
  </object>
  <object id="28" type="collision" x="1138" y="211.82">
   <polygon points="0,0 8,8.45902 16,-2.81967 39,35.2459 20,40.1803 0,37.3607 3,31.0164 -12,25.377"/>
  </object>
  <object id="29" type="collision" x="728" y="248">
   <polygon points="0,0 12,15.6818 21,7.84091 27,19.6023 38,3.13636 60,49.3977 52,54.8864 49,60.375 42,63.5114 42,69 -8,65.0795 -6,54.1023 -13,45.4773 -11,34.5 -16,30.5795"/>
  </object>
 </objectgroup>
</map>
