<?xml version="1.0" encoding="UTF-8"?>
<map version="1.10" tiledversion="1.10.2" orientation="orthogonal" renderorder="right-down" width="50" height="50" tilewidth="32" tileheight="32" infinite="0" nextlayerid="17" nextobjectid="70">
 <tileset firstgid="1" source="Tuiles_map.tsx"/>
 <layer id="10" name="Dirt" width="50" height="50">
  <data encoding="csv">
57,57,57,57,57,57,57,57,57,57,57,57,57,57,57,57,57,57,57,57,57,57,57,57,57,57,57,57,57,57,57,57,57,57,57,57,57,57,57,57,57,57,57,57,57,57,57,57,57,57,
57,57,57,57,57,57,57,57,57,57,57,57,57,57,57,57,57,57,57,57,57,57,57,57,57,57,57,57,57,57,57,57,57,57,57,57,57,57,57,57,57,57,57,57,57,57,0,0,0,57,
57,57,57,57,57,57,57,57,57,57,57,57,57,57,57,57,57,57,57,57,57,57,57,57,57,57,57,57,57,57,57,57,57,57,57,57,57,57,57,57,57,57,57,57,57,57,57,57,57,57,
57,57,57,57,57,57,57,57,57,57,57,57,57,57,57,57,57,57,57,57,57,57,57,57,57,57,57,57,57,57,57,57,57,57,57,57,57,57,57,57,57,57,57,57,57,57,57,57,57,57,
57,57,57,57,57,57,57,57,57,57,57,57,57,57,57,57,57,57,57,57,57,57,57,57,57,57,57,57,57,57,57,57,57,57,57,57,57,57,57,57,57,57,57,57,57,57,57,57,57,57,
57,57,57,57,57,57,57,57,57,57,57,57,57,57,57,57,57,57,57,57,57,57,57,57,57,57,57,57,57,57,57,57,57,57,57,57,57,57,57,57,57,57,57,57,57,57,57,57,57,57,
57,57,57,57,57,57,57,57,57,57,57,57,57,57,57,57,57,57,57,57,57,57,57,57,57,57,57,57,57,57,57,57,57,57,57,57,57,57,57,57,57,57,57,57,57,57,57,57,57,57,
57,57,57,57,57,57,57,57,57,57,57,57,57,57,57,57,57,57,57,57,57,57,57,57,57,57,57,57,57,57,57,57,57,57,57,57,57,57,57,57,57,57,57,57,57,57,57,57,57,57,
57,57,57,57,57,57,57,57,57,57,57,57,57,57,57,57,57,57,57,57,57,57,57,57,57,57,57,57,57,57,57,57,57,57,57,57,57,57,57,57,57,57,57,57,57,57,57,57,57,57,
57,57,57,57,57,57,57,57,57,57,57,57,57,57,57,57,57,57,57,57,57,57,57,57,57,57,57,57,57,57,57,57,57,57,57,57,57,57,57,57,57,57,57,57,57,57,57,57,57,57,
57,57,57,57,57,57,57,57,57,57,57,57,57,57,57,57,57,57,57,57,57,57,57,57,57,57,57,57,57,57,57,57,57,57,57,57,57,57,57,57,57,57,57,57,57,57,57,57,57,57,
57,57,57,57,57,57,57,57,57,57,57,57,57,57,57,57,57,57,57,57,57,57,57,57,57,57,57,57,57,57,57,57,57,57,57,57,57,57,57,57,57,57,57,57,57,57,57,57,57,57,
57,57,57,57,57,57,57,57,57,57,57,57,57,57,57,57,57,57,57,57,57,57,57,57,57,57,57,57,57,57,57,57,57,57,57,57,57,57,57,57,57,57,57,57,57,57,57,57,57,57,
57,57,57,57,57,57,57,57,57,57,57,57,57,57,57,57,57,57,57,57,57,57,57,57,57,57,57,57,57,57,57,57,57,57,57,57,57,57,57,57,57,57,57,57,57,57,57,57,57,57,
57,57,57,57,57,57,57,57,57,57,57,57,57,57,57,57,57,57,57,57,57,57,57,57,57,57,57,57,57,57,57,57,57,57,57,57,57,57,57,57,57,57,57,57,57,57,57,57,57,57,
57,57,57,57,57,57,57,57,57,57,57,57,57,57,57,57,57,57,57,57,57,57,57,57,57,57,57,57,57,57,57,57,57,57,57,57,57,57,57,57,57,57,57,57,57,57,57,57,57,57,
57,57,57,57,57,57,57,57,57,57,57,57,57,57,57,57,57,57,57,57,57,57,57,57,57,57,57,57,57,57,57,57,57,57,57,57,57,57,57,57,57,57,57,57,57,57,57,57,57,57,
57,57,57,57,57,57,57,57,57,57,57,57,57,57,57,57,57,57,57,57,57,57,57,57,57,57,57,57,57,57,57,57,57,57,57,57,57,57,57,57,57,57,57,57,57,57,57,57,57,57,
57,57,57,57,57,57,57,57,57,57,57,57,57,57,57,57,57,57,57,57,57,57,57,57,57,57,57,57,57,57,57,57,57,57,57,57,57,57,57,57,57,57,57,57,57,57,57,57,57,57,
57,57,57,57,57,57,57,57,57,57,57,57,57,57,57,57,57,57,57,57,57,57,57,57,57,57,57,57,57,57,57,57,57,57,57,57,57,57,57,57,57,57,57,57,57,57,57,57,57,57,
57,57,57,57,57,57,57,57,57,57,57,57,57,57,57,57,57,57,57,57,57,57,57,57,57,57,57,57,57,57,57,57,57,57,57,57,57,57,57,57,57,57,57,57,57,57,57,57,57,57,
57,57,57,57,57,57,57,57,57,57,57,57,57,57,57,57,57,57,57,57,57,57,57,57,57,57,57,57,57,57,57,57,57,57,57,57,57,57,57,57,57,57,57,57,57,57,57,57,57,57,
57,57,57,57,57,57,57,57,57,57,57,57,57,57,57,57,57,57,57,57,57,57,57,57,57,57,57,57,57,57,57,57,57,57,57,57,57,57,57,57,57,57,57,57,57,57,57,57,57,57,
57,57,57,57,57,57,57,57,57,57,57,57,57,57,57,57,57,57,57,57,57,57,57,57,57,57,57,57,57,57,57,57,57,57,57,57,57,57,57,57,57,57,57,57,57,57,57,57,57,57,
57,57,57,57,57,57,57,57,57,57,57,57,57,57,57,57,57,57,57,57,57,57,57,57,57,57,57,57,57,57,57,57,57,57,57,57,57,57,57,57,57,57,57,57,57,57,57,57,57,57,
57,57,57,57,57,57,57,57,57,57,57,57,57,57,57,57,57,57,57,57,57,57,57,57,57,57,57,57,57,57,57,57,57,57,57,57,57,57,57,57,57,57,57,57,57,57,57,57,57,57,
57,57,57,57,57,57,57,57,57,57,57,57,57,57,57,57,57,57,57,57,57,57,57,57,57,57,57,57,57,57,57,57,57,57,57,57,57,57,57,57,57,57,57,57,57,57,57,57,57,57,
57,57,57,57,57,57,57,57,57,57,57,57,57,57,57,57,57,57,57,57,57,57,57,57,57,57,57,57,57,57,57,57,57,57,57,57,57,57,57,57,57,57,57,57,57,57,57,57,57,57,
57,57,57,57,57,57,57,57,57,57,57,57,57,57,57,57,57,57,57,57,57,57,57,57,57,57,57,57,57,57,57,57,57,57,57,57,57,57,57,57,57,57,57,57,57,57,57,57,57,57,
57,57,57,57,57,57,57,57,57,57,57,57,57,57,57,57,57,57,57,57,57,57,57,57,57,57,57,57,57,57,57,57,57,57,57,57,57,57,57,57,57,57,57,57,57,57,57,57,57,57,
57,57,57,57,57,57,57,57,57,57,57,57,57,57,57,57,57,57,57,57,57,57,57,57,57,57,57,57,57,57,57,57,57,57,57,57,57,57,57,57,57,57,57,57,57,57,57,57,57,57,
57,57,57,57,57,57,57,57,57,57,57,57,57,57,57,57,57,57,57,57,57,57,57,57,57,57,57,57,57,57,57,57,57,57,57,57,57,57,57,57,57,57,57,57,57,57,57,57,57,57,
57,57,57,57,57,57,57,57,57,57,57,57,57,57,57,57,57,57,57,57,57,57,57,57,57,57,57,57,57,57,57,57,57,57,57,57,57,57,57,57,57,57,57,57,57,57,57,57,57,57,
57,57,57,57,57,57,57,57,57,57,57,57,57,57,57,57,57,57,57,57,57,57,57,57,57,57,57,57,57,57,57,57,57,57,57,57,57,57,57,57,57,57,57,57,57,57,57,57,57,57,
57,57,57,57,57,57,57,57,57,57,57,57,57,57,57,57,57,57,57,57,57,57,57,57,57,57,57,57,57,57,57,57,57,57,57,57,57,57,57,57,57,57,57,57,57,57,57,57,57,57,
57,57,57,57,57,57,57,57,57,57,57,57,57,57,57,57,57,57,57,57,57,57,57,57,57,57,57,57,57,57,57,57,57,57,57,57,57,57,57,57,57,57,57,57,57,57,57,57,57,57,
57,57,57,57,57,57,57,57,57,57,57,57,57,57,57,57,57,57,57,57,57,57,57,57,57,57,57,57,57,57,57,57,57,57,57,57,57,57,57,57,57,57,57,57,57,57,57,57,57,57,
57,57,57,57,57,57,57,57,57,57,57,57,57,57,57,57,57,57,57,57,57,57,57,57,57,57,57,57,57,57,57,57,57,57,57,57,57,57,57,57,57,57,57,57,57,57,57,57,57,57,
57,57,57,57,57,57,57,57,57,57,57,57,57,57,57,57,57,57,57,57,57,57,57,57,57,57,57,57,57,57,57,57,57,57,57,57,57,57,57,57,57,57,57,57,57,57,57,57,57,57,
57,57,57,57,57,57,57,57,57,57,57,57,57,57,57,57,57,57,57,57,57,57,57,57,57,57,57,57,57,57,57,57,57,57,57,57,57,57,57,57,57,57,57,57,57,57,57,57,57,57,
57,57,57,57,57,57,57,57,57,57,57,57,57,57,57,57,57,57,57,57,57,57,57,57,57,57,57,57,57,57,57,57,57,57,57,57,57,57,57,57,57,57,57,57,57,57,57,57,57,57,
57,57,57,57,57,57,57,57,57,57,57,57,57,57,57,57,57,57,57,57,57,57,57,57,57,57,57,57,57,57,57,57,57,57,57,57,57,57,57,57,57,57,57,57,57,57,57,57,57,57,
57,57,57,57,57,57,57,57,57,57,57,57,57,57,57,57,57,57,57,57,57,57,57,57,57,57,57,57,57,57,57,57,57,57,57,57,57,57,57,57,57,57,57,57,57,57,57,57,57,57,
57,57,57,57,57,57,57,57,57,57,57,57,57,57,57,57,57,57,57,57,57,57,57,57,57,57,57,57,57,57,57,57,57,57,57,57,57,57,57,57,57,57,57,57,57,57,57,57,57,57,
57,57,57,57,57,57,57,57,57,57,57,57,57,57,57,57,57,57,57,57,57,57,57,57,57,57,57,57,57,57,57,57,57,57,57,57,57,57,57,57,57,57,57,57,57,57,57,57,57,57,
57,57,57,57,57,57,57,57,57,57,57,57,57,57,57,57,57,57,57,57,57,57,57,57,57,57,57,57,57,57,57,57,57,57,57,57,57,57,57,57,57,57,57,57,57,57,57,57,57,57,
57,57,57,57,57,57,57,57,57,57,57,57,57,57,57,57,57,57,57,57,57,57,57,57,57,57,57,57,57,57,57,57,57,57,57,57,57,57,57,57,57,57,57,57,57,57,57,57,57,57,
57,57,57,57,57,57,57,57,57,57,57,57,57,57,57,57,57,57,57,57,57,57,57,57,57,57,57,57,57,57,57,57,57,57,57,57,57,57,57,57,57,57,57,57,57,57,57,57,57,57,
57,57,57,57,57,57,57,57,57,57,57,57,57,57,57,57,57,57,57,57,57,57,57,57,57,57,57,57,57,57,57,57,57,57,57,57,57,57,57,57,57,57,57,57,57,57,57,57,57,57,
57,57,57,57,57,57,57,57,57,57,57,57,57,57,57,57,57,57,57,57,57,57,57,57,57,57,57,57,57,57,57,57,57,57,57,57,57,57,57,57,57,57,57,57,57,57,57,57,57,57
</data>
 </layer>
 <layer id="1" name="Background" width="50" height="50">
  <data encoding="csv">
1,2,2,2,2,2,2,2,2,2,2,2,2,2,55,0,0,0,53,2,2,2,2,2,2,2,2,2,2,2,2,2,2,2,2,2,2,2,2,2,2,2,2,2,2,2,2,2,2,3,
53,54,54,54,54,54,54,54,54,54,54,54,54,54,55,0,0,0,53,54,54,54,54,54,54,54,54,54,54,54,54,54,54,54,54,54,54,54,54,54,54,54,54,54,54,54,54,54,54,55,
53,54,54,54,54,54,54,54,54,54,54,54,54,54,55,0,0,0,53,54,54,54,54,54,54,54,54,54,54,54,54,54,54,54,54,54,54,54,54,54,54,54,54,54,54,54,54,54,54,55,
53,54,54,54,54,54,54,54,54,54,54,54,54,54,55,0,0,0,53,54,54,54,54,54,54,54,54,54,54,54,54,54,54,54,54,54,54,54,54,54,54,54,54,54,54,54,54,54,54,55,
53,54,54,54,54,54,54,54,54,54,54,54,54,54,55,0,0,0,53,54,54,54,54,54,54,54,54,54,54,54,54,54,54,54,54,54,54,54,54,54,54,54,54,54,54,54,54,54,54,55,
53,54,54,54,54,54,54,54,54,54,54,54,54,54,55,0,0,0,53,54,54,54,54,54,54,54,54,54,54,54,54,54,54,54,54,54,54,54,54,54,54,54,54,54,54,54,54,54,54,55,
53,54,54,54,54,54,54,54,54,54,54,54,54,54,55,0,0,0,53,54,54,54,54,54,54,54,54,54,54,54,54,54,54,54,54,54,54,54,54,54,54,54,54,54,54,54,54,54,54,55,
53,54,54,54,54,54,54,54,54,54,54,54,54,54,55,0,0,0,53,54,54,54,371,261,106,106,106,106,262,54,54,54,54,54,54,54,54,54,54,54,54,54,54,54,54,54,54,54,54,55,
53,54,54,54,54,54,54,54,54,54,54,54,54,54,55,0,0,0,53,261,106,106,106,3758096385,57,57,57,57,1610612737,106,106,106,106,106,106,106,106,106,106,106,262,54,54,54,54,54,54,54,54,55,
53,54,54,54,54,54,54,54,54,54,54,54,54,54,55,0,0,0,53,55,57,57,57,57,57,57,57,57,57,57,57,57,57,57,57,57,57,57,57,57,53,54,54,54,54,54,54,54,54,55,
53,54,54,54,54,54,54,54,54,54,54,54,54,54,55,0,0,0,53,55,57,1,2,3,57,57,57,57,57,57,57,57,57,57,57,57,57,57,57,57,53,54,54,54,54,54,54,54,54,55,
53,54,54,54,54,54,54,54,54,54,54,54,54,54,55,0,0,0,53,55,57,53,54,313,2,2,2,2,2,2,2,2,2,3,57,57,57,1,2,2,314,54,54,54,54,54,54,54,54,55,
53,54,54,54,54,54,54,54,54,54,54,54,54,54,55,0,0,0,53,55,57,53,54,54,54,54,54,54,54,54,54,54,54,313,2,2,2,314,54,54,54,54,54,54,54,54,54,54,54,55,
53,54,54,54,54,54,54,54,54,54,54,54,54,54,55,0,0,0,53,55,57,53,54,54,54,54,54,54,54,54,54,54,54,54,54,54,54,54,54,54,54,54,54,54,54,54,54,54,54,55,
53,54,54,54,54,54,54,54,54,54,54,54,54,54,55,0,0,0,1073741825,3221225473,0,536870915,106,106,106,262,54,54,54,54,54,54,54,54,54,54,54,54,54,54,54,54,54,54,54,54,54,54,54,55,
53,54,54,54,54,54,54,54,54,54,54,54,54,54,55,0,0,0,0,0,0,0,0,0,0,53,54,54,54,54,54,54,54,54,54,54,54,54,54,54,54,54,54,54,54,54,54,54,54,55,
53,54,54,54,54,54,54,54,54,54,54,54,54,54,55,0,0,0,0,0,0,0,0,0,0,53,54,54,54,54,54,54,54,54,54,54,54,54,54,54,54,54,54,54,54,54,54,54,54,55,
53,54,54,54,54,54,54,54,54,54,54,54,54,54,55,0,0,0,0,0,0,0,0,0,0,53,54,54,54,54,54,54,54,54,54,54,54,54,54,54,54,54,54,54,54,54,54,54,54,55,
53,54,54,54,54,54,54,54,54,54,54,54,54,54,313,2,2,2,3,57,1,3,0,0,0,53,54,54,54,54,54,54,54,54,54,54,54,54,54,54,54,54,54,54,54,54,54,54,54,55,
53,54,54,54,54,54,54,54,54,54,54,54,54,54,54,54,54,54,55,57,53,55,0,0,0,53,54,54,54,54,54,54,54,54,54,54,54,54,54,54,54,54,54,54,54,54,54,54,54,55,
53,54,54,54,54,54,54,54,54,54,54,54,54,54,54,54,54,54,55,57,53,55,0,0,0,53,54,54,54,54,54,54,54,54,54,54,54,54,54,54,54,54,54,54,54,54,54,54,54,55,
53,54,54,54,54,54,54,54,54,54,54,54,54,54,54,54,54,54,55,57,53,55,0,0,0,105,106,106,106,106,106,106,106,106,262,54,54,54,54,54,54,54,54,54,54,54,54,54,54,55,
53,54,54,54,54,54,54,54,54,54,54,54,54,54,54,54,54,54,55,57,53,55,0,0,0,0,0,0,0,0,0,0,0,0,53,54,54,54,54,54,54,54,54,54,54,54,54,54,54,55,
53,54,54,54,54,54,54,54,54,54,54,54,54,54,54,54,54,54,55,57,53,55,0,0,0,0,0,0,0,0,0,0,0,0,53,54,54,54,54,54,54,54,54,54,54,54,54,54,54,55,
53,54,54,54,54,54,54,54,54,54,54,54,54,54,54,54,54,54,55,57,53,55,0,0,0,0,0,0,0,0,0,0,0,0,53,54,54,54,54,54,54,54,54,54,54,54,54,54,54,55,
53,54,54,54,54,54,54,54,54,54,54,54,54,54,54,54,54,54,55,57,53,313,2,2,2,2,2,2,2,2,3,0,0,0,314,54,54,54,54,54,54,54,54,54,54,54,54,54,54,55,
53,54,54,54,54,54,54,54,54,54,54,54,54,54,54,54,54,54,55,57,1610612737,262,54,54,54,54,54,54,54,54,54,0,0,0,54,54,54,54,54,54,54,54,54,54,54,54,54,54,54,55,
53,54,54,54,54,54,54,54,54,54,54,54,54,54,54,54,54,54,55,57,57,53,54,54,54,54,54,54,54,54,261,0,0,0,262,54,54,54,54,54,54,54,54,54,54,54,54,54,54,55,
53,54,54,54,54,54,54,54,54,54,54,54,54,54,54,54,54,54,55,426,57,53,54,54,54,54,54,54,54,54,55,0,0,0,53,54,54,54,54,54,54,54,54,54,54,54,54,54,54,55,
53,54,54,54,54,54,54,54,54,54,54,54,54,54,54,54,54,54,55,0,57,53,54,54,54,54,54,54,54,54,55,0,0,0,53,54,54,54,54,54,54,54,54,54,54,54,54,54,54,55,
53,54,54,54,54,54,54,54,54,54,54,54,54,54,54,54,54,54,55,0,57,53,54,54,54,54,54,54,54,54,55,0,0,0,53,54,54,54,54,54,54,54,54,54,54,54,54,54,54,55,
53,54,54,54,261,106,106,262,54,54,54,54,54,54,261,106,106,106,3758096385,0,57,53,54,54,54,54,54,54,54,54,55,0,0,0,53,54,54,54,54,54,54,54,54,54,54,54,54,54,54,55,
53,54,54,54,55,57,57,1610612737,106,106,106,106,106,106,3758096385,57,57,57,57,57,57,53,54,54,54,54,54,54,54,54,55,0,0,0,105,106,106,106,106,106,106,106,106,106,106,106,106,106,106,106,
53,54,54,54,55,57,57,57,57,57,57,57,57,57,57,57,1,2,3,57,57,53,54,54,54,54,54,54,54,54,55,0,0,0,0,0,0,0,0,0,0,0,0,0,0,0,0,0,0,0,
53,54,54,54,313,2,2,2,2,2,2,2,2,2,2,2,314,54,55,57,57,53,54,54,54,54,54,54,54,54,55,0,0,0,0,0,0,0,0,0,0,0,0,0,0,0,0,0,0,0,
53,54,54,54,54,54,54,54,54,54,54,54,54,54,54,54,54,54,55,57,57,53,54,54,54,54,54,54,54,54,55,0,0,0,0,0,0,0,0,0,0,0,0,0,0,0,0,0,0,0,
53,54,54,54,54,54,54,54,54,54,54,54,54,54,54,54,54,54,55,57,57,53,54,54,54,54,54,54,54,54,313,2,2,2,2,2,2,2,2,2,2,2,2,2,2,2,2,2,2,2,
53,54,54,54,54,54,54,54,54,54,54,54,54,54,54,54,54,54,55,57,57,53,54,54,54,54,54,54,54,54,54,54,54,261,106,106,262,54,54,54,54,54,54,54,54,54,54,54,54,55,
53,54,54,54,54,54,54,54,54,54,54,54,54,54,54,54,54,54,55,57,57,1610612737,106,106,106,106,106,106,106,262,54,54,54,55,57,57,53,54,54,54,54,54,54,54,54,54,54,54,54,55,
53,54,54,54,54,54,54,54,54,54,54,54,54,54,54,54,54,54,55,57,57,57,57,0,0,57,57,57,57,1610612737,106,106,106,3758096385,57,57,53,54,54,54,54,54,54,54,54,54,54,54,54,55,
53,54,54,54,54,54,54,54,54,54,54,54,54,54,54,54,54,54,55,57,57,57,57,57,57,57,57,57,57,57,57,57,57,57,57,57,53,54,54,54,54,54,54,54,54,54,54,54,54,55,
53,54,54,54,54,54,54,54,54,54,54,54,54,54,54,54,54,54,313,2,2,2,2,2,2,2,2,2,2,2,2,2,2,2,2,2,314,54,54,54,54,54,54,54,54,54,54,54,54,55,
53,54,54,54,54,54,54,54,54,54,54,54,54,54,54,54,54,54,54,54,54,54,54,54,54,54,54,54,54,54,54,54,54,54,54,54,54,54,54,54,54,54,54,54,54,54,54,54,54,55,
53,54,54,54,54,54,54,54,54,54,54,54,54,54,54,54,54,54,54,54,54,54,54,54,54,54,54,54,54,54,54,54,54,54,54,54,54,54,54,54,54,54,54,54,54,54,54,54,54,55,
53,54,54,54,54,54,54,54,54,54,54,54,54,54,54,54,54,54,54,54,54,54,54,54,54,54,54,54,54,54,54,54,54,54,54,54,54,54,54,54,54,54,54,54,54,54,54,54,54,55,
53,54,54,54,54,54,54,54,54,54,54,54,54,54,54,54,54,54,54,54,54,54,54,54,54,54,54,54,54,54,54,54,54,54,54,54,54,54,54,54,54,54,54,54,54,54,54,54,54,55,
53,54,54,54,54,54,54,54,54,54,54,54,54,54,54,54,54,54,54,54,54,54,54,54,54,54,54,54,54,54,54,54,54,54,54,54,54,54,54,54,54,54,54,54,54,54,54,54,54,55,
53,54,54,54,54,54,54,54,54,54,54,54,54,54,54,54,54,54,54,54,54,54,54,54,54,54,54,54,54,54,54,54,54,54,54,54,54,54,54,54,54,54,54,54,54,54,54,54,54,55,
53,54,54,54,54,54,54,54,54,54,54,54,54,54,54,54,54,54,54,54,54,54,54,54,54,54,54,54,54,54,54,54,54,54,54,54,54,54,54,54,54,54,54,54,54,54,54,54,54,55,
105,106,106,106,106,106,106,106,106,106,106,106,106,106,106,106,106,106,106,106,106,106,106,106,106,106,106,106,106,106,106,106,106,106,106,106,106,106,106,106,106,106,106,106,106,106,106,106,106,107
</data>
 </layer>
 <layer id="2" name="Grass" width="50" height="50">
  <data encoding="csv">
169,170,171,169,170,171,169,170,171,169,170,171,169,170,171,169,170,171,169,170,171,169,170,171,169,170,171,169,170,171,169,170,171,169,170,171,169,170,171,169,170,171,169,170,171,169,170,171,169,170,
169,169,170,171,169,170,171,169,170,171,169,170,171,169,170,171,169,0,0,169,170,171,169,170,171,169,170,171,169,170,171,169,170,171,169,170,171,169,170,171,169,170,171,169,170,171,169,170,171,170,
169,169,170,171,169,170,171,169,170,171,169,170,171,169,170,171,169,170,0,169,170,171,169,170,171,169,170,171,169,170,171,169,170,171,169,170,171,169,170,171,169,170,171,169,170,171,169,170,171,170,
169,169,170,173,169,170,171,169,170,171,169,170,171,169,170,171,169,170,0,169,170,171,169,170,171,169,170,171,173,170,171,169,170,171,169,172,171,169,170,171,169,170,171,169,170,171,169,170,171,170,
169,169,170,171,169,170,171,169,170,171,169,170,171,169,170,171,169,170,0,169,170,171,169,170,171,169,170,171,169,170,171,169,170,171,169,170,171,169,170,171,169,170,171,169,170,171,169,170,171,170,
169,169,170,171,169,170,171,169,170,171,169,170,171,169,170,171,169,170,0,169,170,171,169,170,171,169,170,171,169,170,171,169,170,171,169,170,171,169,170,171,169,170,171,169,170,171,169,170,171,170,
169,169,170,171,169,170,171,169,170,171,169,170,171,169,170,171,169,170,0,169,170,171,169,170,171,169,170,171,169,170,171,169,170,171,169,170,171,169,170,171,169,170,171,169,170,171,169,170,171,170,
169,169,170,171,169,170,171,169,170,171,169,170,171,169,170,171,169,170,0,169,170,171,169,170,171,169,170,171,169,170,171,169,170,171,169,170,171,169,170,171,169,170,171,169,170,171,169,170,171,170,
169,169,170,171,169,170,171,169,172,171,169,170,173,169,170,171,169,170,0,0,0,0,0,0,0,0,0,0,0,0,0,0,0,0,0,0,171,169,170,171,169,170,171,169,170,171,169,170,171,170,
169,169,170,171,169,170,171,169,170,171,169,170,171,169,170,171,169,170,0,0,0,0,0,0,0,0,0,0,0,0,0,0,0,0,0,0,0,0,0,0,169,170,171,169,170,171,169,170,171,170,
169,169,170,171,169,170,171,169,170,171,169,170,171,169,170,171,169,170,0,0,0,171,169,170,0,0,0,0,0,0,0,0,0,0,0,0,0,0,0,0,169,170,171,169,170,171,169,170,171,170,
169,169,170,172,169,170,171,169,170,171,169,170,171,169,170,171,169,170,0,0,0,171,169,170,171,169,170,171,169,170,171,169,170,0,0,0,0,0,170,171,169,170,171,169,170,171,169,170,171,170,
169,169,170,171,169,170,173,169,170,171,169,170,171,169,170,171,169,170,0,0,0,171,169,170,171,172,170,171,169,170,171,169,170,171,169,170,171,169,170,171,169,170,171,169,170,171,169,170,171,170,
169,169,170,171,169,170,171,169,170,171,169,170,171,169,170,171,169,170,0,0,0,171,169,170,171,169,170,171,169,170,173,169,170,171,169,170,171,169,170,171,169,170,171,169,170,171,169,170,171,170,
169,169,170,171,169,170,171,169,170,171,169,170,171,169,170,171,169,170,0,0,0,0,0,0,0,0,170,171,169,170,171,169,170,171,169,170,171,169,170,171,169,170,171,169,170,171,169,170,171,170,
169,169,170,171,169,170,171,169,170,171,169,170,171,169,170,171,169,170,171,169,170,171,169,170,171,0,170,171,169,170,171,169,170,171,169,170,171,172,170,171,169,170,171,169,170,171,169,170,171,170,
169,169,170,171,169,170,171,169,170,171,169,170,171,169,170,171,169,170,171,169,170,171,169,170,171,0,170,171,169,170,171,169,170,171,169,170,171,169,170,171,169,170,171,169,170,171,172,170,171,170,
169,169,170,171,169,170,171,169,170,171,169,170,171,169,170,171,169,170,171,169,170,171,169,170,171,0,170,171,169,170,171,169,170,171,169,170,171,169,170,171,169,170,171,169,170,171,169,170,171,170,
169,169,170,171,169,170,171,169,170,171,169,170,171,169,170,171,169,170,0,0,0,0,169,170,171,0,170,171,169,170,172,169,170,171,169,170,171,169,173,171,169,170,171,169,170,173,169,170,171,170,
169,169,170,171,169,170,171,169,170,171,169,170,171,169,170,171,169,170,0,0,0,0,169,170,171,0,170,171,169,170,171,169,170,171,169,170,171,169,170,171,169,170,171,169,170,171,169,170,171,170,
169,169,170,171,169,170,171,169,170,171,169,170,171,169,170,172,169,170,0,0,0,0,169,170,171,0,170,171,169,170,171,169,170,171,169,170,171,169,170,171,169,170,171,169,170,171,169,170,171,170,
169,169,170,171,169,170,171,169,170,171,169,170,171,169,170,171,169,170,0,0,0,0,169,170,171,0,0,0,0,0,0,0,0,0,0,170,171,169,0,171,169,170,171,169,170,171,169,170,171,170,
169,169,170,171,169,170,171,169,172,171,169,170,171,169,170,171,169,170,0,0,0,0,169,170,171,169,170,171,169,170,171,169,170,0,0,170,171,169,170,171,169,170,171,169,170,171,169,170,171,170,
169,169,170,173,169,170,171,169,170,171,169,170,171,169,170,171,169,170,0,0,0,0,169,170,171,169,170,171,169,170,171,169,170,171,0,170,171,169,170,171,169,170,171,169,170,171,169,170,171,170,
169,169,170,171,169,170,171,169,170,171,169,170,171,169,170,171,169,170,0,0,0,0,169,170,171,169,170,171,169,170,171,169,170,171,0,170,171,169,170,171,169,170,171,169,170,171,169,170,171,170,
169,169,170,171,169,170,171,169,170,171,169,170,171,169,170,171,169,170,0,0,0,171,169,170,171,169,170,171,169,170,171,169,170,171,169,170,171,169,170,173,169,170,171,169,170,171,169,170,171,170,
169,169,170,171,169,170,171,169,170,171,169,170,171,169,170,171,169,170,0,0,0,0,169,170,171,169,170,171,169,170,171,169,170,171,169,170,171,169,170,171,169,170,171,169,170,171,169,170,171,170,
169,169,170,171,169,170,171,169,170,171,169,170,171,169,170,171,173,170,0,0,0,0,169,170,171,169,170,171,169,170,0,169,170,171,0,170,171,169,170,171,169,170,172,169,170,171,169,170,171,170,
169,169,170,171,169,170,171,169,170,171,169,170,171,169,170,171,169,170,0,0,0,0,169,170,171,169,170,171,169,170,0,169,170,171,0,170,171,169,170,171,169,170,171,169,173,171,169,170,171,170,
169,169,170,171,169,170,171,169,170,171,169,172,171,169,170,171,169,170,171,0,0,0,169,170,171,169,170,171,169,170,0,169,170,171,0,170,171,169,170,171,169,170,171,169,170,171,169,170,171,170,
169,169,170,171,169,170,171,169,170,171,169,170,171,169,170,171,169,170,171,0,0,0,169,170,171,169,170,171,169,170,0,169,170,171,0,170,171,169,170,171,169,170,171,169,170,171,169,170,171,170,
169,169,170,171,169,170,171,169,170,171,169,170,171,169,0,0,0,0,0,0,0,0,169,170,171,169,170,171,169,170,0,169,170,171,0,170,171,169,170,171,169,170,171,169,170,171,169,170,171,170,
169,169,170,171,0,0,0,0,0,0,0,0,0,0,0,0,0,0,0,0,0,0,169,170,171,169,170,173,169,170,0,169,170,171,0,0,0,0,0,0,0,0,0,0,0,0,0,0,0,0,
169,169,170,171,0,0,0,0,0,0,0,0,0,0,0,0,0,170,0,0,0,0,169,170,171,169,170,171,169,170,0,169,170,171,169,170,171,169,170,171,169,170,171,169,170,171,169,170,171,170,
169,169,170,171,169,170,171,169,170,171,169,170,171,169,170,171,169,170,0,0,0,0,169,170,171,169,170,171,169,170,0,169,170,171,169,170,171,169,170,171,169,170,171,169,170,171,169,170,171,170,
169,169,170,171,169,170,171,169,170,171,169,170,171,169,170,171,169,170,0,0,0,0,169,170,171,169,170,171,169,170,0,169,170,171,169,170,171,169,170,171,169,170,171,169,170,171,169,170,171,170,
169,169,170,171,169,170,171,169,170,171,169,170,171,169,170,171,169,170,0,0,0,0,169,170,171,169,170,171,169,170,0,169,170,171,169,170,171,169,170,171,169,170,171,169,170,171,169,170,171,170,
169,169,170,171,169,170,171,169,170,171,169,170,171,169,170,171,169,170,0,0,0,0,169,170,171,169,170,171,169,170,171,169,170,171,169,170,171,169,170,171,169,170,171,169,170,171,169,170,171,170,
169,169,170,171,169,170,171,169,170,171,169,170,171,169,170,171,169,170,0,0,0,0,0,170,0,0,0,0,0,170,171,169,170,0,0,0,0,169,170,171,169,170,171,169,170,171,169,170,171,170,
169,169,170,171,169,170,171,169,170,171,169,170,171,169,170,171,169,170,0,0,0,0,0,0,0,0,0,0,0,0,0,0,0,0,0,0,0,169,170,171,169,170,171,169,170,171,169,170,171,170,
169,169,170,171,169,170,171,169,172,171,169,170,171,169,170,171,169,170,0,0,0,0,0,0,0,0,0,0,0,0,0,0,0,0,0,0,0,169,170,173,169,170,171,169,170,171,169,170,171,170,
169,169,170,171,169,170,171,169,170,171,169,170,171,169,170,171,172,170,171,169,170,171,169,170,171,169,170,171,169,170,171,169,170,171,169,170,171,169,170,171,169,170,171,169,170,171,169,170,171,170,
169,169,170,171,169,170,171,169,170,171,169,170,171,169,170,171,169,170,171,169,170,171,169,170,171,169,170,171,169,170,171,169,170,171,169,170,171,169,170,171,169,170,171,169,170,171,169,170,171,170,
169,169,172,171,169,170,171,169,170,171,169,170,171,169,170,171,169,170,171,169,170,171,169,173,171,169,170,171,169,170,171,169,170,171,169,170,171,169,170,171,169,170,171,172,170,171,173,170,171,170,
169,169,170,171,169,170,171,169,170,171,169,170,171,169,170,171,169,170,171,169,170,171,169,170,171,169,170,171,169,170,171,169,170,171,169,170,171,169,173,171,169,170,171,169,170,171,169,170,171,170,
169,169,170,171,169,170,171,169,170,171,169,170,171,169,170,171,169,170,171,169,170,171,169,170,171,169,170,171,169,170,171,169,170,171,169,170,171,169,170,171,169,170,171,169,170,171,169,170,171,170,
169,169,170,171,169,170,171,169,170,171,169,172,171,169,170,171,169,170,171,169,170,171,169,170,171,169,170,171,169,170,171,169,170,171,169,170,171,169,170,171,169,170,171,169,170,171,169,170,171,170,
169,169,170,171,169,170,171,169,170,171,169,170,171,169,170,171,169,170,171,169,170,171,169,172,171,169,170,171,169,173,171,169,170,171,169,170,171,169,170,171,169,170,171,169,170,171,169,170,171,170,
169,169,170,171,169,170,171,169,170,171,169,170,171,169,170,171,169,170,171,169,170,171,169,170,171,169,170,171,169,170,171,169,170,171,169,170,171,169,170,171,169,170,171,169,170,171,169,170,171,171,
169,170,171,169,170,171,169,170,171,169,170,171,169,170,171,169,170,171,169,170,171,169,170,171,169,170,171,169,170,171,169,170,171,169,170,171,169,170,171,169,170,171,169,170,171,169,170,171,169,170
</data>
 </layer>
 <layer id="3" name="Walls" width="50" height="50">
  <data encoding="csv">
184,132,132,132,132,132,132,132,132,132,132,132,132,132,133,1406,1406,1406,131,132,132,132,132,132,132,132,132,132,132,132,132,132,132,132,132,132,132,132,132,132,132,132,132,132,132,132,132,132,132,184,
81,0,0,0,0,0,0,0,0,0,0,0,0,0,0,1406,1406,1406,0,0,0,0,0,0,0,0,0,0,0,0,0,0,0,0,0,0,0,0,0,0,0,0,0,0,0,0,80,80,80,184,
81,0,0,0,0,0,0,0,0,0,0,0,0,0,0,1406,1406,1406,0,0,0,0,0,0,0,0,0,0,0,0,0,0,0,0,0,0,0,0,0,0,0,0,27,28,28,28,28,29,0,79,
81,0,0,0,0,0,0,0,0,0,0,0,0,0,0,1406,1406,1406,0,0,0,0,0,0,0,0,0,0,0,0,0,0,0,0,0,0,0,0,0,0,0,0,131,132,288,289,132,133,0,79,
81,0,0,0,0,0,0,0,0,0,0,0,0,0,0,1406,1406,1406,0,0,0,0,0,0,0,0,0,0,0,0,0,0,0,0,0,0,0,0,0,0,0,0,0,0,0,0,0,0,0,79,
81,0,0,0,0,0,0,0,0,0,0,0,0,0,0,1406,1406,1406,0,0,0,0,0,0,0,0,0,0,0,0,0,0,0,0,0,0,0,0,0,0,0,0,0,0,0,0,0,0,0,79,
81,0,0,0,0,0,0,0,0,0,0,0,0,0,0,1406,1406,1406,0,0,0,0,0,0,0,0,0,0,0,0,0,0,0,0,0,0,0,0,0,0,0,0,0,0,0,0,0,0,0,79,
81,0,0,0,0,0,0,0,0,0,0,0,0,0,0,1406,1406,1406,0,0,0,0,0,0,0,0,0,0,0,0,0,0,0,0,0,0,0,0,0,0,0,0,0,0,0,0,0,0,0,79,
81,0,0,0,0,0,0,0,0,0,0,0,0,0,0,1406,1406,0,0,0,0,0,0,0,0,0,0,0,0,0,0,0,0,0,0,0,0,0,0,0,0,0,0,0,0,0,0,0,0,79,
81,0,0,0,0,0,0,0,0,0,0,0,0,0,0,1406,0,0,0,0,0,0,0,0,0,0,0,0,0,0,0,0,0,0,0,0,0,0,0,0,0,0,0,0,0,0,0,0,0,79,
81,0,0,0,0,0,0,0,0,0,0,0,0,0,0,1406,0,1406,0,0,0,0,0,0,0,0,0,0,0,0,0,0,0,0,0,0,0,0,0,0,0,0,0,0,0,0,0,0,0,79,
81,0,0,0,0,0,0,0,0,0,0,0,0,0,0,1406,0,0,0,0,0,0,0,0,0,0,0,0,0,0,0,0,0,0,0,0,0,0,0,0,0,0,0,0,0,0,0,0,0,79,
81,0,0,0,0,0,0,0,0,0,0,0,0,0,0,1406,1406,0,0,0,0,0,0,0,0,0,0,0,0,0,0,0,0,0,0,0,0,0,0,0,0,0,0,0,0,0,0,0,0,79,
81,0,0,0,0,0,0,0,0,0,0,0,0,0,0,1406,1406,0,0,0,0,0,0,0,0,0,0,0,0,0,0,0,0,0,0,0,0,0,0,0,0,0,0,0,0,0,0,0,0,79,
81,0,0,0,0,0,0,0,0,0,0,0,0,0,0,1406,0,0,0,0,0,0,0,0,0,0,0,0,0,0,0,0,0,0,0,0,0,0,0,0,0,0,0,0,0,0,0,0,0,79,
81,0,0,0,0,0,0,0,0,0,0,0,0,0,0,1406,0,1406,1406,0,0,0,1406,0,1406,0,0,0,0,0,0,0,0,0,0,0,0,0,0,0,0,0,0,0,0,0,0,0,0,79,
81,0,0,0,0,0,0,0,0,0,0,0,0,0,0,0,0,1406,0,0,0,0,0,0,1406,0,0,0,0,0,0,0,0,0,0,0,0,0,0,0,0,0,0,0,0,0,0,0,0,79,
81,0,0,0,0,0,0,0,0,0,0,0,0,0,0,0,1406,1406,0,0,0,0,0,1406,1406,0,0,0,0,0,0,0,0,0,0,0,0,0,0,0,0,0,0,0,0,0,0,0,0,79,
81,0,0,0,0,0,0,0,0,0,0,0,0,0,0,0,0,0,0,0,0,0,0,1406,1406,0,0,0,0,0,0,0,0,0,0,0,0,0,0,0,0,0,0,0,0,0,0,0,0,79,
81,0,0,0,0,0,0,0,0,0,0,0,0,0,0,0,0,0,0,0,0,0,0,1406,1406,0,0,0,0,0,0,0,0,0,0,0,0,0,0,0,0,0,0,0,0,0,0,0,0,79,
81,0,0,0,0,0,0,0,0,0,0,0,0,0,0,0,0,0,0,0,0,0,0,1406,1406,0,0,0,0,0,0,0,0,0,0,0,0,0,0,0,0,0,0,0,0,0,0,0,0,79,
81,0,0,0,0,0,0,0,0,0,0,0,0,0,0,0,0,0,0,0,0,0,0,1406,1406,0,0,0,0,0,0,0,0,0,0,0,0,0,0,0,0,0,0,0,0,0,0,0,0,79,
81,0,0,0,0,0,0,0,0,0,0,0,0,0,0,0,0,0,0,0,0,0,0,1406,1406,1406,1406,1406,1406,1406,1406,1406,1406,0,0,0,0,0,0,0,0,0,0,0,0,0,0,0,0,79,
81,0,0,0,0,0,0,0,0,0,0,0,0,0,0,0,0,0,0,0,0,0,0,1406,1406,1406,1406,1406,1406,1406,1406,1406,0,0,0,0,0,0,0,0,0,0,0,0,0,0,0,0,0,79,
81,0,0,0,0,0,0,0,0,0,0,0,0,0,0,0,0,0,0,0,0,0,0,0,0,0,0,1406,1406,1406,0,0,0,1406,0,0,0,0,0,0,0,0,0,0,0,0,0,0,0,79,
81,0,0,0,0,0,0,0,0,0,0,0,0,0,0,0,0,0,0,0,0,0,0,0,0,0,0,0,0,0,0,0,1406,0,0,1406,0,0,1406,0,0,0,0,1406,1406,0,0,1406,1406,79,
81,0,0,0,0,0,0,0,0,0,0,0,0,0,0,0,0,0,0,0,0,0,0,0,0,0,0,0,0,0,0,0,0,0,1406,0,0,0,1406,0,0,0,0,1406,1406,0,1406,1406,1406,79,
81,0,0,0,0,0,0,0,0,0,0,0,0,0,0,0,0,0,0,0,0,0,0,0,0,0,0,0,0,0,0,0,0,0,0,0,0,0,0,0,0,0,0,1406,0,0,1406,1406,1406,79,
81,0,0,0,0,0,0,0,0,0,0,0,0,0,0,0,0,0,0,0,0,0,0,0,0,0,0,0,0,0,0,0,0,1406,1406,0,0,0,0,0,0,0,1406,0,0,1406,1406,1406,1406,79,
81,0,0,0,0,0,0,0,0,0,0,0,0,0,0,0,0,0,0,0,0,0,0,0,0,0,0,0,0,0,0,1406,1406,1406,1406,0,1406,1406,0,0,0,0,0,0,1406,1406,1406,1406,1406,79,
81,0,0,0,0,0,0,0,0,0,0,0,0,0,0,0,0,0,0,0,0,0,0,0,0,0,0,0,0,0,0,1406,0,0,0,1406,1406,1406,1406,0,0,1406,1406,1406,1406,1406,1406,1406,1406,79,
81,0,0,0,0,0,0,0,0,0,0,0,0,0,0,0,0,0,0,0,0,0,0,0,0,0,0,0,0,0,0,0,0,1406,1406,1406,1406,1406,1406,1406,1406,1406,1406,1406,1406,1406,1406,1406,1406,79,
81,0,0,0,0,0,0,0,0,0,0,0,0,0,0,0,0,0,0,0,0,0,0,0,0,0,0,0,0,0,0,1406,1406,1406,1406,1406,1406,1406,1406,1406,1406,1406,1406,1406,1406,1406,1406,1406,1406,79,
81,0,0,0,0,0,0,0,0,0,0,0,0,0,0,0,0,0,0,0,0,0,0,0,0,0,0,0,0,0,0,1406,1406,1406,1406,1406,1406,1406,1406,1406,1406,1406,1406,1406,1406,1406,1406,1406,1406,1406,
81,0,0,0,0,0,0,0,0,0,0,0,0,0,0,0,0,0,0,0,0,0,0,0,0,0,0,0,0,0,0,1406,1406,1406,1406,1406,1406,1406,1406,1406,1406,1406,1406,1406,1406,1406,1406,1406,1406,1406,
81,0,0,0,0,0,0,0,0,0,0,0,0,0,0,0,0,0,0,0,0,0,0,0,0,0,0,0,0,0,0,1406,1406,1406,1406,1406,1406,1406,1406,1406,1406,1406,1406,1406,1406,1406,1406,1406,1406,1406,
81,0,0,0,0,0,0,0,0,0,0,0,0,0,0,0,0,0,0,0,0,0,0,0,0,0,0,0,0,0,0,0,0,0,0,0,0,0,0,0,0,0,0,0,0,0,0,0,0,27,
81,0,0,0,0,0,0,0,0,0,0,0,0,0,0,0,0,0,0,0,0,0,0,0,0,0,0,0,0,0,0,0,0,0,0,0,0,0,0,0,0,0,0,0,0,0,0,0,0,79,
81,0,0,0,0,0,0,0,0,0,0,0,0,0,0,0,0,0,0,0,0,0,0,0,0,0,0,0,0,0,0,0,0,0,0,0,0,0,0,0,0,0,0,0,0,0,0,0,0,79,
81,0,0,0,0,0,0,0,0,0,0,0,0,0,0,0,0,0,0,0,0,0,0,0,0,0,0,0,0,0,0,0,0,0,0,0,0,0,0,0,0,0,0,0,0,0,0,0,0,79,
81,0,0,0,0,0,0,0,0,0,0,0,0,0,0,0,0,0,0,0,0,0,0,0,0,0,0,0,0,0,0,0,0,0,0,0,0,0,0,0,0,0,0,0,0,0,0,0,0,79,
81,0,0,0,0,0,0,0,0,0,0,0,0,0,0,0,0,0,0,0,0,0,0,0,0,0,0,0,0,0,0,0,0,0,0,0,0,0,0,0,0,0,0,0,0,0,0,0,0,79,
81,0,0,0,0,0,0,0,0,0,0,0,0,0,0,0,0,0,0,0,0,0,0,0,0,0,0,0,0,0,0,0,0,0,0,0,0,0,0,0,0,0,0,0,0,0,0,0,0,79,
81,0,0,0,0,0,0,0,0,0,0,0,0,0,0,0,0,0,0,0,0,0,0,0,0,0,0,0,0,0,0,0,0,0,0,0,0,0,0,0,0,0,0,0,0,0,0,0,0,79,
81,0,0,0,0,0,0,0,0,0,0,0,0,0,0,0,0,0,0,0,0,0,0,0,0,0,0,0,0,0,0,0,0,0,0,0,0,0,0,0,0,0,0,0,0,0,0,0,0,79,
81,0,0,0,0,0,0,0,0,0,0,0,0,0,0,0,0,0,0,0,0,0,0,0,0,0,0,0,0,0,0,0,0,0,0,0,0,0,0,0,0,0,0,0,0,0,0,0,0,79,
81,0,0,0,0,0,0,0,0,0,0,0,0,0,0,0,0,0,0,0,0,0,0,0,0,0,0,0,0,0,0,0,0,0,0,0,0,0,0,0,0,0,0,0,0,0,0,0,0,79,
81,0,0,0,0,0,0,0,0,0,0,0,0,0,0,0,0,0,0,0,0,0,0,0,0,0,0,0,0,0,0,0,0,0,0,0,0,0,0,0,0,0,0,0,0,0,0,0,0,79,
81,0,0,0,0,0,0,0,0,0,0,0,0,0,0,0,0,0,0,0,0,0,0,0,0,0,0,0,0,0,0,0,0,0,0,0,0,0,0,0,0,0,0,0,0,0,0,0,0,79,
184,28,28,28,28,28,28,28,28,28,28,28,28,28,28,28,28,28,28,28,28,28,28,28,28,28,28,28,28,28,28,28,28,28,28,28,28,28,28,28,28,28,28,28,28,28,28,28,28,184
</data>
 </layer>
 <layer id="5" name="Water" width="50" height="50">
  <data encoding="csv">
0,0,0,0,0,0,0,0,0,0,0,0,0,0,0,598,598,598,0,0,0,0,0,0,0,0,0,0,0,0,0,0,0,0,0,0,0,0,0,0,0,0,0,0,0,0,0,0,0,0,
0,0,0,0,0,0,0,0,0,0,0,0,0,0,0,598,598,598,0,0,0,0,0,0,0,0,0,0,0,0,0,0,0,0,0,0,0,0,0,0,0,0,0,0,0,0,0,0,0,0,
0,0,0,0,0,0,0,0,0,0,0,0,0,0,0,598,598,598,0,0,0,0,0,0,0,0,0,0,0,0,0,0,0,0,0,0,0,0,0,0,0,0,0,0,0,0,0,0,0,0,
0,0,0,0,0,0,0,0,0,0,0,0,0,0,0,598,598,598,0,0,0,0,0,0,0,0,0,0,0,0,0,0,0,0,0,0,0,0,0,0,0,0,0,0,0,0,0,0,0,0,
0,0,0,0,0,0,0,0,0,0,0,0,0,0,0,598,598,598,0,0,0,0,0,0,0,0,0,0,0,0,0,0,0,0,0,0,0,0,0,0,0,0,0,0,0,0,0,0,0,0,
0,0,0,0,0,0,0,0,0,0,0,0,0,0,0,598,598,598,0,0,0,0,0,0,0,0,0,0,0,0,0,0,0,0,0,0,0,0,0,0,0,0,0,0,0,0,0,0,0,0,
0,0,0,0,0,0,0,0,0,0,0,0,0,0,0,598,598,598,0,0,0,0,0,0,0,0,0,0,0,0,0,0,0,0,0,0,0,0,0,0,0,0,0,0,0,0,0,0,0,0,
0,0,0,0,0,0,0,0,0,0,0,0,0,0,0,598,598,598,0,0,0,0,0,0,0,0,0,0,0,0,0,0,0,0,0,0,0,0,0,0,0,0,0,0,0,0,0,0,0,0,
0,0,0,0,0,0,0,0,0,0,0,0,0,0,0,598,598,598,0,0,0,0,0,0,0,0,0,0,0,0,0,0,0,0,0,0,0,0,0,0,0,0,0,0,0,0,0,0,0,0,
0,0,0,0,0,0,0,0,0,0,0,0,0,0,0,598,598,598,0,0,0,0,0,0,0,0,0,0,0,0,0,0,0,0,0,0,0,0,0,0,0,0,0,0,0,0,0,0,0,0,
0,0,0,0,0,0,0,0,0,0,0,0,0,0,0,598,598,598,0,0,0,0,0,0,0,0,0,0,0,0,0,0,0,0,0,0,0,0,0,0,0,0,0,0,0,0,0,0,0,0,
0,0,0,0,0,0,0,0,0,0,0,0,0,0,0,598,598,598,0,0,0,0,0,0,0,0,0,0,0,0,0,0,0,0,0,0,0,0,0,0,0,0,0,0,0,0,0,0,0,0,
0,0,0,0,0,0,0,0,0,0,0,0,0,0,0,598,598,598,0,0,0,0,0,0,0,0,0,0,0,0,0,0,0,0,0,0,0,0,0,0,0,0,0,0,0,0,0,0,0,0,
0,0,0,0,0,0,0,0,0,0,0,0,0,0,0,598,598,598,0,0,0,0,0,0,0,0,0,0,0,0,0,0,0,0,0,0,0,0,0,0,0,0,0,0,0,0,0,0,0,0,
0,0,0,0,0,0,0,0,0,0,0,0,0,0,0,598,598,598,0,0,0,0,0,0,0,0,0,0,0,0,0,0,0,0,0,0,0,0,0,0,0,0,0,0,0,0,0,0,0,0,
0,0,0,0,0,0,0,0,0,0,0,0,0,0,0,598,598,598,598,598,598,598,598,598,598,0,0,0,0,0,0,0,0,0,0,0,0,0,0,0,0,0,0,0,0,0,0,0,0,0,
0,0,0,0,0,0,0,0,0,0,0,0,0,0,0,598,598,598,598,598,598,598,598,598,598,0,0,0,0,0,0,0,0,0,0,0,0,0,0,0,0,0,0,0,0,0,0,0,0,0,
0,0,0,0,0,0,0,0,0,0,0,0,0,0,0,598,598,598,598,598,598,598,598,598,598,0,0,0,0,0,0,0,0,0,0,0,0,0,0,0,0,0,0,0,0,0,0,0,0,0,
0,0,0,0,0,0,0,0,0,0,0,0,0,0,0,0,0,0,0,0,0,0,598,598,598,0,0,0,0,0,0,0,0,0,0,0,0,0,0,0,0,0,0,0,0,0,0,0,0,0,
0,0,0,0,0,0,0,0,0,0,0,0,0,0,0,0,0,0,0,0,0,0,598,598,598,0,0,0,0,0,0,0,0,0,0,0,0,0,0,0,0,0,0,0,0,0,0,0,0,0,
0,0,0,0,0,0,0,0,0,0,0,0,0,0,0,0,0,0,0,0,0,0,598,598,598,0,0,0,0,0,0,0,0,0,0,0,0,0,0,0,0,0,0,0,0,0,0,0,0,0,
0,0,0,0,0,0,0,0,0,0,0,0,0,0,0,0,0,0,0,0,0,0,598,598,598,0,0,0,0,0,0,0,0,0,0,0,0,0,0,0,0,0,0,0,0,0,0,0,0,0,
0,0,0,0,0,0,0,0,0,0,0,0,0,0,0,0,0,0,0,0,0,0,598,598,598,598,598,598,598,598,598,598,598,598,0,0,0,0,0,0,0,0,0,0,0,0,0,0,0,0,
0,0,0,0,0,0,0,0,0,0,0,0,0,0,0,0,0,0,0,0,0,0,598,598,598,598,598,598,598,598,598,598,598,598,0,0,0,0,0,0,0,0,0,0,0,0,0,0,0,0,
0,0,0,0,0,0,0,0,0,0,0,0,0,0,0,0,0,0,0,0,0,0,598,598,598,598,598,598,598,598,598,598,598,598,0,0,0,0,0,0,0,0,0,0,0,0,0,0,0,0,
0,0,0,0,0,0,0,0,0,0,0,0,0,0,0,0,0,0,0,0,0,0,0,0,0,0,0,0,0,0,0,598,598,598,0,0,0,0,0,0,0,0,0,0,0,0,0,0,0,0,
0,0,0,0,0,0,0,0,0,0,0,0,0,0,0,0,0,0,0,0,0,0,0,0,0,0,0,0,0,0,0,598,598,598,0,0,0,0,0,0,0,0,0,0,0,0,0,0,0,0,
0,0,0,0,0,0,0,0,0,0,0,0,0,0,0,0,0,0,0,0,0,0,0,0,0,0,0,0,0,0,0,598,598,598,0,0,0,0,0,0,0,0,0,0,0,0,0,0,0,0,
0,0,0,0,0,0,0,0,0,0,0,0,0,0,0,0,0,0,0,0,0,0,0,0,0,0,0,0,0,0,0,598,598,598,0,0,0,0,0,0,0,0,0,0,0,0,0,0,0,0,
0,0,0,0,0,0,0,0,0,0,0,0,0,0,0,0,0,0,0,0,0,0,0,0,0,0,0,0,0,0,0,598,598,598,0,0,0,0,0,0,0,0,0,0,0,0,0,0,0,0,
0,0,0,0,0,0,0,0,0,0,0,0,0,0,0,0,0,0,0,0,0,0,0,0,0,0,0,0,0,0,0,598,598,598,0,0,0,0,0,0,0,0,0,0,0,0,0,0,0,0,
0,0,0,0,0,0,0,0,0,0,0,0,0,0,0,0,0,0,0,0,0,0,0,0,0,0,0,0,0,0,0,598,598,598,0,0,0,0,0,0,0,0,0,0,0,0,0,0,0,0,
0,0,0,0,0,0,0,0,0,0,0,0,0,0,0,0,0,0,0,0,0,0,0,0,0,0,0,0,0,0,0,598,598,598,0,0,0,0,0,0,0,0,0,0,0,0,0,0,0,0,
0,0,0,0,0,0,0,0,0,0,0,0,0,0,0,0,0,0,0,0,0,0,0,0,0,0,0,0,0,0,0,598,598,598,598,598,598,598,598,598,598,598,598,598,598,598,598,598,598,598,
0,0,0,0,0,0,0,0,0,0,0,0,0,0,0,0,0,0,0,0,0,0,0,0,0,0,0,0,0,0,0,598,598,598,598,598,598,598,598,598,598,598,598,598,598,598,598,598,598,598,
0,0,0,0,0,0,0,0,0,0,0,0,0,0,0,0,0,0,0,0,0,0,0,0,0,0,0,0,0,0,0,598,598,598,598,598,598,598,598,598,598,598,598,598,598,598,598,598,598,598,
0,0,0,0,0,0,0,0,0,0,0,0,0,0,0,0,0,0,0,0,0,0,0,0,0,0,0,0,0,0,0,0,0,0,0,0,0,0,0,0,0,0,0,0,0,0,0,0,0,0,
0,0,0,0,0,0,0,0,0,0,0,0,0,0,0,0,0,0,0,0,0,0,0,0,0,0,0,0,0,0,0,0,0,0,0,0,0,0,0,0,0,0,0,0,0,0,0,0,0,0,
0,0,0,0,0,0,0,0,0,0,0,0,0,0,0,0,0,0,0,0,0,0,0,0,0,0,0,0,0,0,0,0,0,0,0,0,0,0,0,0,0,0,0,0,0,0,0,0,0,0,
0,0,0,0,0,0,0,0,0,0,0,0,0,0,0,0,0,0,0,0,0,0,0,0,0,0,0,0,0,0,0,0,0,0,0,0,0,0,0,0,0,0,0,0,0,0,0,0,0,0,
0,0,0,0,0,0,0,0,0,0,0,0,0,0,0,0,0,0,0,0,0,0,0,0,0,0,0,0,0,0,0,0,0,0,0,0,0,0,0,0,0,0,0,0,0,0,0,0,0,0,
0,0,0,0,0,0,0,0,0,0,0,0,0,0,0,0,0,0,0,0,0,0,0,0,0,0,0,0,0,0,0,0,0,0,0,0,0,0,0,0,0,0,0,0,0,0,0,0,0,0,
0,0,0,0,0,0,0,0,0,0,0,0,0,0,0,0,0,0,0,0,0,0,0,0,0,0,0,0,0,0,0,0,0,0,0,0,0,0,0,0,0,0,0,0,0,0,0,0,0,0,
0,0,0,0,0,0,0,0,0,0,0,0,0,0,0,0,0,0,0,0,0,0,0,0,0,0,0,0,0,0,0,0,0,0,0,0,0,0,0,0,0,0,0,0,0,0,0,0,0,0,
0,0,0,0,0,0,0,0,0,0,0,0,0,0,0,0,0,0,0,0,0,0,0,0,0,0,0,0,0,0,0,0,0,0,0,0,0,0,0,0,0,0,0,0,0,0,0,0,0,0,
0,0,0,0,0,0,0,0,0,0,0,0,0,0,0,0,0,0,0,0,0,0,0,0,0,0,0,0,0,0,0,0,0,0,0,0,0,0,0,0,0,0,0,0,0,0,0,0,0,0,
0,0,0,0,0,0,0,0,0,0,0,0,0,0,0,0,0,0,0,0,0,0,0,0,0,0,0,0,0,0,0,0,0,0,0,0,0,0,0,0,0,0,0,0,0,0,0,0,0,0,
0,0,0,0,0,0,0,0,0,0,0,0,0,0,0,0,0,0,0,0,0,0,0,0,0,0,0,0,0,0,0,0,0,0,0,0,0,0,0,0,0,0,0,0,0,0,0,0,0,0,
0,0,0,0,0,0,0,0,0,0,0,0,0,0,0,0,0,0,0,0,0,0,0,0,0,0,0,0,0,0,0,0,0,0,0,0,0,0,0,0,0,0,0,0,0,0,0,0,0,0,
0,0,0,0,0,0,0,0,0,0,0,0,0,0,0,0,0,0,0,0,0,0,0,0,0,0,0,0,0,0,0,0,0,0,0,0,0,0,0,0,0,0,0,0,0,0,0,0,0,0
</data>
 </layer>
 <layer id="4" name="Trees and other stuff with collision" width="50" height="50">
  <data encoding="csv">
0,0,0,0,0,0,0,0,0,0,0,0,0,0,0,583,584,585,0,0,0,0,0,0,0,0,0,0,0,0,0,0,0,0,0,0,0,0,0,0,0,0,0,0,0,0,0,0,0,0,
0,0,0,0,0,0,0,0,0,0,0,0,0,0,0,0,0,0,0,0,0,0,0,0,0,0,0,0,0,0,0,0,0,0,0,0,0,0,0,0,0,0,0,0,0,0,0,0,0,79,
0,0,0,0,0,0,0,0,0,0,0,0,0,0,0,0,0,0,0,0,0,0,0,0,0,0,0,0,0,0,0,0,0,0,0,0,0,0,0,0,0,0,0,0,0,0,0,0,0,0,
0,0,0,0,0,0,0,0,0,0,0,0,0,0,0,0,0,0,0,0,0,0,0,0,0,0,0,0,0,0,0,0,0,0,0,0,0,0,0,0,0,0,0,0,0,0,0,0,0,0,
0,0,0,0,0,0,0,0,0,0,0,0,0,0,0,0,0,0,0,0,0,0,0,0,0,0,0,0,0,0,0,0,0,0,0,0,0,785,786,787,0,0,0,0,0,0,0,0,0,0,
0,0,0,0,0,0,0,785,786,787,0,0,0,0,0,0,0,0,0,0,0,0,0,0,0,0,0,0,0,0,0,0,0,0,0,0,0,0,0,0,0,0,0,0,0,0,0,0,0,0,
0,0,0,0,0,0,0,0,0,0,0,0,0,0,0,0,0,0,0,0,0,0,901,902,903,904,905,899,900,0,0,0,0,0,0,0,0,0,0,0,0,0,0,0,0,0,0,0,0,0,
0,0,785,786,787,0,0,0,0,0,0,0,0,0,0,0,0,0,0,0,0,0,953,954,955,956,957,951,952,0,785,786,787,0,901,902,903,904,905,906,907,908,909,910,911,0,0,0,0,0,
0,0,0,0,0,0,0,0,0,0,0,0,0,0,0,0,0,0,0,0,0,0,0,0,0,0,0,0,0,0,0,0,0,0,953,954,955,956,957,958,959,960,961,962,963,0,0,0,0,0,
0,0,0,0,0,0,0,0,0,0,0,0,0,0,0,0,0,0,0,0,0,0,0,0,0,0,0,0,0,0,0,0,0,0,1005,0,0,0,0,0,1011,1012,1013,1014,1015,0,0,0,0,0,
0,0,0,0,0,0,0,0,0,0,0,0,0,0,0,0,0,0,0,0,0,0,0,0,0,0,0,0,0,0,0,0,0,0,0,0,0,0,0,0,1063,1064,1065,1066,0,0,0,0,0,0,
0,0,0,0,0,0,0,0,0,0,0,0,0,0,0,0,0,0,0,0,0,0,0,0,0,0,0,0,0,0,0,0,0,0,0,0,0,0,0,0,0,0,0,0,0,0,785,786,787,0,
0,0,0,0,0,0,0,0,0,0,0,0,0,0,0,0,0,0,0,0,0,0,0,0,0,0,0,0,0,0,0,0,0,0,0,0,0,0,0,0,0,0,0,0,0,0,0,0,0,0,
0,0,0,0,0,0,0,0,0,785,786,787,0,0,0,0,0,0,0,0,0,0,0,0,0,0,0,0,0,0,0,0,0,0,0,0,0,0,0,0,0,0,0,0,0,0,0,0,0,0,
0,0,0,0,0,0,0,0,0,0,0,0,0,0,0,0,0,0,0,0,0,0,0,0,0,0,0,0,0,0,0,0,0,0,0,0,0,0,0,0,0,0,0,0,0,0,0,0,0,0,
0,0,0,0,0,0,0,0,0,0,0,0,0,0,0,0,0,0,0,693,693,0,0,0,0,0,0,0,0,0,0,0,0,0,0,0,0,0,0,0,0,0,0,0,0,0,0,0,0,0,
0,0,0,365,366,367,0,0,0,0,0,0,0,0,0,0,0,0,0,693,693,0,0,0,0,0,0,0,0,0,0,0,0,0,0,0,0,0,785,786,787,0,0,0,0,0,0,0,0,0,
0,0,0,417,418,419,0,0,0,0,0,0,0,0,0,0,0,0,0,693,693,0,0,0,0,0,0,0,0,0,0,0,0,0,0,0,0,0,0,0,0,0,0,0,0,0,0,0,0,0,
0,0,0,733,734,735,0,0,0,0,0,0,0,0,0,0,0,0,0,0,0,0,0,0,0,0,0,0,0,0,0,0,0,0,0,0,0,0,0,0,0,0,0,0,0,0,0,0,0,0,
0,0,0,785,786,787,0,0,0,0,0,0,0,0,0,0,0,0,0,0,0,0,0,0,0,0,0,0,0,0,0,0,0,0,0,0,0,0,0,0,0,0,0,0,0,0,0,0,0,0,
0,0,0,0,0,0,0,0,0,0,0,0,0,0,0,0,0,0,0,0,0,0,0,0,0,0,0,0,0,0,0,0,0,0,0,0,0,0,0,0,0,0,0,0,0,0,0,0,374,0,
0,0,0,0,0,0,0,0,0,0,0,0,0,0,0,0,0,0,0,0,0,0,0,0,0,0,0,0,0,0,0,0,0,0,0,0,0,0,0,0,0,0,0,0,0,0,0,0,426,0,
0,0,0,0,0,0,0,0,0,0,0,0,0,0,0,0,0,0,0,0,0,0,0,0,0,0,0,0,0,0,0,0,0,0,0,0,0,0,0,0,0,0,0,0,0,0,0,0,426,0,
0,0,0,0,0,0,0,0,0,0,0,0,0,0,0,0,0,0,0,0,0,0,0,0,0,0,0,0,0,0,0,0,0,0,0,0,0,0,0,0,0,0,0,0,0,0,0,0,374,0,
0,0,0,0,0,0,0,0,0,0,0,0,0,0,0,0,0,0,0,0,0,0,0,0,0,0,0,0,0,0,0,0,0,0,0,0,0,0,0,0,0,0,0,0,0,0,0,0,426,0,
0,0,0,0,0,0,0,0,0,0,0,785,786,787,0,0,0,0,0,0,0,0,0,0,0,0,0,0,0,0,2147484290,641,641,641,642,0,0,0,0,0,0,0,0,0,0,0,0,0,426,0,
0,0,0,0,0,0,0,0,0,0,0,0,0,0,0,0,0,0,0,0,0,0,0,0,0,0,0,0,0,0,2147484342,693,693,693,0,0,0,0,0,0,0,0,785,786,787,0,0,0,426,0,
0,0,0,0,0,0,0,0,0,0,0,0,0,0,0,0,0,0,0,0,0,0,0,0,0,0,0,0,0,0,0,0,0,0,0,0,0,0,0,0,0,0,0,0,0,0,0,0,0,0,
0,0,0,0,0,0,0,0,0,0,0,0,0,0,0,0,0,0,0,0,0,0,0,0,0,0,0,0,0,0,0,0,0,0,0,0,0,0,0,0,0,0,0,0,0,0,0,0,0,0,
0,0,0,0,0,0,0,0,0,0,0,0,0,0,0,0,0,0,0,0,0,0,0,0,0,0,0,0,0,0,0,0,0,0,0,0,0,0,0,0,0,0,0,0,0,0,0,0,0,0,
0,0,0,901,902,903,904,905,899,0,0,0,0,0,0,0,0,0,0,0,0,0,0,0,0,0,0,0,0,0,0,0,0,0,0,0,0,0,0,0,0,0,0,0,0,0,0,0,0,0,
0,0,0,953,954,955,956,957,951,0,0,0,0,0,0,0,0,0,0,0,0,0,0,0,0,0,0,0,0,0,0,0,0,0,0,0,0,0,788,0,0,0,0,0,0,0,0,0,0,0,
0,0,0,0,0,0,0,0,0,0,0,0,0,0,0,0,0,0,0,0,0,0,0,0,0,0,0,0,0,0,0,0,0,0,0,0,0,0,0,788,789,0,0,0,0,0,0,0,0,0,
0,0,0,0,0,0,0,0,0,0,0,0,0,0,0,0,0,0,0,0,0,0,0,0,0,0,0,0,0,0,0,0,0,0,0,0,0,0,0,0,0,0,0,0,0,0,0,0,0,531,
0,0,0,0,0,0,0,0,0,0,0,0,0,0,0,0,0,0,0,0,0,0,0,0,0,0,0,0,0,0,0,790,791,792,793,794,795,796,0,0,0,0,0,0,0,0,0,0,0,531,
0,0,0,0,0,0,0,0,0,0,0,0,0,0,0,0,0,0,0,0,0,0,0,0,0,0,0,0,0,0,0,842,843,0,0,846,847,848,0,0,0,0,0,0,0,0,0,0,0,583,
0,0,0,0,0,0,0,0,0,0,0,0,0,0,0,0,0,0,0,0,0,0,0,0,0,0,0,0,0,0,0,894,895,896,897,898,899,900,0,0,0,0,0,0,0,0,0,0,0,0,
0,0,0,0,0,0,0,0,0,0,0,0,0,0,0,0,0,0,0,0,0,0,0,0,0,0,0,0,0,0,0,946,947,948,949,950,951,952,0,0,0,0,0,0,0,0,0,0,0,0,
0,0,0,0,0,0,0,0,0,0,785,786,787,0,0,0,0,0,0,0,0,0,0,0,0,0,0,0,0,0,0,0,0,0,0,0,0,0,0,0,0,0,0,0,0,0,0,0,0,0,
0,0,0,785,786,787,0,0,0,0,0,0,0,0,0,0,0,0,0,0,0,0,0,0,0,0,0,0,0,0,0,0,0,0,0,0,0,0,0,0,0,0,0,0,0,0,0,0,0,0,
0,0,0,0,0,0,0,0,0,0,0,0,0,0,0,0,0,0,0,0,0,0,0,0,0,0,0,0,0,0,0,0,0,0,0,0,0,0,0,0,0,0,0,785,786,787,0,0,0,0,
0,0,0,0,0,0,0,0,0,0,0,0,0,0,0,0,0,0,0,0,0,0,0,0,0,0,0,0,0,0,0,0,0,0,0,0,0,0,0,0,0,0,0,0,0,0,0,0,0,0,
0,0,0,0,0,0,0,0,0,0,0,0,0,0,0,0,0,0,0,0,0,0,0,0,0,0,0,0,0,0,0,0,0,0,0,0,0,0,0,0,0,0,0,0,0,0,0,0,0,0,
0,0,0,0,0,0,0,0,0,0,0,0,0,0,0,0,0,0,0,0,0,0,0,0,0,0,0,0,0,0,0,0,0,0,0,0,0,0,0,0,0,0,0,0,0,0,0,0,0,0,
0,0,0,0,0,0,0,0,0,0,0,0,0,0,0,0,0,0,0,0,0,0,0,0,0,0,0,0,0,0,0,0,0,0,0,0,0,0,0,0,0,0,0,0,0,0,0,0,0,0,
0,0,0,0,0,0,0,0,0,0,0,0,0,0,0,0,0,0,0,0,0,0,0,0,0,0,0,785,786,787,0,0,0,0,0,0,0,0,0,0,0,0,0,0,0,0,0,0,0,0,
0,0,0,0,0,785,786,787,0,0,0,0,0,0,0,0,0,0,0,0,0,0,0,0,0,0,0,0,0,0,0,0,0,0,0,0,0,0,0,0,0,0,0,0,0,0,0,0,0,0,
0,0,0,0,0,0,0,0,0,0,0,0,0,0,0,785,786,787,0,0,0,0,0,0,0,0,0,0,0,0,0,0,0,0,0,0,0,0,0,0,0,0,0,0,0,0,0,0,0,0,
0,0,0,0,0,0,0,0,0,0,0,0,0,0,0,0,0,0,0,0,0,0,0,0,0,0,0,0,0,0,0,0,0,0,0,0,0,0,0,0,0,0,785,786,787,0,0,0,0,0,
0,0,0,0,0,0,0,0,0,0,0,0,0,0,0,0,0,0,0,0,0,0,0,0,0,0,0,0,0,0,0,0,0,0,0,0,0,0,0,0,0,0,0,0,0,0,0,0,0,0
</data>
 </layer>
 <layer id="11" name="merdes chiantes" width="50" height="50">
  <data encoding="csv">
0,0,0,0,0,0,0,0,0,0,0,0,0,0,0,0,0,0,0,0,0,0,0,0,0,0,0,0,0,0,0,0,0,0,0,0,0,0,0,0,0,0,0,0,0,0,0,0,0,0,
0,0,0,0,0,0,0,0,0,0,0,0,0,0,0,0,0,0,0,0,0,0,0,0,0,0,0,0,0,0,0,0,0,0,0,0,0,0,0,0,0,0,0,0,0,0,0,0,0,0,
0,0,0,0,0,0,0,0,0,0,0,0,0,0,0,0,0,0,0,0,0,0,0,0,0,0,0,0,0,0,0,0,0,0,0,0,0,0,0,0,0,0,0,0,0,332,0,0,0,0,
0,0,0,0,0,0,0,0,0,0,0,0,0,0,0,0,0,0,0,0,0,0,0,0,0,0,0,0,0,0,0,0,0,0,0,0,0,0,0,0,0,0,0,0,0,0,0,0,0,0,
0,0,0,0,0,0,0,0,0,0,0,0,0,0,0,0,0,0,0,0,0,0,0,0,0,0,0,0,0,0,0,0,0,0,0,0,0,0,0,0,0,0,0,0,0,0,0,0,0,0,
0,0,0,0,0,0,0,0,0,0,0,0,0,0,0,0,0,0,0,0,0,0,0,0,0,0,0,0,0,0,0,0,0,0,0,0,0,0,0,0,0,0,0,0,0,0,0,0,0,0,
0,0,0,0,0,0,0,0,0,0,0,0,0,0,0,0,0,0,0,0,0,0,383,0,0,0,0,0,333,0,0,0,0,0,0,0,0,0,0,0,0,0,0,0,0,0,0,0,0,0,
0,0,0,0,0,0,0,0,0,0,0,0,0,0,0,0,0,0,0,0,0,0,435,0,892,334,0,332,385,0,0,0,0,0,0,0,0,0,0,0,0,0,0,0,0,0,0,0,0,0,
0,0,0,0,0,0,0,0,0,0,0,0,0,0,0,0,0,0,0,0,0,0,0,0,0,0,0,0,0,0,0,0,0,0,0,334,892,0,0,0,0,0,0,0,0,0,0,0,0,0,
0,0,0,0,0,0,0,0,0,0,0,0,0,0,0,0,0,0,0,0,0,0,0,0,0,0,0,0,0,0,0,0,0,0,0,0,0,0,0,0,0,0,0,0,0,0,0,0,0,0,
0,0,0,0,0,0,0,0,0,0,0,0,0,0,0,0,0,0,0,0,0,0,0,0,0,0,0,0,0,0,0,0,0,0,0,0,0,0,0,0,383,384,333,333,0,0,0,0,0,0,
0,0,0,0,0,0,0,0,0,0,0,0,0,0,0,0,0,0,0,0,0,0,0,0,0,0,0,0,0,0,0,0,0,0,0,0,0,0,0,0,435,436,385,385,0,0,0,0,0,0,
0,0,0,0,0,0,0,0,0,0,0,0,0,0,0,0,0,0,0,0,0,0,0,0,0,0,0,0,0,0,0,0,0,0,0,0,0,0,0,0,0,0,0,0,0,0,0,0,0,0,
0,0,0,0,0,0,0,0,0,0,0,0,0,0,0,0,0,0,0,0,0,0,0,0,0,0,0,0,0,0,0,0,0,0,0,0,0,0,0,0,0,0,0,0,0,0,0,0,0,0,
0,0,0,0,0,0,0,0,0,0,0,0,0,0,0,0,0,0,0,0,0,0,0,0,0,0,0,0,0,0,0,0,0,0,0,0,0,0,0,0,0,0,0,0,0,0,0,0,0,0,
0,0,0,0,0,0,0,0,0,0,0,0,0,0,0,0,0,0,0,0,0,0,0,0,0,0,0,0,0,0,0,0,0,0,0,0,0,0,0,0,0,0,0,0,0,0,0,0,0,0,
0,0,0,0,0,0,0,0,0,0,0,0,0,0,0,0,0,0,0,0,0,0,0,0,0,0,0,0,0,0,0,0,0,0,0,0,0,0,0,0,0,0,0,0,0,0,0,0,0,0,
0,0,0,0,0,0,0,0,0,0,0,0,0,0,0,0,0,0,0,0,0,0,0,0,0,0,0,0,0,0,0,0,0,0,0,0,0,0,0,0,0,0,0,0,0,0,0,0,0,0,
0,0,0,0,0,0,0,0,0,0,0,0,0,0,0,0,0,0,0,0,0,0,0,0,0,0,0,0,0,0,0,0,0,0,0,0,0,0,0,0,0,0,0,0,0,0,0,0,0,0,
0,0,0,0,0,0,0,0,0,0,0,0,0,0,0,0,0,0,0,0,0,0,0,0,0,0,0,0,0,0,0,0,0,0,0,0,0,0,0,0,0,0,0,0,0,0,0,0,0,0,
0,0,0,0,0,0,0,0,0,0,0,0,0,0,0,0,0,0,0,0,0,0,0,0,0,0,0,0,0,0,0,0,0,0,0,0,0,0,0,0,0,0,0,0,0,0,0,0,0,0,
0,0,0,0,0,0,0,0,0,0,0,0,0,0,0,0,0,0,0,0,0,0,0,0,0,0,0,0,0,0,0,0,0,0,0,0,0,0,0,0,0,0,0,0,0,0,0,0,0,0,
0,0,0,0,0,0,0,0,0,0,0,0,0,0,0,0,0,0,0,0,0,0,0,0,0,0,0,0,0,0,0,0,0,0,0,0,0,0,0,0,0,0,0,0,0,0,0,0,0,0,
0,0,0,0,0,0,0,0,0,0,0,0,0,0,0,0,0,0,0,0,0,0,0,0,0,0,0,0,0,0,0,0,0,0,0,0,0,0,0,0,0,0,0,0,0,0,0,0,0,0,
0,0,0,0,0,0,0,0,0,0,0,0,0,0,0,0,0,0,0,0,0,0,0,0,0,0,0,0,0,0,0,0,0,0,0,0,0,0,0,0,0,0,0,0,0,0,0,0,0,0,
0,0,0,0,0,0,0,0,0,0,0,0,0,0,0,0,0,0,0,0,0,0,0,0,0,0,0,0,0,0,0,0,0,0,0,0,0,0,0,0,0,0,0,0,0,0,0,0,0,0,
0,0,0,0,0,0,0,0,0,0,0,0,0,0,0,0,0,0,0,0,0,0,0,0,0,0,0,0,0,0,0,0,0,0,0,0,0,0,0,0,0,0,0,0,0,0,0,0,0,0,
0,0,0,0,0,0,0,0,0,0,0,0,0,0,0,0,0,0,0,0,0,0,0,0,0,0,0,0,0,0,0,0,0,0,0,0,0,0,0,0,0,0,0,0,0,0,0,0,0,0,
0,0,0,0,0,0,0,0,0,0,0,0,0,0,0,0,0,0,0,0,0,0,0,0,0,0,0,0,0,0,0,0,0,0,0,0,0,0,0,0,0,0,0,0,0,0,0,0,0,0,
0,0,0,0,0,0,0,0,0,0,0,0,0,0,0,0,0,0,0,0,0,0,0,0,0,0,0,0,0,0,0,0,0,0,0,0,0,0,0,0,0,0,0,0,0,0,0,0,0,0,
0,0,0,0,0,0,0,0,0,0,0,0,0,0,0,0,0,0,0,0,0,0,0,0,0,0,0,0,0,0,0,0,0,0,0,0,0,0,0,0,0,0,0,0,0,0,0,0,0,0,
0,0,0,0,0,840,334,0,0,0,0,0,0,0,0,0,0,0,0,0,0,0,0,0,0,0,0,0,0,0,0,0,0,0,0,0,0,0,0,0,0,0,0,0,0,0,0,0,0,0,
0,0,0,0,0,0,0,0,0,0,0,0,0,0,0,0,0,0,0,0,0,0,0,0,0,0,0,0,0,0,0,0,0,0,0,0,0,0,0,0,0,0,0,0,0,0,0,0,0,0,
0,0,0,0,0,0,0,0,0,0,0,0,0,0,0,0,0,0,0,0,0,0,0,0,0,0,0,0,0,0,0,0,0,0,0,0,0,0,0,0,0,0,0,0,0,0,0,0,0,0,
0,0,0,0,0,0,0,0,0,0,0,0,0,0,0,0,0,0,0,0,0,0,0,0,0,0,0,0,0,0,0,0,0,0,0,0,0,0,0,0,0,0,0,0,0,0,0,0,0,0,
0,0,0,0,0,0,0,0,0,0,0,0,0,0,0,0,0,0,0,0,0,0,0,0,0,0,0,0,0,0,0,0,0,0,0,0,0,0,0,0,0,0,0,0,0,0,0,0,0,0,
0,0,0,0,0,0,0,0,0,0,0,0,0,0,0,0,0,0,0,0,0,0,0,0,0,0,0,0,0,0,0,0,0,0,0,0,0,0,0,0,0,0,0,0,0,0,0,0,0,0,
0,0,0,0,0,0,0,0,0,0,0,0,0,0,0,0,0,0,0,0,0,0,0,0,0,0,0,0,0,0,0,0,0,0,0,892,334,0,0,0,0,0,0,0,0,0,0,0,0,0,
0,0,0,0,0,0,0,0,0,0,0,0,0,0,0,0,0,0,0,0,0,0,0,0,0,0,0,0,0,0,0,0,0,0,0,0,0,0,0,0,0,0,0,0,0,0,0,0,0,0,
0,0,0,0,0,0,0,0,0,0,0,0,0,0,0,0,0,0,0,0,0,0,0,0,0,0,0,0,0,0,0,0,0,0,0,0,0,0,0,0,0,0,0,0,0,0,0,0,0,0,
0,0,0,0,0,0,0,0,0,0,0,0,0,0,0,0,0,0,0,0,0,0,0,0,0,0,0,0,0,0,0,0,0,0,0,0,0,0,0,0,0,0,0,0,0,0,0,0,0,0,
0,0,0,0,0,0,0,0,0,0,0,0,0,0,0,0,0,0,0,0,0,0,0,0,0,0,0,0,0,0,0,0,0,0,0,0,0,0,0,0,0,0,0,0,0,0,0,0,0,0,
0,0,0,0,0,0,0,0,0,0,0,0,0,0,0,0,0,0,0,0,0,0,0,0,0,0,0,0,0,0,0,0,0,0,0,0,0,0,0,0,0,0,0,0,0,0,0,0,0,0,
0,0,0,0,0,0,0,0,0,0,0,0,0,0,0,0,0,0,0,0,0,0,0,0,0,0,0,0,0,0,0,0,0,0,0,0,0,0,0,0,0,0,0,0,0,0,0,0,0,0,
0,0,0,0,0,0,0,0,0,0,0,0,0,0,0,0,0,0,0,0,0,0,0,0,0,0,0,0,0,0,0,0,0,0,0,0,0,0,0,0,0,0,0,0,0,0,0,0,0,0,
0,0,0,0,0,0,0,0,0,0,0,0,0,0,0,0,0,0,0,0,0,0,0,0,0,0,0,0,0,0,0,0,0,0,0,0,0,0,0,0,0,0,0,0,0,0,0,0,0,0,
0,0,0,0,0,0,0,0,0,0,0,0,0,0,0,0,0,0,0,0,0,0,0,0,0,0,0,0,0,0,0,0,0,0,0,0,0,0,0,0,0,0,0,0,0,0,0,0,0,0,
0,0,0,0,0,0,0,0,0,0,0,0,0,0,0,0,0,0,0,0,0,0,0,0,0,0,0,0,0,0,0,0,0,0,0,0,0,0,0,0,0,0,0,0,0,0,0,0,0,0,
0,0,0,0,0,0,0,0,0,0,0,0,0,0,0,0,0,0,0,0,0,0,0,0,0,0,0,0,0,0,0,0,0,0,0,0,0,0,0,0,0,0,0,0,0,0,0,0,0,0,
0,0,0,0,0,0,0,0,0,0,0,0,0,0,0,0,0,0,0,0,0,0,0,0,0,0,0,0,0,0,0,0,0,0,0,0,0,0,0,0,0,0,0,0,0,0,0,0,0,0
</data>
 </layer>
 <layer id="6" name="Random stuffs" width="50" height="50">
  <data encoding="csv">
0,0,0,0,0,0,0,0,0,0,0,0,0,0,0,0,0,0,0,0,0,0,0,0,0,0,0,0,0,0,0,0,0,0,0,0,0,0,0,0,0,0,0,0,0,0,0,0,0,0,
0,0,0,0,0,0,0,0,0,0,0,0,0,0,0,0,0,0,0,0,0,0,0,0,0,0,0,0,0,0,0,0,0,0,0,0,0,473,474,475,0,0,0,0,0,0,0,0,0,0,
0,0,0,0,0,0,0,365,366,367,0,0,0,0,0,0,0,0,0,0,0,0,0,0,0,0,0,0,0,0,0,0,0,0,0,0,0,525,526,527,0,0,0,0,0,0,0,0,0,0,
0,0,0,0,0,0,0,417,418,419,0,0,0,0,0,0,0,0,0,0,0,0,0,0,0,0,0,0,0,0,0,0,0,0,0,0,0,733,734,735,0,0,0,0,0,0,0,0,0,0,
0,0,365,366,367,0,0,733,734,735,0,0,0,0,0,0,0,0,0,0,0,0,797,798,799,800,801,795,796,0,365,366,367,0,0,0,0,0,0,0,0,0,0,0,0,0,0,0,0,0,
0,0,417,418,419,0,0,0,0,0,0,0,0,0,0,0,0,0,0,0,0,0,849,850,851,852,853,847,848,0,417,418,419,0,797,798,799,800,801,802,803,804,805,806,807,0,0,0,0,0,
0,0,733,734,735,0,0,0,0,0,0,0,0,0,0,0,0,0,0,0,0,0,0,0,0,0,0,0,0,0,733,734,735,0,849,850,851,852,853,854,855,856,857,858,859,0,0,0,0,0,
0,0,0,0,0,0,0,0,0,0,0,0,0,0,0,0,0,0,0,0,0,0,0,0,0,0,0,0,0,0,0,0,0,0,0,0,0,0,0,0,0,0,0,0,0,0,0,0,0,0,
0,0,0,0,0,0,0,0,0,0,0,0,0,0,0,0,0,0,0,0,0,0,0,0,0,0,0,0,0,0,0,0,0,0,0,0,0,0,0,0,0,0,0,0,0,0,473,474,475,0,
0,0,0,0,0,0,0,0,0,0,0,0,0,0,0,0,0,0,0,0,0,0,0,0,0,0,0,0,0,0,0,0,0,0,0,0,0,0,0,0,0,1376,1377,0,0,0,525,526,527,0,
0,0,0,0,0,0,0,0,0,365,366,367,0,0,0,0,0,0,0,0,0,0,0,0,0,0,0,0,0,0,0,0,0,0,0,0,0,0,0,0,0,0,0,0,0,0,733,734,735,0,
0,0,0,0,0,0,0,0,0,417,418,419,0,0,0,0,0,0,0,0,0,0,0,0,0,0,0,0,0,0,0,0,0,0,0,0,0,0,0,0,0,0,0,0,0,0,0,0,0,0,
0,0,0,0,0,0,0,0,0,733,734,735,0,0,0,0,0,0,0,0,0,0,0,0,0,0,0,0,0,0,0,0,0,0,0,0,0,0,0,0,0,0,0,0,0,0,0,0,0,0,
0,0,0,0,0,0,0,0,0,0,0,0,0,0,0,0,0,0,0,0,0,0,0,0,0,0,0,0,0,0,0,0,0,0,0,0,0,0,473,474,475,0,0,0,0,0,0,0,0,0,
0,0,0,0,0,0,0,0,0,0,0,0,0,0,0,0,0,0,0,0,0,0,0,0,0,0,0,0,0,0,0,0,0,0,0,0,0,0,525,526,527,0,0,0,0,0,0,0,0,0,
0,0,0,0,0,0,0,0,0,0,0,0,0,0,0,0,0,0,0,0,0,0,0,0,0,0,0,0,0,0,0,0,0,0,0,0,0,0,733,734,735,0,0,0,0,0,0,0,0,0,
0,0,0,0,0,0,0,0,0,0,0,0,0,0,0,0,0,0,0,0,0,0,0,0,0,0,0,0,0,0,0,0,0,0,0,0,0,0,0,0,0,0,0,0,0,0,0,0,0,0,
0,0,0,0,0,0,0,0,0,0,0,0,0,0,0,0,0,0,0,0,0,0,0,0,0,0,0,0,0,0,0,0,0,0,0,0,0,0,0,0,0,0,0,0,0,0,0,0,0,0,
0,0,0,0,0,0,0,0,0,0,0,0,0,0,0,0,0,0,0,0,0,0,0,0,0,0,0,0,0,0,0,0,0,0,0,0,0,0,0,0,0,0,0,0,0,0,0,0,0,0,
0,0,0,0,0,0,0,0,0,0,0,0,0,0,0,0,0,0,0,0,0,0,0,0,0,0,0,0,0,0,0,0,0,0,0,0,0,0,0,0,0,0,0,0,0,0,0,0,0,0,
0,0,0,0,0,0,0,0,0,0,0,0,0,0,0,0,0,0,0,0,0,0,0,0,0,0,0,0,0,0,0,0,0,0,0,0,0,0,0,0,0,0,0,0,0,0,0,0,0,0,
0,0,0,0,0,0,0,0,0,0,0,0,0,0,0,0,0,0,0,0,0,0,0,0,0,0,0,0,0,0,0,0,0,0,0,0,0,0,0,0,0,0,0,0,0,0,0,0,0,0,
0,0,0,0,0,0,0,0,0,0,0,365,366,367,0,0,0,0,0,0,0,0,0,0,0,0,0,0,0,0,0,0,0,0,0,0,0,0,0,0,0,0,0,0,0,0,0,0,0,0,
0,0,0,0,0,0,0,0,0,0,0,417,418,419,0,0,0,0,0,0,0,0,0,0,0,0,0,0,0,0,0,0,0,0,0,0,0,0,0,0,0,0,365,366,367,0,0,0,0,0,
0,0,0,0,0,0,0,0,0,0,0,733,734,735,0,0,0,0,0,0,0,0,0,0,0,0,0,0,0,0,0,0,0,0,0,0,0,0,0,0,0,0,417,418,419,0,0,0,0,0,
0,0,0,0,0,0,0,0,0,0,0,0,0,0,0,0,0,0,0,0,0,0,0,0,0,0,0,0,0,0,0,0,0,0,0,0,0,0,0,0,0,0,733,734,735,0,0,0,0,0,
0,0,0,0,0,0,0,0,0,0,0,0,0,0,0,0,0,0,0,0,0,0,0,0,0,0,0,0,0,0,0,0,0,0,0,0,0,0,0,0,0,0,0,0,0,0,0,0,0,0,
0,0,0,0,0,0,0,0,0,0,0,0,0,0,0,0,0,0,0,0,0,0,0,0,0,0,0,0,0,0,0,0,0,0,0,0,0,0,0,0,0,0,0,0,0,0,0,0,0,0,
0,0,0,797,798,799,800,801,795,796,0,0,0,0,0,0,0,0,0,0,0,0,0,0,0,0,0,0,0,0,0,0,0,0,0,0,0,0,0,0,0,0,0,0,0,0,0,0,0,0,
0,0,0,849,850,851,852,853,847,848,0,0,0,0,0,0,0,0,0,0,0,0,0,0,0,0,0,0,0,0,0,0,0,0,0,0,0,0,0,0,0,0,0,0,0,0,0,0,0,0,
0,0,0,0,0,0,0,0,0,900,0,0,0,0,0,0,0,0,0,0,0,0,0,0,0,0,0,0,0,0,0,0,0,0,0,0,0,0,0,0,0,0,0,0,0,0,0,0,0,0,
0,0,0,0,0,0,0,0,0,0,0,0,0,0,0,0,0,0,0,0,0,0,0,0,0,0,0,0,0,0,0,0,0,0,0,0,0,0,0,0,0,0,0,0,0,0,0,0,0,0,
0,0,0,0,0,0,0,0,0,0,0,0,0,0,0,0,0,0,0,0,0,0,0,0,0,0,0,0,0,0,0,0,0,0,0,0,0,0,0,0,0,0,0,0,0,0,0,0,0,0,
0,0,0,0,0,0,0,0,0,0,0,0,0,0,0,0,0,0,0,0,0,0,0,0,0,0,0,0,0,0,0,0,0,0,0,0,0,0,0,0,0,0,0,0,0,0,0,0,0,0,
0,0,0,0,0,0,0,0,0,0,0,0,0,0,0,0,0,0,0,0,0,0,0,0,0,0,0,0,0,0,0,1154,1155,1156,1157,1158,1159,1160,0,0,0,0,0,0,0,0,0,0,0,0,
0,0,0,0,0,0,0,0,0,0,365,366,367,0,0,0,0,0,0,0,0,0,0,0,0,0,0,0,0,0,0,1206,1207,1208,1209,1210,1211,1212,0,0,0,0,0,0,0,0,0,0,0,0,
0,0,0,365,366,367,0,0,0,0,417,418,419,0,0,0,0,0,0,0,0,0,0,0,0,0,0,0,0,0,0,1258,1259,1260,1261,1262,1263,1264,0,0,0,0,0,0,0,0,0,0,0,0,
0,0,0,417,418,419,0,0,0,0,733,734,735,0,0,0,0,0,0,0,0,0,0,0,0,0,0,0,0,0,0,0,0,0,0,0,0,0,0,0,0,0,0,365,366,367,0,0,0,0,
0,0,0,733,734,735,0,0,0,0,0,0,0,0,0,0,0,0,0,0,0,0,0,0,0,0,0,0,0,0,0,0,0,0,0,0,0,0,0,0,0,0,0,417,418,419,0,0,0,0,
0,0,0,0,0,0,0,0,0,0,0,0,0,0,0,0,0,0,0,0,0,0,0,0,0,0,0,0,0,0,0,0,0,0,0,0,0,0,0,0,0,0,0,733,734,735,0,0,0,0,
0,0,0,0,0,0,0,0,0,0,0,0,0,0,0,0,0,0,0,0,0,0,0,0,0,0,0,0,0,0,0,0,0,0,0,0,0,0,0,0,0,0,0,0,0,0,0,0,0,0,
0,0,0,0,0,0,0,0,0,0,0,0,0,0,0,0,0,0,0,0,0,0,0,0,0,0,0,0,0,0,0,0,0,0,0,0,0,0,0,0,0,0,0,0,0,0,0,0,0,0,
0,0,0,0,0,0,0,0,0,0,0,0,0,0,0,0,0,0,0,0,0,0,0,0,0,0,0,365,366,367,0,0,0,0,0,0,0,0,0,0,0,0,0,0,0,0,0,0,0,0,
0,0,0,0,0,365,366,367,0,0,0,0,0,0,0,0,0,0,0,0,0,0,0,0,0,0,0,417,418,419,0,0,0,0,0,0,0,0,0,0,0,0,0,0,0,0,0,0,0,0,
0,0,0,0,0,417,418,419,0,0,0,0,0,0,0,365,366,367,0,0,0,0,0,0,0,0,0,733,734,735,0,0,0,0,0,0,0,0,0,0,0,0,0,0,0,0,0,0,0,0,
0,0,0,0,0,733,734,735,0,0,0,0,0,0,0,417,418,419,0,0,0,0,0,0,0,0,0,0,0,0,0,0,0,0,0,0,0,0,0,0,0,0,365,366,367,0,0,0,0,0,
0,0,0,0,0,0,0,0,0,0,0,0,0,0,0,733,734,735,0,0,0,0,0,0,0,0,0,0,0,0,0,0,0,0,0,0,0,0,0,0,0,0,417,418,419,0,0,0,0,0,
0,0,0,0,0,0,0,0,0,0,0,0,0,0,0,0,0,0,0,0,0,0,0,0,0,0,0,0,0,0,0,0,0,0,0,0,0,0,0,0,0,0,733,734,735,0,0,0,0,0,
0,0,0,0,0,0,0,0,0,0,0,0,0,0,0,0,0,0,0,0,0,0,0,0,0,0,0,0,0,0,0,0,0,0,0,0,0,0,0,0,0,0,0,0,0,0,0,0,0,0,
0,0,0,0,0,0,0,0,0,0,0,0,0,0,0,0,0,0,0,0,0,0,0,0,0,0,0,0,0,0,0,0,0,0,0,0,0,0,0,0,0,0,0,0,0,0,0,0,0,0
</data>
 </layer>
 <objectgroup id="9" name="Collisions" class="collision">
  <object id="1" name="collision_mur_arbre_maison_eau" type="collision" x="724" y="184" width="170.5" height="73.333"/>
  <object id="3" name="collision_mur_arbre_maison_eau" type="collision" x="708" y="217.333" width="22.6667" height="37.3333"/>
  <object id="4" name="collision_mur_arbre_maison_eau" type="collision" x="901.333" y="221.333" width="24" height="34.6667"/>
  <object id="5" name="collision_mur_arbre_maison_eau" type="collision" x="1115" y="207.667" width="293.667" height="81.667"/>
  <object id="6" name="collision_mur_arbre_maison_eau" type="collision" x="1280" y="290.667" width="128" height="92"/>
  <object id="7" name="collision_mur_arbre_maison_eau" type="collision" x="1490" y="341.333" width="57.3333" height="26.3334"/>
  <object id="10" name="collision_mur_arbre_maison_eau" type="collision" x="123.167" y="958.333" width="169.333" height="63.9997"/>
  <object id="14" name="collision_mur_arbre_maison_eau" type="collision" x="1237.66" y="505" width="50.3334" height="23.3334"/>
  <object id="15" name="collision_mur_arbre_maison_eau" type="collision" x="979" y="216.333" width="56" height="25.6666"/>
  <object id="16" name="collision_mur_arbre_maison_eau" type="collision" x="1206" y="114.333" width="53.3333" height="28.6667"/>
  <object id="17" name="collision_mur_arbre_maison_eau" type="collision" x="1366.34" y="826.333" width="50" height="21.6667"/>
  <object id="18" name="collision_mur_arbre_maison_eau" type="collision" x="245.167" y="152.833" width="50.3334" height="24.3333"/>
  <object id="19" name="collision_mur_arbre_maison_eau" type="collision" x="84.6667" y="216.333" width="51" height="24.6667"/>
  <object id="20" name="collision_mur_arbre_maison_eau" type="collision" x="372.833" y="791.5" width="52" height="27"/>
  <object id="21" name="collision_mur_arbre_maison_eau" type="collision" x="117.5" y="601.333" width="52.3333" height="24.3333"/>
  <object id="22" name="collision_mur_arbre_maison_eau" type="collision" x="308.167" y="409.833" width="53.6667" height="25.333"/>
  <object id="23" name="collision_mur_arbre_maison_eau" type="collision" x="340" y="1209.33" width="54.6667" height="23.6666"/>
  <object id="24" name="collision_mur_arbre_maison_eau" type="collision" x="117.5" y="1236.5" width="49.3334" height="29.6667"/>
  <object id="25" name="collision_mur_arbre_maison_eau" type="collision" x="181.667" y="1462.83" width="52" height="28"/>
  <object id="26" name="collision_mur_arbre_maison_eau" type="collision" x="500.333" y="1496.83" width="53.6667" height="26"/>
  <object id="27" name="collision_mur_arbre_maison_eau" type="collision" x="884.667" y="1427.5" width="54" height="30.3333"/>
  <object id="28" name="collision_mur_arbre_maison_eau" type="collision" x="1019.67" y="1101.33" width="170.333" height="115.333"/>
  <object id="32" name="collision_mur_arbre_maison_eau" type="collision" x="1398.5" y="1271.83" width="50" height="25.3333"/>
  <object id="33" name="collision_mur_arbre_maison_eau" type="collision" x="1366.34" y="1530" width="50" height="23.3334"/>
  <object id="34" name="collision_mur_arbre_maison_eau" type="collision" x="1341.33" y="64" width="95.083" height="61.3333"/>
  <object id="35" name="collision_mur_arbre_maison_eau" type="collision" x="1436" y="64" width="94.6667" height="35.75"/>
  <object id="37" name="collision_mur_arbre_maison_eau" type="collision" x="1473.75" y="93.25" width="58" height="33.4167"/>
  <object id="38" name="collision_mur_arbre_maison_eau" type="collision" x="477.333" y="-5.33333" width="98.6667" height="580"/>
  <object id="39" name="collision_mur_arbre_maison_eau" type="collision" x="572" y="474.667" width="33.3333" height="98.6667"/>
  <object id="40" name="collision_mur_arbre_maison_eau" type="collision" x="675.667" y="476" width="123" height="100"/>
  <object id="41" name="collision_mur_arbre_maison_eau" type="collision" x="704" y="570.667" width="96" height="228"/>
  <object id="42" name="collision_mur_arbre_maison_eau" type="collision" x="800" y="702.667" width="285.333" height="96"/>
  <object id="43" name="collision_mur_arbre_maison_eau" type="collision" x="993.333" y="792" width="94.6667" height="36"/>
  <object id="44" name="collision_mur_arbre_maison_eau" type="collision" x="990.667" y="865.667" width="97.3333" height="283.667"/>
  <object id="45" name="collision_mur_arbre_maison_eau" type="collision" x="1089.33" y="1054.67" width="510.667" height="94.6667"/>
  <object id="46" name="collision_mur_arbre_maison_eau" type="collision" x="-0.66667" y="-9.33333" width="1600" height="37.3333"/>
  <object id="47" name="collision_mur_arbre_maison_eau" type="collision" x="1566.67" y="28" width="32" height="1573.33"/>
  <object id="48" name="collision_mur_arbre_maison_eau" type="collision" x="1.33333" y="1568" width="1564" height="32"/>
  <object id="49" name="collision_mur_arbre_maison_eau" type="collision" x="0" y="32" width="28" height="1537.33"/>
  <object id="54" name="spawn" x="210" y="1068.75">
   <point/>
  </object>
 </objectgroup>
 <objectgroup id="12" name="enter_cave">
  <object id="55" name="enter_cave" x="1437.25" y="100.75" width="35.75" height="27.5"/>
 </objectgroup>
 <objectgroup id="13" name="exit_cave_spawn">
  <object id="56" name="exit_cave_spawn" x="1455.75" y="145">
   <point/>
  </object>
 </objectgroup>
 <objectgroup id="16" name="NPC_path">
  <object id="60" name="pnj_1_path1" x="32" y="1120" width="32" height="32"/>
  <object id="61" name="pnj_1_path2" x="352" y="1120" width="32" height="32"/>
  <object id="63" name="pnj_1_path3" x="352" y="832" width="32" height="32"/>
  <object id="65" name="pnj_1_path4" x="32" y="832" width="32" height="32"/>
 </objectgroup>
 <objectgroup id="14" name="enter_house">
  <object id="59" name="enter_house" x="159" y="991.5" width="30.5" height="44.5"/>
 </objectgroup>
 <objectgroup id="15" name="exit_house_spawn">
  <object id="58" name="spawn_map_to_house" x="171" y="1065">
   <point/>
  </object>
 </objectgroup>
</map>
